; filename = 1.3w
; print_time = 2666
; machine = dv1NW0A000
; facets = 1776
; total_layers = 30
; version = 20100610
; total_filament = 1536.83
; nozzle_diameter = 0.40
; nozzle_type = 57
; first_layer_height = 0.35
; layer_height = 0.20
; avoid_crossing_perimeters = 0
; bridge_detect = 0
; bridge_flow_ratio = 0.90
; support_material = 0
; extruder_filament = 1536.83:0.00
; extruder = 1
; temperature = 210
; bed_temperature = 0
; non_double_speed = 1
; preheating_time = 0,0,0
; filamentid = 50,50
; materialid = 0
; fill_density = 0.10
; infill_expand = 0.000
; raft_layers = 0
; shells = 2
; speed = 20.000
; brim_width = 0.000
; dimension = 75.09:34.29:6.15
; original_dimension = 75.09:34.29:6.08
; boundingbox_x1 = 22.45
; boundingbox_y1 = 42.85
; boundingbox_x2 = 97.55
; boundingbox_y2 = 77.14
; resolution = 0.0400
; top_solid_layers = 5
; bottom_solid_layers = 3
; fill_pattern = rectilinear
; perimeter_speed = 15.000
; external_perimeter_speed = 15.000
; small_perimeter_speed = 15.000
; top_solid_infill_speed = 20.000
; solid_infill_speed = 20.000
; bridge_speed = 10.000
; travel_speed = 60.000
; retract_speed = 30
; retract_length = 4.500
; retract_before_travel = 2.000
; retract_lift = 0.000
; retract_restart_extra = 0.000
; retract_layer_change = 1
; only_retract_when_crossing_perimeters = 1
; first_layer_speed = 10.000
; extrusion_multiplier_perimeter = 1.000
; extrusion_multiplier_infill = 1.000
; extrusion_multiplier_gapfill = 1.000
; extrusion_multiplier_solid_infill = 1.000
; extrusion_multiplier_top_infill = 1.000
; Call_From_APP = XYZprint V2.0.5_2A14512
; speed_limit_open = 0

; infill_type = 0
; Seam_Corner_Preference = 0
G21 ; set units to millimeters
M107
M104 S210 ; set temperature
M109 S210 ; wait for temperature to be reached
M191
G90 ; use absolute coordinates
G92 E0
M82 ; use absolute distances for extrusion
G1 F1800.000 E-4.50000
G92 E0
; Layer: 1 Time: 199
G1 Z0.350 F3600.000
; skirt start
G1 X3.000 Y1.000
G1 F1800.000 E4.50000
G1 X5.000 Y1.000 F600.000 E4.96245
G1 X5.000 Y101.000 E28.08519
G1 X3.000 Y101.000 E28.54765
G1 X3.000 Y1.788 E51.48667
; skirt end
; Region: 0
; perimeter_start
G1 F1800.000 E46.98667
G92 E0
G1 X42.938 Y72.600 F3600.000
G1 F1800.000 E4.50000
G1 X43.263 Y72.888 F600.000 E4.54006
G1 X43.525 Y73.350 E4.58861
G1 X43.613 Y73.825 E4.63368
G1 X43.588 Y74.238 E4.67203
G1 X43.250 Y75.013 E4.74998
G1 X42.913 Y75.338 E4.79349
G1 X42.488 Y75.563 E4.83820
G1 X41.563 Y75.713 E4.92421
G1 X39.088 Y75.713 E5.15344
G1 X39.088 Y69.850 E5.69546
G1 X41.375 Y69.850 E5.90727
G1 X42.088 Y69.925 E5.97289
G1 X42.600 Y70.113 E6.02411
G1 X42.988 Y70.425 E6.07018
G1 X43.263 Y70.863 E6.11715
G1 X43.400 Y71.325 E6.16240
G1 X43.388 Y71.788 E6.20552
G1 X43.138 Y72.350 E6.26233
G1 X43.363 Y72.675
G1 X45.325 Y73.275 F3600.000
G1 X43.038 Y69.850 F600.000 E6.64326
G1 X44.675 Y69.850 E6.79507
G1 X46.013 Y71.950 E7.02507
G1 X47.350 Y69.850 E7.25498
G1 X50.038 Y69.850 E7.50423
G1 X50.075 Y73.738 E7.86361
G1 X50.150 Y74.038 E7.89143
G1 X50.425 Y74.350 E7.93008
G1 X50.675 Y74.450 E7.95512
G1 X51.150 Y74.463 E7.99941
G1 X51.675 Y74.288 E8.05035
G1 X51.900 Y73.838 E8.09722
G1 X51.950 Y73.388 E8.13855
G1 X51.950 Y69.850 E8.46548
G1 X53.325 Y69.850 E8.59252
G1 X53.313 Y73.638 E8.94177
G1 X53.225 Y74.238 E8.99840
G1 X52.875 Y75.013 E9.07677
G1 X52.225 Y75.538 E9.15474
G1 X51.513 Y75.750 E9.22310
G1 X50.613 Y75.763 E9.30634
G1 X49.875 Y75.588 E9.37672
G1 X49.350 Y75.263 E9.43405
G1 X49.000 Y74.838 E9.48396
G1 X48.850 Y74.525 E9.51666
G1 X48.675 Y73.538 E9.60954
G1 X48.675 Y70.713 E9.87006
G1 X48.450 Y70.650 E9.89096
G1 X46.700 Y73.275 E10.18340
G1 X46.700 Y75.713 E10.40860
G1 X45.325 Y75.713 E10.53557
G1 X45.325 Y73.600 E10.73138
G1 X44.063 Y73.113
G1 F1800.000 E6.23138
G92 E0
G1 X38.450 Y76.188 F3600.000
G1 F1800.000 E4.50000
G1 X34.500 Y76.188 F600.000 E4.86551
G1 X34.500 Y69.650 E5.46955
G1 X38.450 Y69.175 E5.83770
G1 X38.450 Y75.862 E6.45632
G1 X42.963 Y76.188 F3600.000
G1 X43.788 Y75.388 F600.000 E6.56285
G1 X44.200 Y74.413 E6.66090
G1 X44.688 Y74.513 E6.70688
G1 X44.688 Y76.188 E6.86194
G1 X43.275 Y76.188 E6.99272
G1 X47.338 Y76.188 F3600.000
G1 X47.338 Y73.475 F600.000 E7.24358
G1 X47.613 Y73.063 E7.28933
G1 X48.038 Y73.188 E7.33114
G1 X48.038 Y73.588 E7.36790
G1 X48.238 Y74.713 E7.47363
G1 X48.463 Y75.188 E7.52138
G1 X49.275 Y76.188 E7.64113
G1 X47.650 Y76.188 E7.79176
G1 F1800.000 E3.29176
G92 E0
G1 X50.700 Y72.950 F3600.000
G1 F1800.000 E4.50000
G1 X50.663 Y69.225 F600.000 E4.84468
G1 X47.000 Y69.225 E5.18446
G1 X46.013 Y70.763 E5.35407
G1 X45.025 Y69.225 E5.52374
G1 X42.913 Y69.225 E5.71945
G1 X42.875 Y68.650 E5.77261
G1 X53.913 Y67.325 E6.79997
G1 X56.625 Y65.500 E7.10220
G1 X57.938 Y66.025 E7.23363
G1 X57.875 Y66.625 E7.29002
G1 X58.038 Y67.088 E7.33480
G1 X57.713 Y67.313 E7.37094
G1 X57.325 Y67.813 E7.42988
G1 X57.113 Y68.425 E7.48947
G1 X57.113 Y70.550 E7.68549
G1 X57.350 Y71.288 E7.75777
G1 X57.813 Y71.925 E7.83030
G1 X58.450 Y72.388 E7.90282
G1 X59.188 Y72.625 E7.97530
G1 X75.488 Y72.650 E9.48216
G1 X86.513 Y69.550 E10.54235
G1 X87.175 Y69.075 E10.61670
G1 X87.638 Y68.438 E10.68978
G1 X87.900 Y67.638 E10.76757
G1 X87.775 Y66.475 E10.87645
G1 X89.763 Y66.475 E11.06077
G1 X89.763 Y76.188 E11.95897
G1 X53.075 Y76.188 E15.35247
G1 X52.938 Y75.775 E15.39239
G1 X53.388 Y75.413 E15.44679
G1 X53.838 Y74.413 E15.54745
G1 X53.950 Y73.675 E15.61651
G1 X53.963 Y69.225 E16.02889
G1 X51.325 Y69.225 E16.27363
G1 X51.313 Y72.938 E16.61807
G1 X51.025 Y72.950 E16.64477
G1 X53.675 Y66.700 F3600.000
G1 X56.550 Y64.788 F600.000 E16.96381
G1 X58.150 Y65.425 E17.12358
G1 X58.850 Y65.413 E17.18848
G1 X58.563 Y66.163 E17.26322
G1 X58.525 Y66.563 E17.30004
G1 X58.788 Y67.338 E17.37604
G1 X58.150 Y67.775 E17.44746
G1 X57.888 Y68.125 E17.48751
G1 X57.750 Y68.525 E17.52777
G1 X57.750 Y70.450 E17.70492
G1 X57.925 Y71.000 E17.75866
G1 X58.263 Y71.475 E17.81249
G1 X58.738 Y71.813 E17.86632
G1 X59.288 Y72.000 E17.92015
G1 X75.400 Y72.013 E19.40955
G1 X86.238 Y68.963 E20.45134
G1 X86.725 Y68.625 E20.50601
G1 X87.063 Y68.150 E20.56024
G1 X87.250 Y67.575 E20.61604
G1 X87.163 Y66.688 E20.69916
G1 X86.863 Y66.138 E20.75605
G1 X86.538 Y65.838 E20.79719
G1 X90.400 Y65.838 E21.15432
G1 X90.400 Y76.825 E22.17005
G1 X33.863 Y76.825 E27.39965
G1 X33.863 Y69.088 E28.11462
G1 X53.363 Y66.750 E29.93137
G1 X54.725 Y67.438
G1 F1800.000 E25.43137
G92 E0
G1 X72.625 Y62.100 F3600.000
G1 F1800.000 E4.50000
G1 X73.338 Y61.400 F600.000 E4.54625
G1 X73.788 Y60.963 E4.60476
G1 X74.150 Y61.038 E4.63874
G1 X75.138 Y61.238 E4.73123
G1 X76.113 Y61.438 E4.82372
G1 X77.088 Y61.638 E4.91621
G1 X77.575 Y61.738 E4.96153
G1 X78.050 Y61.913 E5.00870
G1 X78.975 Y62.275 E5.10119
G1 X83.713 Y64.100 E5.56995
G1 X83.588 Y64.625 E5.61919
G1 X78.938 Y64.175 E6.05091
G1 X77.950 Y64.075 E6.14340
G1 X76.950 Y63.988 E6.23589
G1 X75.950 Y63.888 E6.32838
G1 X74.963 Y63.788 E6.42088
G1 X73.963 Y63.700 E6.51337
G1 X73.375 Y63.638 E6.56798
G1 X73.225 Y63.263 E6.60586
G1 X72.838 Y62.338 E6.65210
G1 X72.338 Y62.738
G1 X71.925 Y62.275 E6.70926
G1 X71.538 Y62.050 E6.75048
G1 X71.950 Y61.863 E6.79238
G1 X73.588 Y60.263 E7.00418
G1 X77.750 Y61.125 E7.39705
G1 X84.325 Y63.663 E8.04876
G1 X84.663 Y64.988 E8.17538
G1 X84.875 Y65.175 E8.20123
G1 X84.788 Y65.375 E8.22174
G1 X72.925 Y64.238 E9.32361
G1 X72.463 Y63.025 E9.44310
G1 X72.600 Y62.175
G1 X68.850 Y62.088 F3600.000
G1 X68.675 Y62.263 F600.000 E9.46576
G1 X68.138 Y63.375 E9.58008
G1 X62.350 Y64.425 E10.12483
G1 X61.300 Y63.988 E10.22910
G1 X61.050 Y63.950 E10.25293
G1 X60.575 Y61.675 E10.46808
G1 X59.738 Y59.200 E10.71044
G1 X57.063 Y58.613 E10.96257
G1 X23.900 Y62.063 E14.04621
G1 X23.488 Y57.450 E14.47488
G1 X59.725 Y54.163 E17.83998
G1 X95.088 Y44.025 E21.24289
G1 X96.363 Y48.463 E21.66929
G1 X68.650 Y56.413 E24.33527
G1 X67.975 Y56.900 E24.41245
G1 X67.488 Y57.575 E24.48967
G1 X67.250 Y58.375 E24.56688
G1 X67.300 Y59.175 E24.64032
G1 X67.438 Y59.625 E24.68485
G1 X68.688 Y61.813 E24.91755
G1 X69.213 Y61.450
G1 X70.000 Y62.025 E25.00814
G1 X69.638 Y62.200 E25.04562
G1 X69.200 Y62.638 E25.10260
G1 X68.575 Y63.938 E25.23663
G1 X62.275 Y65.075 E25.82885
G1 X61.138 Y64.600 E25.94229
G1 X60.475 Y64.525 E26.00414
G1 X60.013 Y64.625 E26.04860
G1 X60.263 Y64.175 E26.09660
G1 X60.363 Y63.800 E26.13301
G1 X59.950 Y61.850 E26.31742
G1 X59.250 Y59.738 E26.52293
G1 X57.038 Y59.263 E26.73233
G1 X23.338 Y62.763 E29.86612
G1 X22.800 Y56.875 E30.41313
G1 X59.600 Y53.525 E33.83149
G1 X95.525 Y43.238 E37.28761
G1 X97.150 Y48.900 E37.83155
G1 X68.938 Y57.000 E40.54636
G1 X68.425 Y57.350 E40.60364
G1 X68.063 Y57.863 E40.66092
G1 X67.900 Y58.450 E40.71820
G1 X67.925 Y59.063 E40.77422
G1 X68.025 Y59.375 E40.80489
G1 X69.050 Y61.175 E40.99656
G1 X68.975 Y62.400
; perimeter_end
; infill_start
G1 F1800.000 E36.49656
G92 E0
G1 X74.213 Y63.263 F3600.000
G1 F1800.000 E4.50000
G1 X73.413 Y62.450 F600.000 E4.61499
G1 X73.663 Y61.725 E4.69297
G1 X75.300 Y63.363 E4.92684
G1 X76.388 Y63.463 E5.03749
G1 X74.500 Y61.575 E5.30829
G1 X75.738 Y61.825 E5.43621
G1 X77.475 Y63.575 E5.68557
G1 X78.563 Y63.675 E5.79622
G1 X76.975 Y62.088 E6.02415
G1 X78.438 Y62.563 E6.18004
G1 X79.025 Y63.163 E6.26515
G1 X79.300 Y63.338
G1 X83.113 Y64.238 E6.57089
G1 X79.463 Y63.525 F3600.000
G1 X79.638 Y63.413 F600.000 E6.59427
G1 X79.525 Y63.238 E6.61897
G1 F1800.000 E2.11897
G92 E0
G1 X88.538 Y67.088 F3600.000
G1 F1800.000 E4.50000
G1 X89.150 Y67.163 F600.000 E4.55267
G1 X89.313 Y67.975
G1 X88.925 Y67.588 E4.60404
G1 X88.300 Y67.888 E4.66836
G1 X89.313 Y68.888 E4.80157
G1 X89.313 Y69.800 E4.88752
G1 X88.088 Y68.575 E5.05062
G1 X87.713 Y69.125 E5.11255
G1 X89.313 Y70.713 E5.32452
G1 X89.313 Y71.625 E5.41046
G1 X87.263 Y69.575 E5.68255
G1 X86.725 Y69.963 E5.74417
G1 X89.313 Y72.538 E6.08719
G1 X89.313 Y73.450 E6.17314
G1 X86.013 Y70.163 E6.61062
G1 X85.300 Y70.363 E6.68030
G1 X89.313 Y74.375 E7.21265
G1 X89.313 Y75.288 E7.29859
G1 X84.588 Y70.563 E7.92582
G1 X83.875 Y70.763 E7.99550
G1 X88.838 Y75.725 E8.65479
G1 X87.925 Y75.725 E8.74073
G1 X83.163 Y70.963 E9.37335
G1 X82.450 Y71.163 E9.44304
G1 X87.013 Y75.725 E10.04899
G1 X86.100 Y75.725 E10.13493
G1 X81.738 Y71.363 E10.71421
G1 X81.025 Y71.575 E10.78389
G1 X85.175 Y75.725 E11.33650
G1 X84.263 Y75.725 E11.42244
G1 X80.313 Y71.775 E11.94838
G1 X79.600 Y71.975 E12.01806
G1 X83.350 Y75.725 E12.51732
G1 X82.438 Y75.725 E12.60327
G1 X78.888 Y72.175 E13.07586
G1 X78.175 Y72.375 E13.14554
G1 X81.525 Y75.725 E13.59147
G1 X80.613 Y75.725 E13.67741
G1 X77.463 Y72.575 E14.09666
G1 X76.750 Y72.775 E14.16634
G1 X79.700 Y75.725 E14.55892
G1 X78.788 Y75.725 E14.64486
G1 X76.025 Y72.975 E15.01077
G1 X75.250 Y73.113 E15.08502
G1 X77.863 Y75.725 E15.43282
G1 X76.950 Y75.725 E15.51876
G1 X74.338 Y73.113 E15.86669
G1 X73.425 Y73.113 E15.95272
G1 X76.038 Y75.725 E16.30078
G1 X75.125 Y75.725 E16.38673
G1 X72.513 Y73.113 E16.73492
G1 X71.588 Y73.100 E16.82095
G1 X74.213 Y75.725 E17.16927
G1 X73.300 Y75.725 E17.25522
G1 X70.675 Y73.100 E17.60367
G1 X69.763 Y73.100 E17.68970
G1 X72.388 Y75.725 E18.03829
G1 X71.475 Y75.725 E18.12423
G1 X68.850 Y73.100 E18.47294
G1 X67.938 Y73.100 E18.55898
G1 X70.563 Y75.725 E18.90782
G1 X69.638 Y75.725 E18.99377
G1 X67.025 Y73.100 E19.34274
G1 X66.100 Y73.100 E19.42878
G1 X68.725 Y75.725 E19.77789
G1 X67.813 Y75.725 E19.86383
G1 X65.188 Y73.100 E20.21307
G1 X64.275 Y73.100 E20.29910
G1 X66.900 Y75.725 E20.64847
G1 X65.988 Y75.725 E20.73442
G1 X63.363 Y73.100 E21.08392
G1 X62.450 Y73.100 E21.16995
G1 X65.075 Y75.725 E21.51958
G1 X64.163 Y75.725 E21.60553
G1 X61.525 Y73.100 E21.95529
G1 X60.613 Y73.088 E22.04133
G1 X63.250 Y75.725 E22.39122
G1 X62.338 Y75.725 E22.47716
G1 X59.700 Y73.088 E22.82719
G1 X58.625 Y72.938 E22.92941
G1 X61.413 Y75.725 E23.30086
G1 X60.500 Y75.725
G1 X54.425 Y69.650 E24.10926
G1 X54.425 Y70.550 E24.19485
G1 X59.588 Y75.725 E24.88220
G1 X58.675 Y75.725 E24.96815
G1 X54.413 Y71.463 E25.53446
G1 X54.413 Y72.375 E25.62005
G1 X57.763 Y75.725 E26.06531
G1 X56.850 Y75.725 E26.15126
G1 X54.413 Y73.288 E26.47548
G1 X54.350 Y74.138 E26.55570
G1 X55.938 Y75.725 E26.76678
G1 X55.025 Y75.725 E26.85272
G1 X54.150 Y74.850 E26.96854
G1 X53.863 Y75.488 E27.03349
G1 X54.113 Y75.725 E27.06562
G1 X56.813 Y71.125 F3600.000
G1 X53.700 Y68.013 F600.000 E27.47955
G1 X54.250 Y67.638 E27.54150
G1 X56.650 Y70.050 E27.86123
G1 X56.650 Y69.138 E27.94710
G1 X54.800 Y67.275 E28.19416
G1 X55.350 Y66.913 E28.25610
G1 X56.688 Y68.250 E28.43481
G1 X56.925 Y67.575 E28.50223
G1 X55.888 Y66.538 E28.63974
G1 X56.438 Y66.175 E28.70168
G1 X57.325 Y67.063 E28.81908
G1 X53.625 Y68.775 F3600.000
G1 X53.038 Y68.338 F600.000 E28.89202
G1 X46.688 Y68.688 E29.52002
G1 X46.013 Y69.138 E29.59902
G1 X46.013 Y69.988 E29.68407
G1 X46.325 Y69.300
G1 X45.300 Y68.750 E29.78941
G1 X45.050 Y68.838 E29.81353
G1 X44.950 Y68.738 E29.82684
G1 X42.413 Y68.575 F3600.000
G1 X42.000 Y69.013 F600.000 E29.89827
G1 X39.113 Y69.175 E30.24480
G1 X37.988 Y69.963 F3600.000
G1 X37.750 Y69.725 F600.000 E30.27742
G1 X36.913 Y69.825 E30.35959
G1 X37.988 Y70.913 E30.50759
G1 X37.988 Y71.850 E30.59900
G1 X36.075 Y69.925 E30.86238
G1 X35.225 Y70.025 E30.94456
G1 X37.988 Y72.788 E31.32332
G1 X37.988 Y73.738 E31.41473
G1 X34.963 Y70.700 E31.83033
G1 X34.963 Y71.650 E31.92174
G1 X37.988 Y74.675 E32.33733
G1 X37.988 Y75.625 E32.42874
G1 X34.963 Y72.588 E32.84434
G1 X34.963 Y73.538 E32.93575
G1 X37.150 Y75.725 E33.23638
G1 X36.213 Y75.725 E33.32779
G1 X34.963 Y74.475 E33.49915
G1 X34.963 Y75.413 E33.59056
G1 X35.263 Y75.725 E33.63265
G1 F1800.000 E29.13265
G92 E0
G1 X42.000 Y69.013 F3600.000
G1 F1800.000 E4.50000
G1 X42.213 Y69.238 F600.000 E4.54000
G1 X43.900 Y71.913 F3600.000
G1 X43.975 Y72.625 F600.000 E4.62802
G1 X44.850 Y74.125 E4.84284
G1 X45.263 Y76.275 F3600.000
G1 X46.763 Y76.263 F600.000 E4.94275
G1 X42.738 Y75.925 F3600.000
G1 X41.663 Y76.288 F600.000 E5.01652
G1 X39.013 Y76.275 E5.18984
G1 F1800.000 E0.68984
G92 E0
G1 X47.775 Y73.963 F3600.000
G1 F1800.000 E4.50000
G1 X47.900 Y75.375 F600.000 E4.56513
G1 X48.138 Y75.650 E4.58197
G1 X49.713 Y76.063 F3600.000
G1 X50.438 Y76.300 F600.000 E4.63087
G1 X52.450 Y76.275 E4.76114
G1 F1800.000 E0.26114
G92 E0
G1 X48.013 Y72.500 F3600.000
G1 F1800.000 E4.50000
G1 X48.213 Y71.850 F600.000 E4.54659
G1 F1800.000 E0.04659
G92 E0
G1 X50.838 Y73.663 F3600.000
G1 F1800.000 E4.50000
G1 X51.263 Y73.613 F600.000 E4.55085
G1 F1800.000 E0.05085
G92 E0
G1 X62.163 Y63.838 F3600.000
G1 F1800.000 E4.50000
G1 X61.325 Y63.000 F600.000 E4.61036
G1 X61.075 Y61.863 E4.71928
G1 X63.050 Y63.825 E4.97811
G1 X63.813 Y63.688 E5.05061
G1 X60.675 Y60.550 E5.46338
G1 X60.213 Y59.188 F3600.000
G1 X64.575 Y63.550 F600.000 E6.03778
G1 X65.350 Y63.413
G1 X56.813 Y54.888 E7.16022
G1 X55.988 Y54.963
G1 X59.763 Y58.725 E7.65659
G1 X58.600 Y58.475 E7.76654
G1 X55.163 Y55.038 E8.22011
G1 X54.325 Y55.113 E8.29763
G1 X57.450 Y58.225 E8.70839
G1 X56.525 Y58.213 E8.79435
G1 X53.500 Y55.188 E9.19276
G1 X52.675 Y55.263 E9.27027
G1 X55.713 Y58.300 E9.66998
G1 X54.888 Y58.388 E9.74667
G1 X51.838 Y55.338 E10.14767
G1 X51.013 Y55.413 E10.22518
G1 X54.063 Y58.463 E10.62747
G1 X53.250 Y58.550 E10.70417
G1 X50.188 Y55.488 E11.10775
G1 X49.350 Y55.563 E11.18527
G1 X52.425 Y58.638 E11.59014
G1 X51.613 Y58.725 E11.66684
G1 X48.525 Y55.638 E12.07300
G1 X47.700 Y55.713 E12.15052
G1 X50.788 Y58.813 E12.55798
G1 X49.975 Y58.888 E12.63467
G1 X46.863 Y55.788 E13.04343
G1 X46.038 Y55.863 E13.12094
G1 X49.150 Y58.975 E13.53099
G1 X48.338 Y59.063 E13.60769
G1 X45.213 Y55.938 E14.01902
G1 X44.375 Y56.013 E14.09654
G1 X47.513 Y59.150 E14.50917
G1 X46.688 Y59.238 E14.58587
G1 X43.550 Y56.088 E14.99979
G1 X42.725 Y56.163 E15.07731
G1 X45.875 Y59.313 E15.49253
G1 X45.050 Y59.400 E15.56922
G1 X41.888 Y56.238 E15.98573
G1 X41.063 Y56.313 E16.06325
G1 X44.238 Y59.488 E16.48105
G1 X43.413 Y59.575 E16.55775
G1 X40.225 Y56.388 E16.97684
G1 X39.400 Y56.463 E17.05436
G1 X42.600 Y59.663 E17.47475
G1 X41.775 Y59.750 E17.55144
G1 X38.575 Y56.538 E17.97312
G1 X37.738 Y56.613 E18.05064
G1 X40.950 Y59.825 E18.47361
G1 X40.138 Y59.913 E18.55031
G1 X36.913 Y56.688 E18.97458
G1 X36.088 Y56.763 E19.05209
G1 X39.313 Y60.000 E19.47765
G1 X38.500 Y60.088 E19.55435
G1 X35.250 Y56.838 E19.98120
G1 X34.425 Y56.913 E20.05872
G1 X37.675 Y60.175 E20.48686
G1 X36.863 Y60.250 E20.56356
G1 X33.600 Y56.988 E20.99300
G1 X32.763 Y57.063 E21.07051
G1 X36.038 Y60.338 E21.50125
G1 X35.225 Y60.425 E21.57794
G1 X31.938 Y57.138 E22.00997
G1 X31.113 Y57.213 E22.08748
G1 X34.400 Y60.513 E22.52080
G1 X33.575 Y60.600 E22.59749
G1 X30.275 Y57.288 E23.03210
G1 X29.450 Y57.375 E23.10962
G1 X32.763 Y60.675 E23.54552
G1 X31.938 Y60.763 E23.62222
G1 X28.625 Y57.450 E24.05941
G1 X27.788 Y57.525 E24.13693
G1 X31.125 Y60.850 E24.57542
G1 X30.300 Y60.938 E24.65212
G1 X26.963 Y57.600 E25.09190
G1 X26.138 Y57.675 E25.16941
G1 X29.488 Y61.025 E25.61049
G1 X28.663 Y61.100 E25.68718
G1 X25.300 Y57.750 E26.12955
G1 X24.475 Y57.825 E26.20707
G1 X27.838 Y61.188 E26.65073
G1 X27.025 Y61.275 E26.72742
G1 X24.025 Y58.275 E27.12244
G1 X24.113 Y59.275 E27.21549
G1 X26.200 Y61.363 E27.49067
G1 X25.388 Y61.450 E27.56736
G1 X24.200 Y60.263 E27.72270
G1 X24.300 Y61.263 E27.81575
G1 X24.563 Y61.538 E27.85126
G1 X60.788 Y54.325 F3600.000
G1 X68.013 Y61.550 F600.000 E28.80194
G1 X68.050 Y62.500 E28.88987
G1 X60.088 Y54.538 E29.93829
G1 X59.300 Y54.663 E30.01174
G1 X67.650 Y63.000 E31.10933
G1 X66.875 Y63.138 E31.18183
G1 X58.475 Y54.738 E32.28771
G1 X57.650 Y54.813 E32.36522
G1 X66.113 Y63.275 E33.47938
G1 X61.488 Y54.125 F3600.000
G1 X66.938 Y59.575 F600.000 E34.19646
G1 X66.800 Y58.538 E34.29442
G1 X62.200 Y53.925 E34.90068
G1 X62.900 Y53.725 E34.96878
G1 X66.950 Y57.775 E35.50204
G1 X67.225 Y57.150 E35.56590
G1 X63.600 Y53.525 E36.04307
G1 X64.300 Y53.325 E36.11117
G1 X67.600 Y56.625 E36.54540
G1 X68.113 Y56.238 E36.60550
G1 X65.013 Y53.125 E37.01479
G1 X65.713 Y52.925 E37.08288
G1 X68.713 Y55.925 E37.47774
G1 X69.413 Y55.713 E37.54580
G1 X66.413 Y52.725 E37.94060
G1 X67.113 Y52.513 E38.00869
G1 X70.113 Y55.513 E38.40343
G1 X70.825 Y55.313 E38.47149
G1 X67.825 Y52.313 E38.86618
G1 X68.525 Y52.113 E38.93427
G1 X71.525 Y55.113 E39.32890
G1 X72.225 Y54.913 E39.39696
G1 X69.225 Y51.913 E39.79153
G1 X69.925 Y51.713 E39.85962
G1 X72.925 Y54.713 E40.25414
G1 X73.625 Y54.513 E40.32220
G1 X70.638 Y51.513 E40.71666
G1 X71.338 Y51.313 E40.78475
G1 X74.338 Y54.300 E41.17915
G1 X75.038 Y54.100 E41.24722
G1 X72.038 Y51.113 E41.64156
G1 X72.738 Y50.913 E41.70965
G1 X75.738 Y53.900 E42.10394
G1 X76.438 Y53.700 E42.17200
G1 X73.450 Y50.700 E42.56623
G1 X74.150 Y50.500 E42.63433
G1 X77.150 Y53.500 E43.02850
G1 X77.850 Y53.300 E43.09657
G1 X74.850 Y50.300 E43.49068
G1 X75.563 Y50.100 E43.55878
G1 X78.550 Y53.100 E43.95284
G1 X79.250 Y52.888 E44.02090
G1 X76.263 Y49.900 E44.41491
G1 X76.963 Y49.700 E44.48300
G1 X79.950 Y52.688 E44.87695
G1 X80.663 Y52.488 E44.94501
G1 X77.663 Y49.500 E45.33890
G1 X78.375 Y49.300 E45.40700
G1 X81.363 Y52.288 E45.80083
G1 X82.063 Y52.088 E45.86890
G1 X79.075 Y49.100 E46.26267
G1 X79.775 Y48.888 E46.33077
G1 X82.763 Y51.888 E46.72449
G1 X83.475 Y51.688 E46.79255
G1 X80.475 Y48.688 E47.18622
G1 X81.188 Y48.488 E47.25431
G1 X84.175 Y51.475 E47.64792
G1 X84.875 Y51.275 E47.71599
G1 X81.888 Y48.288 E48.10954
G1 X82.588 Y48.088 E48.17763
G1 X85.575 Y51.075 E48.57113
G1 X86.275 Y50.875 E48.63919
G1 X83.288 Y47.888 E49.03263
G1 X84.000 Y47.688 E49.10072
G1 X86.988 Y50.675 E49.49411
G1 X87.688 Y50.475 E49.56217
G1 X84.700 Y47.488 E49.95550
G1 X85.400 Y47.288 E50.02359
G1 X88.388 Y50.275 E50.41686
G1 X89.088 Y50.063 E50.48492
G1 X86.100 Y47.075 E50.87814
G1 X86.813 Y46.875 E50.94623
G1 X89.800 Y49.863 E51.33939
G1 X90.500 Y49.663 E51.40745
G1 X87.513 Y46.675 E51.80055
G1 X88.213 Y46.475 E51.86864
G1 X91.200 Y49.463 E52.26169
G1 X91.900 Y49.263 E52.32975
G1 X88.913 Y46.275 E52.72274
G1 X89.625 Y46.075 E52.79083
G1 X92.613 Y49.063 E53.18376
G1 X93.313 Y48.850 E53.25183
G1 X90.325 Y45.875 E53.64470
G1 X91.025 Y45.675 E53.71279
G1 X94.013 Y48.650 E54.10561
G1 X94.713 Y48.450 E54.17368
G1 X91.738 Y45.463 E54.56644
G1 X92.438 Y45.263 E54.63453
G1 X95.413 Y48.250 E55.02723
G1 X95.613 Y47.550 E55.09538
G1 X93.138 Y45.063 E55.42191
G1 X93.838 Y44.863 E55.49000
G1 X95.250 Y46.275 E55.67607
G1 X94.888 Y45.013 E55.79890
G1 X94.550 Y44.663 E55.84451
; infill_end
; perimeter_start
G1 F1800.000 E51.34451
G92 E0
G1 X40.463 Y71.100 F3600.000
G1 F1800.000 E4.50000
G1 X41.788 Y71.163 F600.000 E4.62290
G1 X42.000 Y71.400 E4.65348
G1 X42.025 Y71.600 E4.67220
G1 X41.975 Y71.850 E4.69485
G1 X41.775 Y72.013 E4.71871
G1 X40.463 Y72.050 E4.84013
G1 X40.463 Y71.413 E4.89943
; perimeter_end
; infill_start
G1 X41.100 Y71.563
G1 X41.113 Y71.563 E4.90202
G1 X41.113 Y71.563
G1 X41.100 Y71.563 E4.90462
; infill_end
; perimeter_start
G1 X40.463 Y73.300 F3600.000
G1 X41.400 Y73.300 F600.000 E4.99201
G1 X41.900 Y73.375 E5.03836
G1 X42.175 Y73.600 E5.07107
G1 X42.225 Y74.025 E5.11037
G1 X42.025 Y74.350 E5.14601
G1 X41.763 Y74.450 E5.17156
G1 X40.463 Y74.475 E5.29226
G1 X40.463 Y73.625 E5.37085
; perimeter_end
; infill_start
G1 X41.025 Y73.863
G1 X41.638 Y73.850 E5.41167
; infill_end
G1 F1800.000 E0.91167
G92 E0
; Layer: 2 Time: 163
G1 Z0.550 F3600.000
; Region: 0
; perimeter_start
G1 X87.538 Y67.600
G1 F1800.000 E4.50000
G1 X87.438 Y66.600 F900.000 E4.53373
G1 X87.175 Y66.113 E4.55177
G1 X90.125 Y66.125 E4.64972
G1 X90.125 Y76.537 E4.99621
G1 X34.150 Y76.537 E6.85803
G1 X34.150 Y69.338 E7.09742
G1 X53.775 Y66.975 E7.75523
G1 X56.575 Y65.100 E7.86728
G1 X58.100 Y65.700 E7.92170
G1 X58.438 Y65.700 E7.93302
G1 X58.288 Y66.100 E7.94715
G1 X58.238 Y66.588 E7.96369
G1 X58.450 Y67.225 E7.98604
G1 X57.963 Y67.563 E8.00609
G1 X57.638 Y67.988 E8.02350
G1 X57.475 Y68.488 E8.04107
G1 X57.463 Y70.488 E8.10779
G1 X57.675 Y71.125 E8.13007
G1 X58.063 Y71.675 E8.15241
G1 X58.613 Y72.075 E8.17476
G1 X59.250 Y72.275 E8.19709
G1 X75.438 Y72.300 E8.73547
G1 X86.363 Y69.225 E9.11304
G1 X86.925 Y68.825 E9.13584
G1 X87.325 Y68.275 E9.15836
G1 X87.475 Y67.800 E9.17528
G1 X87.138 Y67.563
G1 X87.050 Y66.713 E9.20356
G1 X86.775 Y66.213 E9.22261
G1 X86.238 Y65.713 E9.24671
G1 X90.525 Y65.725 E9.38901
G1 X90.525 Y76.938 E9.76210
G1 X33.750 Y76.938 E11.65053
G1 X33.750 Y68.988 E11.91502
G1 X53.638 Y66.588 E12.58144
G1 X56.525 Y64.650 E12.69729
G1 X58.175 Y65.300 E12.75601
G1 X58.800 Y65.288 E12.77687
G1 X59.063 Y65.188 E12.78617
G1 X59.150 Y65.313 E12.79111
G1 X58.900 Y65.600 E12.80370
G1 X58.688 Y66.188 E12.82463
G1 X58.638 Y66.550 E12.83650
G1 X58.925 Y67.375 E12.86591
G1 X58.238 Y67.863 E12.89394
G1 X58.000 Y68.175 E12.90709
G1 X57.875 Y68.550 E12.92028
G1 X57.875 Y70.425 E12.98272
G1 X58.038 Y70.950 E13.00081
G1 X58.350 Y71.388 E13.01892
G1 X58.788 Y71.713 E13.03704
G1 X59.313 Y71.875 E13.05515
G1 X75.375 Y71.900 E13.58958
G1 X86.188 Y68.863 E13.96299
G1 X86.638 Y68.538 E13.98133
G1 X86.963 Y68.100 E13.99958
G1 X87.075 Y67.750 E14.01153
G1 X87.838 Y67.188
G1 F1800.000 E9.51153
G92 E0
G1 X84.388 Y65.050 F3600.000
G1 F1800.000 E4.50000
G1 X73.125 Y63.975 F900.000 E4.87635
G1 X72.588 Y62.588 E4.92582
G1 X72.138 Y62.088 E4.94818
G1 X73.675 Y60.575 E5.02002
G1 X77.675 Y61.400 E5.15553
G1 X84.088 Y63.875 E5.38426
G1 X84.338 Y64.863 E5.41820
G1 X84.763 Y64.925
G1 X85.325 Y65.413 E5.44279
G1 X85.263 Y65.538 E5.44743
G1 X72.838 Y64.350 E5.86258
G1 X72.238 Y62.800 E5.91782
G1 X71.850 Y62.363 E5.93702
G1 X71.275 Y62.050 E5.95892
G1 X71.888 Y61.775 E5.98101
G1 X73.550 Y60.138 E6.05856
G1 X77.788 Y61.013 E6.20225
G1 X84.425 Y63.575 E6.43895
G1 X84.713 Y64.725 E6.47865
G1 X84.475 Y65.600
G1 F1800.000 E1.97865
G92 E0
G1 X69.463 Y61.975 F3600.000
G1 F1800.000 E4.50000
G1 X68.963 Y62.463 F900.000 E4.52318
G1 X68.388 Y63.688 E4.56823
G1 X62.300 Y64.788 E4.77362
G1 X61.213 Y64.325 E4.81295
G1 X60.538 Y64.250 E4.83560
G1 X60.650 Y63.800 E4.85091
G1 X60.225 Y61.775 E4.92002
G1 X59.463 Y59.500 E4.99981
G1 X57.050 Y58.975 E5.08193
G1 X23.588 Y62.450 E6.20085
G1 X23.100 Y57.125 E6.37866
G1 X59.650 Y53.813 E7.59941
G1 X95.325 Y43.588 E8.83376
G1 X96.800 Y48.700 E9.01059
G1 X68.813 Y56.738 E9.97905
G1 X68.225 Y57.150 E10.00283
G1 X67.813 Y57.738 E10.02661
G1 X67.613 Y58.425 E10.05039
G1 X67.650 Y59.113 E10.07332
G1 X67.763 Y59.488 E10.08656
G1 X69.000 Y61.638 E10.16907
G1 X69.300 Y61.863 E10.18159
G1 X69.300 Y61.363
G1 X69.875 Y61.788 E10.20530
G1 X70.400 Y61.963 E10.22354
G1 X69.713 Y62.300 E10.24905
G1 X69.300 Y62.700 E10.26821
G1 X68.650 Y64.050 E10.31772
G1 X62.263 Y65.200 E10.53385
G1 X61.113 Y64.725 E10.57525
G1 X60.488 Y64.650 E10.59629
G1 X59.775 Y64.800 E10.62041
G1 X60.150 Y64.138 E10.64594
G1 X60.250 Y63.788 E10.65760
G1 X59.838 Y61.875 E10.72274
G1 X59.150 Y59.838 E10.79419
G1 X57.025 Y59.375 E10.86664
G1 X23.225 Y62.888 E11.99691
G1 X22.663 Y56.763 E12.20150
G1 X59.575 Y53.413 E13.43431
G1 X95.600 Y43.100 E14.68069
G1 X97.288 Y48.975 E14.88413
G1 X68.988 Y57.100 E15.86364
G1 X68.513 Y57.438 E15.88291
G1 X68.175 Y57.913 E15.90218
G1 X68.013 Y58.463 E15.92145
G1 X68.038 Y59.038 E15.94044
G1 X68.138 Y59.325 E15.95054
G1 X69.200 Y61.188 E16.02213
G1 X69.125 Y62.063
G1 F1800.000 E11.52213
G92 E0
G1 X85.663 Y65.463 F3600.000
G1 F1800.000 E4.50000
G1 X85.950 Y65.463 F900.000 E4.50952
G1 X85.950 Y65.713 E4.51781
G1 X85.663 Y65.713 E4.52733
G1 X85.663 Y65.550 E4.53266
; perimeter_end
; infill_start
G1 X83.975 Y64.638 F3600.000
G1 X83.913 Y64.713 F1200.000 E4.53604
G1 X83.850 Y64.150 E4.55663
G1 X83.350 Y64.650 E4.58278
G1 X82.775 Y64.600 E4.60356
G1 X83.438 Y63.938 E4.63770
G1 X82.988 Y63.763 E4.65524
G1 X82.213 Y64.550 E4.69550
G1 X81.650 Y64.488 E4.71628
G1 X82.538 Y63.588 E4.76266
G1 X82.100 Y63.425 E4.78020
G1 X81.075 Y64.438 E4.83269
G1 X80.513 Y64.375 E4.85347
G1 X81.650 Y63.250 E4.91207
G1 X81.200 Y63.075 E4.92961
G1 X79.950 Y64.325 E4.99433
G1 X79.375 Y64.275 E5.01512
G1 X80.750 Y62.900 E5.08595
G1 X80.300 Y62.725 E5.10349
G1 X78.813 Y64.213 E5.18044
G1 X78.250 Y64.163 E5.20123
G1 X79.850 Y62.550 E5.28429
G1 X79.413 Y62.388 E5.30183
G1 X77.675 Y64.113 E5.39101
G1 X77.113 Y64.050 E5.41180
G1 X78.963 Y62.213 E5.50709
G1 X78.513 Y62.038 E5.52463
G1 X76.550 Y64.000 E5.62604
G1 X75.975 Y63.950 E5.64683
G1 X78.063 Y61.863 E5.75435
G1 X77.613 Y61.688 E5.77189
G1 X75.413 Y63.888 E5.88553
G1 X74.850 Y63.838 E5.90632
G1 X77.100 Y61.575 E6.02282
G1 X76.588 Y61.475 E6.04202
G1 X74.275 Y63.788 E6.16118
G1 X73.713 Y63.725 E6.18196
G1 X76.075 Y61.375 E6.30377
G1 X75.563 Y61.263 E6.32298
G1 X73.275 Y63.538 E6.44068
G1 X73.100 Y63.100 E6.45820
G1 X75.038 Y61.163 E6.55828
G1 X74.525 Y61.050 E6.57749
G1 X72.925 Y62.650 E6.65995
G1 X72.700 Y62.263 E6.67646
G1 X74.013 Y60.950 E6.74441
G1 X87.725 Y66.413 F3600.000
G1 X87.775 Y66.988 F1200.000 E6.76529
G1 X88.350 Y66.413 E6.79471
G1 X88.963 Y66.413 E6.81712
G1 X87.838 Y67.550 E6.87518
G1 X87.588 Y68.413 E6.90760
G1 X89.575 Y66.413 E7.00978
G1 X89.825 Y66.788
G1 X80.375 Y76.238 E7.49512
G1 X80.988 Y76.238 E7.51754
G1 X89.825 Y67.413 E7.97116
G1 X89.825 Y68.025 E7.99359
G1 X81.613 Y76.238 E8.41549
G1 X82.225 Y76.238 E8.43792
G1 X89.825 Y68.650 E8.82810
G1 X89.825 Y69.263 E8.85053
G1 X82.850 Y76.238 E9.20900
G1 X83.463 Y76.238 E9.23143
G1 X89.825 Y69.875 E9.55817
G1 X89.825 Y70.500 E9.58060
G1 X84.075 Y76.238 E9.87563
G1 X84.700 Y76.238 E9.89806
G1 X89.825 Y71.113 E10.16137
G1 X89.825 Y71.738 E10.18379
G1 X85.313 Y76.238 E10.41539
G1 X85.938 Y76.238 E10.43781
G1 X89.825 Y72.350 E10.63769
G1 X89.825 Y72.963 E10.66012
G1 X86.550 Y76.238 E10.82827
G1 X87.163 Y76.238 E10.85070
G1 X89.825 Y73.588 E10.98713
G1 X89.825 Y74.200 E11.00956
G1 X87.788 Y76.238 E11.11428
G1 X88.400 Y76.238 E11.13671
G1 X89.825 Y74.825 E11.20971
G1 X89.825 Y75.438 E11.23214
G1 X89.025 Y76.238 E11.27342
G1 X89.638 Y76.238 E11.29585
G1 X89.825 Y76.050 E11.30541
G1 X86.538 Y69.463 F3600.000
G1 X79.763 Y76.238 F1200.000 E11.65335
G1 X79.138 Y76.238 E11.67578
G1 X85.650 Y69.738 E12.01010
G1 X84.788 Y69.975 E12.04250
G1 X78.525 Y76.238 E12.36441
G1 X77.900 Y76.238 E12.38684
G1 X83.925 Y70.213 E12.69635
G1 X83.075 Y70.463 E12.72875
G1 X77.288 Y76.238 E13.02585
G1 X76.663 Y76.238 E13.04828
G1 X82.213 Y70.700 E13.33298
G1 X81.350 Y70.938 E13.36539
G1 X76.050 Y76.238 E13.63768
G1 X75.438 Y76.238 E13.66011
G1 X80.500 Y71.175 E13.91999
G1 X79.638 Y71.425 E13.95240
G1 X74.813 Y76.238 E14.19988
G1 X74.200 Y76.238 E14.22231
G1 X78.775 Y71.663 E14.45739
G1 X77.913 Y71.900 E14.48980
G1 X73.575 Y76.238 E14.71247
G1 X72.963 Y76.238 E14.73490
G1 X77.063 Y72.150 E14.94517
G1 X76.200 Y72.388 E14.97758
G1 X72.350 Y76.238 E15.17545
G1 X71.725 Y76.238 E15.19787
G1 X75.375 Y72.588 E15.38529
G1 X74.763 Y72.588 E15.40770
G1 X71.113 Y76.238 E15.59515
G1 X70.488 Y76.238 E15.61758
G1 X74.138 Y72.588 E15.80507
G1 X73.525 Y72.588 E15.82747
G1 X69.875 Y76.238 E16.01500
G1 X69.263 Y76.238 E16.03743
G1 X72.913 Y72.588 E16.22498
G1 X72.288 Y72.588 E16.24739
G1 X68.638 Y76.238 E16.43498
G1 X68.025 Y76.238 E16.45741
G1 X71.675 Y72.588 E16.64503
G1 X71.063 Y72.588 E16.66744
G1 X67.400 Y76.238 E16.85509
G1 X66.788 Y76.238 E16.87752
G1 X70.438 Y72.588 E17.06522
G1 X69.825 Y72.588 E17.08762
G1 X66.175 Y76.238 E17.27535
G1 X65.550 Y76.238 E17.29778
G1 X69.213 Y72.588 E17.48554
G1 X68.588 Y72.588 E17.50794
G1 X64.938 Y76.238 E17.69574
G1 X64.313 Y76.238 E17.71817
G1 X67.975 Y72.588 E17.90600
G1 X67.363 Y72.588 E17.92840
G1 X63.700 Y76.238 E18.11626
G1 X63.075 Y76.238 E18.13869
G1 X66.738 Y72.588 E18.32659
G1 X66.125 Y72.588 E18.34899
G1 X62.463 Y76.238 E18.53693
G1 X61.850 Y76.238 E18.55936
G1 X65.500 Y72.588 E18.74732
G1 X64.888 Y72.575 E18.76973
G1 X61.225 Y76.238 E18.95773
G1 X60.613 Y76.238 E18.98015
G1 X64.275 Y72.575 E19.16819
G1 X63.650 Y72.575 E19.19059
G1 X59.988 Y76.238 E19.37866
G1 X59.375 Y76.238 E19.40109
G1 X63.038 Y72.575 E19.58919
G1 X62.425 Y72.575 E19.61160
G1 X58.763 Y76.238 E19.79973
G1 X58.138 Y76.238 E19.82216
G1 X61.800 Y72.575 E20.01033
G1 X61.188 Y72.575 E20.03274
G1 X57.525 Y76.238 E20.22094
G1 X56.900 Y76.238 E20.24337
G1 X60.575 Y72.575 E20.43161
G1 X59.950 Y72.575 E20.45401
G1 X56.288 Y76.238 E20.64229
G1 X55.675 Y76.238 E20.66472
G1 X59.338 Y72.575 E20.85302
G1 X58.838 Y72.463 E20.87166
G1 X55.050 Y76.238 E21.06604
G1 X54.438 Y76.238 E21.08847
G1 X58.400 Y72.288 E21.29185
G1 X58.038 Y72.025 E21.30790
G1 X53.813 Y76.238 E21.52467
G1 X53.200 Y76.238 E21.54710
G1 X57.725 Y71.713 E21.77967
G1 X57.475 Y71.350 E21.79574
G1 X53.463 Y75.363 E22.00154
G1 X53.900 Y74.300 F3600.000
G1 X57.288 Y70.913 F1200.000 E22.17567
G1 X57.175 Y70.413 E22.19425
G1 X53.988 Y73.600 E22.35756
G1 X54.000 Y72.975 E22.38008
G1 X57.175 Y69.800 E22.54329
G1 X57.175 Y69.175 E22.56573
G1 X54.000 Y72.350 E22.72884
G1 X54.000 Y71.738 E22.75136
G1 X57.175 Y68.563 E22.91435
G1 X57.700 Y67.425 F3600.000
G1 X54.000 Y71.113 F1200.000 E23.10412
G1 X54.000 Y70.500 E23.12664
G1 X57.938 Y66.563 E23.32866
G1 X58.075 Y67.038
G1 X57.800 Y67.313 E23.34264
G1 X57.925 Y65.950 F3600.000
G1 X54.013 Y69.875 F1200.000 E23.54390
G1 X54.013 Y69.250 E23.56642
G1 X57.488 Y65.775 E23.74484
G1 X57.038 Y65.600 E23.76211
G1 X53.475 Y69.175 E23.94548
G1 X52.850 Y69.175 E23.96791
G1 X56.550 Y65.475 E24.15770
G1 X54.675 Y66.738 F3600.000
G1 X52.238 Y69.175 F1200.000 E24.28301
G1 X51.925 Y68.863
G1 X53.475 Y67.313 E24.36265
G1 X52.775 Y67.400 E24.38833
G1 X51.900 Y68.288 E24.43370
G1 X51.863 Y67.700 E24.45490
G1 X52.075 Y67.488 E24.46601
G1 X51.663 Y67.700
M106 S255.000
G1 X50.238 Y67.700 F600.000 E24.53306
M107
G1 X51.688 Y68.088 F3600.000
M106 S255.000
G1 X47.088 Y68.088 F600.000 E24.74946
M107
G1 X43.938 Y68.463 F3600.000
M106 S255.000
G1 X51.713 Y68.463 F600.000 E25.11521
G1 X51.738 Y68.838
G1 X40.775 Y68.838 E25.63032
M107
G1 X38.600 Y69.225 F3600.000
M106 S255.000
G1 X51.763 Y69.225 F600.000 E26.24893
M107
G1 X53.813 Y69.600 F3600.000
M106 S255.000
G1 X38.600 Y69.600 F600.000 E26.96428
G1 X38.600 Y69.975 E26.98212
G1 X53.813 Y69.975 E27.69739
G1 X53.813 Y70.363 E27.71523
G1 X38.600 Y70.363 E28.43043
G1 X38.600 Y70.738 E28.44827
G1 X53.813 Y70.738 E29.16340
G1 X53.813 Y71.125 E29.18124
G1 X38.600 Y71.125 E29.89629
G1 X38.600 Y71.500 E29.91414
G1 X53.800 Y71.500 E30.62911
G1 X53.800 Y71.875 E30.64696
G1 X38.600 Y71.875 E31.36186
G1 X38.600 Y72.263 E31.37970
G1 X53.800 Y72.263 E32.09453
G1 X53.800 Y72.638 E32.11238
G1 X38.600 Y72.638 E32.82713
G1 X38.600 Y73.013 E32.84498
G1 X53.800 Y73.013 E33.55966
G1 X53.800 Y73.400 E33.57750
G1 X38.600 Y73.400 E34.29211
G1 X38.600 Y73.775 E34.30996
G1 X53.788 Y73.775 E35.02378
G1 X53.725 Y74.150 E35.04181
G1 X38.600 Y74.150 E35.75306
G1 X38.600 Y74.538 E35.77090
G1 X53.625 Y74.538 E36.47726
G1 X53.450 Y74.913 E36.49685
G1 X38.600 Y74.913 E37.19514
G1 X38.600 Y75.288 E37.21298
G1 X53.275 Y75.288 E37.90320
G1 X53.113 Y75.675 E37.92278
G1 X38.600 Y75.675 E38.60492
G1 X38.600 Y76.050 E38.62277
G1 X52.938 Y76.050 E39.29684
M107
G1 X38.413 Y76.038 F3600.000
G1 X38.200 Y76.238 F1200.000 E39.30762
G1 X37.563 Y76.238 E39.33137
G1 X38.413 Y75.400 E39.37575
G1 X38.413 Y74.763 E39.39950
G1 X36.925 Y76.238 E39.47747
G1 X36.300 Y76.238 E39.50122
G1 X38.413 Y74.125 E39.61277
G1 X38.413 Y73.500 E39.63652
G1 X35.663 Y76.238 E39.78166
G1 X35.025 Y76.238 E39.80541
G1 X38.413 Y72.863 E39.98414
G1 X38.413 Y72.225 E40.00789
G1 X34.438 Y76.188 E40.21740
G1 X34.438 Y75.550 E40.24115
G1 X38.413 Y71.588 E40.45067
G1 X38.413 Y70.950 E40.47442
G1 X34.438 Y74.913 E40.68394
G1 X34.438 Y74.288 E40.70769
G1 X38.413 Y70.313 E40.91721
G1 X38.413 Y69.688 E40.94096
G1 X34.438 Y73.650 E41.15047
G1 X34.438 Y73.013 E41.17422
G1 X38.313 Y69.138 E41.37887
G1 X37.588 Y69.225 E41.40606
G1 X34.438 Y72.375 E41.57252
G1 X34.438 Y71.738 E41.59627
G1 X36.875 Y69.313 E41.72455
G1 X36.150 Y69.400 E41.75174
G1 X34.438 Y71.100 E41.84184
G1 X34.438 Y70.463 E41.86559
G1 X35.425 Y69.488 E41.91750
G1 X34.700 Y69.575 E41.94469
G1 X34.438 Y69.838 E41.95842
G1 F1800.000 E37.45842
G92 E0
G1 X23.625 Y57.375 F3600.000
G1 F1800.000 E4.50000
G1 X23.438 Y57.563 F1200.000 E4.50948
G1 X23.488 Y58.125 E4.52979
G1 X24.300 Y57.313 E4.57100
G1 X24.975 Y57.250 E4.59538
G1 X23.538 Y58.688 E4.66831
G1 X23.588 Y59.250 E4.68862
G1 X25.650 Y57.200 E4.79328
G1 X26.325 Y57.138 E4.81766
G1 X23.650 Y59.813 E4.95405
G1 X23.700 Y60.375 E4.97436
G1 X27.000 Y57.075 E5.14248
G1 X27.663 Y57.013 E5.16686
G1 X23.750 Y60.938 E5.36670
G1 X23.800 Y61.500 E5.38702
G1 X28.338 Y56.950 E5.61859
G1 X29.013 Y56.888 E5.64297
G1 X23.850 Y62.063 E5.90627
G1 X24.450 Y62.063 E5.92812
G1 X29.688 Y56.825 E6.19485
G1 X30.363 Y56.763 E6.21923
G1 X25.138 Y61.988 E6.48547
G1 X25.825 Y61.925 E6.51023
G1 X31.038 Y56.700 E6.77597
G1 X31.713 Y56.650 E6.80035
G1 X26.513 Y61.850 E7.06558
G1 X27.188 Y61.775 E7.09034
G1 X32.388 Y56.588 E7.35507
G1 X33.063 Y56.525 E7.37945
G1 X27.875 Y61.713 E7.64368
G1 X28.563 Y61.638 E7.66845
G1 X33.738 Y56.463 E7.93218
G1 X34.413 Y56.400 E7.95656
G1 X29.238 Y61.563 E8.21979
G1 X29.925 Y61.500 E8.24455
G1 X35.088 Y56.338 E8.50728
G1 X35.750 Y56.275 E8.53166
G1 X30.613 Y61.425 E8.79389
G1 X31.288 Y61.350 E8.81865
G1 X36.425 Y56.213 E9.08038
G1 X37.100 Y56.150 E9.10476
G1 X31.975 Y61.288 E9.36598
G1 X32.663 Y61.213 E9.39075
G1 X37.775 Y56.088 E9.65147
G1 X38.450 Y56.038 E9.67585
G1 X33.350 Y61.138 E9.93608
G1 X34.025 Y61.063 E9.96084
G1 X39.125 Y55.975 E10.22057
G1 X39.800 Y55.913 E10.24495
G1 X34.713 Y61.000 E10.50417
G1 X35.400 Y60.925 E10.52893
G1 X40.475 Y55.850 E10.78765
G1 X41.150 Y55.788 E10.81203
G1 X36.075 Y60.850 E11.07025
G1 X36.763 Y60.788 E11.09502
G1 X41.825 Y55.725 E11.35274
G1 X42.500 Y55.663 E11.37712
G1 X37.450 Y60.713 E11.63433
G1 X38.125 Y60.638 E11.65910
G1 X43.175 Y55.600 E11.91582
G1 X43.838 Y55.538 E11.94020
G1 X38.813 Y60.575 E12.19641
G1 X39.500 Y60.500 E12.22118
G1 X44.513 Y55.488 E12.47689
G1 X45.188 Y55.425 E12.50127
G1 X40.188 Y60.425 E12.75649
G1 X40.863 Y60.363 E12.78126
G1 X45.863 Y55.363 E13.03597
G1 X46.538 Y55.300 E13.06035
G1 X41.550 Y60.288 E13.31456
G1 X42.238 Y60.213 E13.33933
G1 X47.213 Y55.238 E13.59304
G1 X47.888 Y55.175 E13.61742
G1 X42.913 Y60.150 E13.87063
G1 X43.600 Y60.075 E13.89540
G1 X48.563 Y55.113 E14.14810
G1 X49.238 Y55.050 E14.17248
G1 X44.288 Y60.000 E14.42469
G1 X44.963 Y59.938 E14.44946
G1 X49.913 Y54.988 E14.70117
G1 X50.588 Y54.925 E14.72555
G1 X45.650 Y59.863 E14.97675
G1 X46.338 Y59.788 E15.00152
G1 X51.263 Y54.875 E15.25223
G1 X51.925 Y54.813 E15.27661
G1 X47.025 Y59.725 E15.52681
G1 X47.700 Y59.650 E15.55158
G1 X52.600 Y54.750 E15.80128
G1 X53.275 Y54.688 E15.82566
G1 X48.388 Y59.575 E16.07487
G1 X49.075 Y59.500 E16.09963
G1 X53.950 Y54.625 E16.34833
G1 X54.625 Y54.563 E16.37272
G1 X49.750 Y59.438 E16.62092
G1 X50.438 Y59.363 E16.64568
G1 X55.300 Y54.500 E16.89338
G1 X55.975 Y54.438 E16.91776
G1 X51.125 Y59.288 E17.16496
G1 X51.800 Y59.225 E17.18973
G1 X56.650 Y54.375 E17.43643
G1 X57.325 Y54.313 E17.46081
G1 X52.488 Y59.150 E17.70701
G1 X53.175 Y59.075 E17.73177
G1 X58.000 Y54.263 E17.97747
G1 X58.675 Y54.200 E18.00185
G1 X53.863 Y59.013 E18.24705
G1 X54.538 Y58.938 E18.27181
G1 X59.350 Y54.138 E18.51651
G1 X60.100 Y53.988 E18.54435
G1 X55.225 Y58.863 E18.79286
G1 X55.913 Y58.800 E18.81763
G1 X60.963 Y53.738 E19.07505
G1 X61.825 Y53.500 E19.10723
G1 X56.588 Y58.725 E19.37357
G1 X57.225 Y58.713 E19.39620
G1 X62.675 Y53.250 E19.67429
G1 X63.538 Y53.000 E19.70647
G1 X57.725 Y58.813 E20.00264
G1 X58.225 Y58.925 E20.02121
G1 X64.400 Y52.763 E20.33547
G1 X65.250 Y52.513 E20.36765
G1 X58.738 Y59.038 E20.70000
G1 X59.238 Y59.150 E20.71856
G1 X66.113 Y52.263 E21.06899
G1 X66.975 Y52.025 E21.10117
G1 X59.700 Y59.288 E21.47147
G1 X59.863 Y59.750 E21.48889
G1 X67.825 Y51.775 E21.89505
G1 X68.688 Y51.525 E21.92723
G1 X60.013 Y60.200 E22.36926
G1 X60.163 Y60.663 E22.38668
G1 X69.550 Y51.288 E22.86458
G1 X70.413 Y51.038 E22.89676
G1 X60.325 Y61.125 E23.41053
G1 X60.475 Y61.575 E23.42795
G1 X71.263 Y50.788 E23.97758
G1 X72.125 Y50.550 E24.00976
G1 X60.600 Y62.075 E24.59712
G1 X60.700 Y62.575 E24.61577
G1 X72.988 Y50.300 E25.24146
G1 X73.838 Y50.050 E25.27364
G1 X60.813 Y63.088 E25.93766
G1 X60.913 Y63.588
G1 X74.700 Y49.813 E26.64001
G1 X75.563 Y49.563
G1 X68.588 Y56.525 E26.99498
G1 X69.500 Y56.225 E27.02953
G1 X76.413 Y49.313 E27.38181
G1 X77.275 Y49.075 E27.41398
G1 X70.363 Y55.988 E27.76622
G1 X71.225 Y55.738 E27.79844
G1 X78.138 Y48.825 E28.15062
G1 X78.988 Y48.575 E28.18280
G1 X72.088 Y55.488 E28.53493
G1 X72.938 Y55.238 E28.56716
G1 X79.850 Y48.338 E28.91924
G1 X80.713 Y48.088 E28.95142
G1 X73.800 Y55.000 E29.30346
G1 X74.663 Y54.750 E29.33568
G1 X81.575 Y47.838 E29.68767
G1 X82.425 Y47.600 E29.71985
G1 X75.525 Y54.500 E30.07179
G1 X76.375 Y54.250 E30.10401
G1 X83.288 Y47.350 E30.45591
G1 X84.150 Y47.100 E30.48808
G1 X77.238 Y54.013 E30.83993
G1 X78.100 Y53.763 E30.87215
G1 X85.000 Y46.863 E31.22395
G1 X85.863 Y46.613 E31.25613
G1 X78.963 Y53.513 E31.60788
G1 X79.813 Y53.263 E31.64010
G1 X86.725 Y46.363 E31.99180
G1 X87.575 Y46.125 E32.02398
G1 X80.675 Y53.025 E32.37563
G1 X81.538 Y52.775 E32.40785
G1 X88.438 Y45.875 E32.75945
G1 X89.300 Y45.625 E32.79163
G1 X82.400 Y52.525 E33.14319
G1 X83.263 Y52.275 E33.17541
G1 X90.150 Y45.388 E33.52692
G1 X91.013 Y45.138 E33.55910
G1 X84.113 Y52.038 E33.91056
G1 X84.975 Y51.788 E33.94278
G1 X91.875 Y44.888 E34.29419
G1 X92.738 Y44.650 E34.32637
G1 X85.838 Y51.538 E34.67773
G1 X86.700 Y51.288 E34.70995
G1 X93.588 Y44.400 E35.06127
G1 X94.450 Y44.150 E35.09345
G1 X87.550 Y51.050 E35.44471
G1 X88.413 Y50.800 E35.47693
G1 X95.150 Y44.063 E35.82041
G1 X95.288 Y44.538 E35.83825
G1 X89.275 Y50.550 E36.14488
G1 X90.138 Y50.300 E36.17711
G1 X95.425 Y45.013 E36.44690
G1 X95.563 Y45.488 E36.46475
G1 X90.988 Y50.063 E36.69770
G1 X91.850 Y49.813 E36.72992
G1 X95.700 Y45.963 E36.92603
G1 X95.838 Y46.438 E36.94388
G1 X92.713 Y49.563 E37.10315
G1 X93.575 Y49.313 E37.13537
G1 X95.975 Y46.913 E37.25781
G1 X96.113 Y47.388 E37.27565
G1 X94.438 Y49.075 E37.36125
G1 X95.288 Y48.825 E37.39347
G1 X96.250 Y47.863 E37.44222
G1 X96.388 Y48.350
G1 X96.150 Y48.575 E37.45413
G1 F1800.000 E32.95413
G92 E0
G1 X68.500 Y62.750 F3600.000
G1 F1800.000 E4.50000
G1 X67.750 Y63.500 F1200.000 E4.53862
G1 X67.000 Y63.638 E4.56599
G1 X68.788 Y61.850 E4.65702
G1 X68.563 Y61.463 E4.67313
G1 X66.250 Y63.775 E4.79063
G1 X65.500 Y63.913 E4.81800
G1 X68.338 Y61.075 E4.96221
G1 X68.113 Y60.688 E4.97838
G1 X64.750 Y64.038 E5.14930
G1 X64.013 Y64.175 E5.17666
G1 X67.888 Y60.300 E5.37429
G1 X67.663 Y59.913 E5.39046
G1 X63.263 Y64.313 E5.61479
G1 X62.513 Y64.450 E5.64216
G1 X67.463 Y59.500 E5.89408
G1 X67.338 Y59.000 E5.91248
G1 X62.013 Y64.338 E6.18432
G1 X61.575 Y64.163 E6.20120
G1 X67.313 Y58.425 E6.49352
G1 X67.588 Y57.538 E6.52703
G1 X61.100 Y64.013 E6.85740
; infill_end
G1 F1800.000 E2.35740
G92 E0
; Layer: 3 Time: 146
G1 Z0.750 F3600.000
; Region: 0
; perimeter_start
G1 X57.463 Y70.488
G1 F1800.000 E4.50000
G1 X57.675 Y71.150 F900.000 E4.52310
G1 X58.313 Y71.900 E4.55576
G1 X59.225 Y72.275 E4.58842
G1 X75.438 Y72.300 E5.12761
G1 X86.363 Y69.225 E5.50518
G1 X86.925 Y68.825 E5.52798
G1 X87.325 Y68.275 E5.55050
G1 X87.538 Y67.600 E5.57407
G1 X87.438 Y66.600 E5.60780
G1 X87.175 Y66.113 E5.62585
G1 X90.125 Y66.125 E5.72379
G1 X90.125 Y76.537 E6.07029
G1 X34.150 Y76.537 E7.93210
G1 X34.150 Y69.338 E8.17150
G1 X53.775 Y66.975 E8.82931
G1 X56.575 Y65.100 E8.94135
G1 X58.100 Y65.700 E8.99577
G1 X58.438 Y65.700 E9.00709
G1 X58.288 Y66.100 E9.02123
G1 X58.238 Y66.588 E9.03776
G1 X58.450 Y67.225 E9.06011
G1 X57.963 Y67.563 E9.08016
G1 X57.638 Y67.988 E9.09758
G1 X57.475 Y68.488 E9.11514
G1 X57.475 Y70.288 E9.17521
G1 X57.875 Y70.425
G1 X58.038 Y70.950 E9.19357
G1 X58.563 Y71.563 E9.22037
G1 X59.300 Y71.875 E9.24717
G1 X75.375 Y71.900 E9.78187
G1 X86.188 Y68.863 E10.15528
G1 X86.638 Y68.538 E10.17362
G1 X86.963 Y68.100 E10.19187
G1 X87.138 Y67.563 E10.21047
G1 X87.050 Y66.713 E10.23876
G1 X86.775 Y66.213 E10.25780
G1 X86.238 Y65.713 E10.28190
G1 X90.525 Y65.725 E10.42420
G1 X90.525 Y76.938 E10.79729
G1 X33.750 Y76.938 E12.68572
G1 X33.750 Y68.988 E12.95022
G1 X53.638 Y66.588 E13.61663
G1 X56.525 Y64.650 E13.73248
G1 X58.175 Y65.300 E13.79120
G1 X58.800 Y65.288 E13.81206
G1 X59.063 Y65.188 E13.82137
G1 X59.150 Y65.313 E13.82630
G1 X58.900 Y65.600 E13.83889
G1 X58.688 Y66.188 E13.85983
G1 X58.638 Y66.550 E13.87169
G1 X58.925 Y67.375 E13.90110
G1 X58.238 Y67.863 E13.92914
G1 X58.000 Y68.175 E13.94228
G1 X57.875 Y68.550 E13.95547
G1 X57.875 Y70.225 E14.01127
G1 X57.463 Y70.800
G1 F1800.000 E9.51127
G92 E0
G1 X72.138 Y62.088 F3600.000
G1 F1800.000 E4.50000
G1 X73.675 Y60.575 F900.000 E4.57183
G1 X77.675 Y61.400 E4.70735
G1 X84.088 Y63.875 E4.93608
G1 X84.388 Y65.050 E4.97667
G1 X73.125 Y63.975 E5.35302
G1 X72.588 Y62.588 E5.40250
G1 X72.275 Y62.238 E5.41820
G1 X71.850 Y62.363
G1 X71.275 Y62.050 E5.44010
G1 X71.888 Y61.775 E5.46219
G1 X73.550 Y60.138 E5.53975
G1 X77.788 Y61.013 E5.68343
G1 X84.425 Y63.575 E5.92014
G1 X84.763 Y64.925 E5.96649
G1 X85.325 Y65.413 E5.99108
G1 X85.263 Y65.538 E5.99572
G1 X72.838 Y64.350 E6.41087
G1 X72.238 Y62.800 E6.46610
G1 X71.988 Y62.513 E6.47865
G1 X71.913 Y61.713
G1 F1800.000 E1.97865
G92 E0
G1 X69.463 Y61.975 F3600.000
G1 F1800.000 E4.50000
G1 X68.963 Y62.463 F900.000 E4.52318
G1 X68.388 Y63.688 E4.56823
G1 X62.300 Y64.788 E4.77362
G1 X61.213 Y64.325 E4.81295
G1 X60.538 Y64.250 E4.83560
G1 X60.650 Y63.800 E4.85091
G1 X60.225 Y61.775 E4.92002
G1 X59.463 Y59.500 E4.99981
G1 X57.050 Y58.975 E5.08193
G1 X23.588 Y62.450 E6.20085
G1 X23.100 Y57.125 E6.37866
G1 X59.650 Y53.813 E7.59941
G1 X95.325 Y43.588 E8.83376
G1 X96.800 Y48.700 E9.01059
G1 X68.813 Y56.738 E9.97905
G1 X68.225 Y57.150 E10.00283
G1 X67.813 Y57.738 E10.02661
G1 X67.613 Y58.425 E10.05039
G1 X67.650 Y59.113 E10.07332
G1 X67.763 Y59.488 E10.08656
G1 X69.000 Y61.638 E10.16907
G1 X69.300 Y61.863 E10.18159
G1 X69.300 Y61.363
G1 X69.875 Y61.788 E10.20530
G1 X70.400 Y61.963 E10.22354
G1 X69.713 Y62.300 E10.24905
G1 X69.300 Y62.700 E10.26821
G1 X68.650 Y64.050 E10.31772
G1 X62.263 Y65.200 E10.53385
G1 X61.113 Y64.725 E10.57525
G1 X60.488 Y64.650 E10.59629
G1 X59.775 Y64.800 E10.62041
G1 X60.150 Y64.138 E10.64594
G1 X60.250 Y63.788 E10.65760
G1 X59.838 Y61.875 E10.72274
G1 X59.150 Y59.838 E10.79419
G1 X57.025 Y59.375 E10.86664
G1 X23.225 Y62.888 E11.99691
G1 X22.663 Y56.763 E12.20150
G1 X59.575 Y53.413 E13.43431
G1 X95.600 Y43.100 E14.68069
G1 X97.288 Y48.975 E14.88413
G1 X68.988 Y57.100 E15.86364
G1 X68.513 Y57.438 E15.88291
G1 X68.175 Y57.913 E15.90218
G1 X68.013 Y58.463 E15.92145
G1 X68.038 Y59.038 E15.94044
G1 X68.138 Y59.325 E15.95054
G1 X69.200 Y61.188 E16.02213
G1 X69.125 Y62.063
G1 F1800.000 E11.52213
G92 E0
G1 X85.663 Y65.463 F3600.000
G1 F1800.000 E4.50000
G1 X85.950 Y65.463 F900.000 E4.50952
G1 X85.950 Y65.713 E4.51781
G1 X85.663 Y65.713 E4.52733
G1 X85.663 Y65.550 E4.53266
; perimeter_end
; infill_start
G1 X83.938 Y64.488 F3600.000
G1 X83.363 Y63.913 F1200.000 E4.56309
G1 X83.488 Y64.663
G1 X82.325 Y63.513 E4.62428
G1 X82.075 Y64.538 F3600.000
G1 X80.263 Y62.713 F1200.000 E4.72047
G1 X79.225 Y62.313 F3600.000
G1 X81.375 Y64.463 F1200.000 E4.83417
G1 X81.288 Y63.113 F3600.000
G1 X82.788 Y64.600 F1200.000 E4.91286
G1 X78.188 Y61.913 F3600.000
G1 X80.675 Y64.400 F1200.000 E5.04406
G1 X79.975 Y64.325 E5.07043
G1 X77.250 Y61.613 E5.21397
G1 X76.450 Y61.450 E5.24446
G1 X79.263 Y64.263 E5.39311
G1 X78.563 Y64.200 E5.41949
G1 X75.650 Y61.288 E5.57325
G1 X74.850 Y61.125 E5.60374
G1 X77.863 Y64.125 E5.76261
G1 X77.163 Y64.063 E5.78899
G1 X74.050 Y60.950 E5.95297
G1 X73.563 Y61.100 E5.97204
G1 X76.463 Y63.988 E6.12475
G1 X75.750 Y63.925 E6.15112
G1 X73.250 Y61.413 E6.28367
G1 X72.925 Y61.725 E6.30045
G1 X75.050 Y63.863 E6.41284
G1 X74.350 Y63.788 E6.43922
G1 X72.600 Y62.038 E6.53146
G1 X73.163 Y63.238 F3600.000
G1 X73.650 Y63.725 F1200.000 E6.55729
G1 F1800.000 E2.05729
G92 E0
G1 X57.938 Y66.525 F3600.000
G1 F1800.000 E4.50000
G1 X57.013 Y65.588 F1200.000 E4.54756
G1 X57.988 Y67.188 F3600.000
G1 X56.388 Y65.588 F1200.000 E4.62887
G1 X56.025 Y65.838 E4.64473
G1 X57.663 Y67.463 E4.72796
G1 X57.400 Y67.813 E4.74366
G1 X55.663 Y66.075 E4.83204
G1 X55.288 Y66.325 E4.84790
G1 X57.238 Y68.263 E4.94659
G1 X57.175 Y68.813 E4.96660
G1 X54.925 Y66.563 E5.08093
G1 X54.563 Y66.813 E5.09679
G1 X57.175 Y69.425 E5.22973
G1 X57.175 Y70.038 E5.25172
G1 X54.188 Y67.063 E5.40327
G1 X53.800 Y67.275 E5.41949
G1 X57.225 Y70.700 E5.59388
G1 X62.150 Y76.238 F3600.000
G1 X53.250 Y67.338 F1200.000 E6.04663
G1 X52.700 Y67.413 E6.06641
G1 X61.538 Y76.238 E6.51582
G1 X60.925 Y76.238 E6.53782
G1 X52.163 Y67.475 E6.98388
G1 X51.613 Y67.538 E7.00367
G1 X60.313 Y76.238 E7.44639
G1 X59.700 Y76.238 E7.46839
G1 X51.063 Y67.600 E7.90777
G1 X50.525 Y67.675 E7.92755
G1 X59.088 Y76.238 E8.36359
G1 X58.475 Y76.238 E8.38559
G1 X49.975 Y67.738 E8.81828
G1 X49.425 Y67.800 E8.83807
G1 X57.875 Y76.238 E9.26742
G1 X57.263 Y76.238 E9.28942
G1 X48.888 Y67.863 E9.71543
G1 X48.338 Y67.938 E9.73521
G1 X56.650 Y76.238 E10.15788
G1 X56.038 Y76.238 E10.17988
G1 X47.788 Y68.000 E10.59921
G1 X47.250 Y68.063 E10.61899
G1 X55.425 Y76.238 E11.03497
G1 X54.813 Y76.238 E11.05697
G1 X46.700 Y68.125 E11.46961
G1 X46.150 Y68.200 E11.48940
G1 X54.200 Y76.238 E11.89869
G1 X53.588 Y76.238 E11.92070
G1 X45.600 Y68.263 E12.32665
G1 X45.063 Y68.325 E12.34643
G1 X52.975 Y76.238 E12.74904
G1 X52.363 Y76.238 E12.77105
G1 X44.513 Y68.388 E13.17032
G1 X43.963 Y68.463 E13.19010
G1 X51.750 Y76.238 E13.58603
G1 X51.138 Y76.238 E13.60803
G1 X43.425 Y68.525 E14.00062
G1 X42.875 Y68.588 E14.02040
G1 X50.525 Y76.238 E14.40964
G1 X49.913 Y76.238 E14.43164
G1 X42.325 Y68.650 E14.81754
G1 X41.788 Y68.725 E14.83733
G1 X49.300 Y76.238 E15.21988
G1 X48.688 Y76.238 E15.24189
G1 X41.238 Y68.788 E15.62110
G1 X40.688 Y68.850 E15.64089
G1 X48.075 Y76.238 E16.01676
G1 X47.475 Y76.238 E16.03876
G1 X40.150 Y68.913 E16.41129
G1 X39.600 Y68.988 E16.43107
G1 X46.863 Y76.238 E16.80026
G1 X46.250 Y76.238 E16.82227
G1 X39.050 Y69.050 E17.18811
G1 X38.513 Y69.113 E17.20789
G1 X45.638 Y76.238 E17.57040
G1 X45.025 Y76.238 E17.59240
G1 X37.963 Y69.175 E17.95156
G1 X37.413 Y69.250 E17.97134
G1 X44.413 Y76.238 E18.32716
G1 X43.800 Y76.238 E18.34917
G1 X36.875 Y69.313 E18.70164
G1 X36.325 Y69.375 E18.72142
G1 X43.188 Y76.238 E19.07056
G1 X42.575 Y76.238 E19.09256
G1 X35.775 Y69.450 E19.43835
G1 X35.225 Y69.513 E19.45814
G1 X41.963 Y76.238 E19.80058
G1 X41.350 Y76.238 E19.82259
G1 X34.688 Y69.575 E20.16169
G1 X34.438 Y69.950 E20.17758
G1 X40.738 Y76.238 E20.49794
G1 X40.125 Y76.238 E20.51994
G1 X34.438 Y70.550 E20.80918
G1 X34.438 Y71.163 E20.83119
G1 X39.513 Y76.238 E21.08931
G1 X38.900 Y76.238 E21.11132
G1 X34.438 Y71.775 E21.33832
G1 X34.438 Y72.388 E21.36033
G1 X38.288 Y76.238 E21.55621
G1 X37.675 Y76.238 E21.57822
G1 X34.438 Y73.000 E21.74298
G1 X34.438 Y73.613 E21.76499
G1 X37.075 Y76.238 E21.89864
G1 X36.463 Y76.238 E21.92064
G1 X34.438 Y74.225 E22.02317
G1 X34.438 Y74.838 E22.04518
G1 X35.850 Y76.238 E22.11659
G1 X35.238 Y76.238 E22.13859
G1 X34.438 Y75.450 E22.17888
G1 X34.438 Y76.063 E22.20089
G1 X34.625 Y76.238 E22.21006
G1 X62.763 Y76.238 F3600.000
G1 X59.050 Y72.525 F1200.000 E22.39901
G1 X59.713 Y72.575 E22.42280
G1 X63.375 Y76.238 E22.60930
G1 X63.988 Y76.238 E22.63131
G1 X60.325 Y72.575 E22.81777
G1 X60.938 Y72.575 E22.83980
G1 X64.600 Y76.238 E23.02623
G1 X65.213 Y76.238 E23.04824
G1 X61.550 Y72.575 E23.23464
G1 X62.163 Y72.575 E23.25666
G1 X65.825 Y76.238 E23.44303
G1 X66.438 Y76.238 E23.46503
G1 X62.775 Y72.575 E23.65136
G1 X63.388 Y72.575 E23.67339
G1 X67.050 Y76.238 E23.85969
G1 X67.663 Y76.238 E23.88169
G1 X64.000 Y72.575 E24.06796
G1 X64.613 Y72.575 E24.08999
G1 X68.263 Y76.238 E24.27622
G1 X68.875 Y76.238 E24.29822
G1 X65.225 Y72.588 E24.48442
G1 X65.838 Y72.588 E24.50645
G1 X69.488 Y76.238 E24.69261
G1 X70.100 Y76.238 E24.71461
G1 X66.450 Y72.588 E24.90074
G1 X67.063 Y72.588 E24.92277
G1 X70.713 Y76.238 E25.10887
G1 X71.325 Y76.238 E25.13087
G1 X67.675 Y72.588 E25.31693
G1 X68.288 Y72.588 E25.33896
G1 X71.938 Y76.238 E25.52499
G1 X72.550 Y76.238 E25.54700
G1 X68.900 Y72.588 E25.73299
G1 X69.513 Y72.588 E25.75502
G1 X73.163 Y76.238 E25.94098
G1 X73.775 Y76.238 E25.96299
G1 X70.125 Y72.588 E26.14891
G1 X70.738 Y72.588 E26.17094
G1 X74.388 Y76.238 E26.35684
G1 X75.000 Y76.238 E26.37884
G1 X71.350 Y72.588 E26.56470
G1 X71.963 Y72.588 E26.58673
G1 X75.613 Y76.238 E26.77256
G1 X76.225 Y76.238 E26.79456
G1 X72.575 Y72.588 E26.98036
G1 X73.188 Y72.588 E27.00239
G1 X76.838 Y76.238 E27.18815
G1 X77.450 Y76.238 E27.21015
G1 X73.800 Y72.588 E27.39588
G1 X74.413 Y72.588 E27.41791
G1 X78.063 Y76.238 E27.60360
G1 X78.663 Y76.238 E27.62561
G1 X75.025 Y72.588 E27.81127
G1 X75.600 Y72.563 E27.83209
G1 X79.275 Y76.238 E28.01947
G1 X79.888 Y76.238 E28.04147
G1 X76.075 Y72.425 E28.23569
G1 X76.550 Y72.288 E28.25353
G1 X80.500 Y76.238 E28.45457
G1 X81.113 Y76.238 E28.47657
G1 X77.025 Y72.150 E28.68444
G1 X77.513 Y72.025 E28.70228
G1 X81.725 Y76.238 E28.91698
G1 X82.338 Y76.238 E28.93899
G1 X77.988 Y71.888 E29.16051
G1 X78.463 Y71.750 E29.17835
G1 X82.950 Y76.238 E29.40671
G1 X83.563 Y76.238 E29.42871
G1 X78.938 Y71.613 E29.66390
G1 X79.413 Y71.488 E29.68174
G1 X84.175 Y76.238 E29.92375
G1 X84.788 Y76.238 E29.94576
G1 X79.900 Y71.350 E30.19460
G1 X80.375 Y71.213 E30.21244
G1 X85.400 Y76.238 E30.46811
G1 X86.013 Y76.238 E30.49012
G1 X80.850 Y71.088 E30.75262
G1 X81.325 Y70.950 E30.77046
G1 X86.625 Y76.238 E31.03979
G1 X87.238 Y76.238 E31.06179
G1 X81.800 Y70.813 E31.33795
G1 X82.288 Y70.675 E31.35579
G1 X87.850 Y76.238 E31.63877
G1 X88.463 Y76.238 E31.66078
G1 X82.763 Y70.550 E31.95059
G1 X83.238 Y70.413 E31.96843
G1 X89.063 Y76.238 E32.26508
G1 X89.675 Y76.238 E32.28708
G1 X83.713 Y70.275 E32.59055
G1 X84.188 Y70.138 E32.60839
G1 X89.825 Y75.775 E32.89494
G1 X89.825 Y75.163 E32.91694
G1 X84.675 Y70.013 E33.17920
G1 X85.150 Y69.875 E33.19704
G1 X89.825 Y74.550 E33.43501
G1 X89.825 Y73.938 E33.45701
G1 X85.625 Y69.738 E33.67068
G1 X86.100 Y69.600 E33.68853
G1 X89.825 Y73.325 E33.87791
G1 X89.825 Y72.713 E33.89992
G1 X86.563 Y69.450 E34.06613
G1 X86.913 Y69.188 E34.08190
G1 X89.825 Y72.100 E34.22996
G1 X89.825 Y71.488 E34.25196
G1 X87.238 Y68.900 E34.38381
G1 X87.488 Y68.550 E34.39955
G1 X89.825 Y70.875 E34.51822
G1 X89.825 Y70.275 E34.54023
G1 X87.688 Y68.125 E34.64919
G1 X87.838 Y67.663 E34.66665
G1 X89.825 Y69.663 E34.76796
G1 X89.825 Y69.050 E34.78996
G1 X87.775 Y67.000 E34.89427
G1 X87.813 Y66.413 E34.91512
G1 X89.825 Y68.438 E35.01774
G1 X89.825 Y67.825 E35.03974
G1 X88.425 Y66.413 E35.11122
G1 X89.038 Y66.413 E35.13324
G1 X89.825 Y67.213 E35.17358
G1 X89.825 Y66.600 E35.19558
G1 X89.650 Y66.413 E35.20477
G1 F1800.000 E30.70477
G92 E0
G1 X68.888 Y62.138 F3600.000
G1 F1800.000 E4.50000
G1 X60.600 Y53.850 F1200.000 E4.92317
G1 X60.113 Y53.988 E4.94111
G1 X68.625 Y62.488 E5.37554
G1 X68.425 Y62.913 E5.39218
G1 X59.625 Y54.113 E5.84147
G1 X59.063 Y54.163 E5.86189
G1 X68.225 Y63.325 E6.32980
G1 X67.788 Y63.500 E6.34692
G1 X58.500 Y54.213 E6.82105
G1 X57.938 Y54.263 E6.84147
G1 X67.263 Y63.588 E7.31779
G1 X66.750 Y63.688 E7.33688
G1 X57.375 Y54.313 E7.81538
G1 X56.813 Y54.363 E7.83580
G1 X66.225 Y63.775 E8.31648
G1 X65.700 Y63.875 E8.33558
G1 X56.250 Y54.413 E8.81844
G1 X55.688 Y54.463 E8.83885
G1 X65.188 Y63.963 E9.32390
G1 X64.663 Y64.063
G1 X55.125 Y54.513 E9.81112
G1 X54.563 Y54.575
G1 X59.113 Y59.113 E10.04344
G1 X58.325 Y58.950 E10.07240
G1 X54.000 Y54.625 E10.29345
G1 X53.438 Y54.675 E10.31386
G1 X57.538 Y58.775 E10.52364
G1 X56.850 Y58.700 E10.54891
G1 X52.875 Y54.725 E10.75194
G1 X52.313 Y54.775 E10.77235
G1 X56.288 Y58.750 E10.97572
G1 X55.738 Y58.813 E10.99592
G1 X51.750 Y54.825 E11.19963
G1 X51.188 Y54.875 E11.22005
G1 X55.175 Y58.875 E11.42409
G1 X54.625 Y58.925 E11.44430
G1 X50.625 Y54.925 E11.64868
G1 X50.063 Y54.975 E11.66910
G1 X54.063 Y58.988 E11.87383
G1 X53.513 Y59.050 E11.89403
G1 X49.488 Y55.025 E12.09910
G1 X48.925 Y55.075 E12.11952
G1 X52.950 Y59.100 E12.32493
G1 X52.400 Y59.163 E12.34513
G1 X48.363 Y55.138 E12.55088
G1 X47.800 Y55.188 E12.57130
G1 X51.838 Y59.213 E12.77739
G1 X51.288 Y59.275 E12.79759
G1 X47.238 Y55.238 E13.00402
G1 X46.675 Y55.288 E13.02444
G1 X50.725 Y59.338 E13.23121
G1 X50.175 Y59.388 E13.25141
G1 X46.113 Y55.338 E13.45852
G1 X45.550 Y55.388 E13.47894
G1 X49.613 Y59.450 E13.68639
G1 X49.063 Y59.513 E13.70660
G1 X44.988 Y55.438 E13.91439
G1 X44.425 Y55.488 E13.93481
G1 X48.500 Y59.563 E14.14294
G1 X47.950 Y59.625 E14.16314
G1 X43.863 Y55.538 E14.37162
G1 X43.300 Y55.588 E14.39203
G1 X47.388 Y59.675 E14.60085
G1 X46.838 Y59.738 E14.62105
G1 X42.738 Y55.638 E14.83021
G1 X42.175 Y55.700 E14.85062
G1 X46.275 Y59.800 E15.06012
G1 X45.725 Y59.850 E15.08032
G1 X41.613 Y55.750 E15.29016
G1 X41.050 Y55.800 E15.31057
G1 X45.163 Y59.913 E15.52075
G1 X44.613 Y59.975 E15.54095
G1 X40.488 Y55.850 E15.75147
G1 X39.925 Y55.900 E15.77189
G1 X44.050 Y60.025 E15.98275
G1 X43.500 Y60.088 E16.00295
G1 X39.363 Y55.950 E16.21415
G1 X38.800 Y56.000 E16.23456
G1 X42.938 Y60.138 E16.44610
G1 X42.375 Y60.200 E16.46630
G1 X38.238 Y56.050 E16.67818
G1 X37.675 Y56.100 E16.69860
G1 X41.825 Y60.263 E16.91082
G1 X41.263 Y60.313 E16.93102
G1 X37.100 Y56.150 E17.14358
G1 X36.538 Y56.200 E17.16400
G1 X40.713 Y60.375 E17.37690
G1 X40.150 Y60.438 E17.39710
G1 X35.975 Y56.263 E17.61034
G1 X35.413 Y56.313 E17.63076
G1 X39.600 Y60.488 E17.84434
G1 X39.038 Y60.550 E17.86455
G1 X34.850 Y56.363 E18.07847
G1 X34.288 Y56.413 E18.09889
G1 X38.488 Y60.600 E18.31315
G1 X37.925 Y60.663 E18.33335
G1 X33.725 Y56.463 E18.54795
G1 X33.163 Y56.513 E18.56837
G1 X37.375 Y60.725 E18.78332
G1 X36.813 Y60.775 E18.80352
G1 X32.600 Y56.563 E19.01880
G1 X32.038 Y56.613 E19.03922
G1 X36.263 Y60.838 E19.25485
G1 X35.700 Y60.900 E19.27505
G1 X31.475 Y56.663 E19.49101
G1 X30.913 Y56.713 E19.51143
G1 X35.150 Y60.950 E19.72774
G1 X34.588 Y61.013 E19.74794
G1 X30.350 Y56.763 E19.96458
G1 X29.788 Y56.825 E19.98500
G1 X34.038 Y61.063 E20.20199
G1 X33.475 Y61.125 E20.22219
G1 X29.225 Y56.875 E20.43952
G1 X28.663 Y56.925 E20.45994
G1 X32.925 Y61.188 E20.67761
G1 X32.363 Y61.238 E20.69781
G1 X28.100 Y56.975 E20.91582
G1 X27.538 Y57.025 E20.93623
G1 X31.813 Y61.300 E21.15458
G1 X31.250 Y61.363 E21.17478
G1 X26.975 Y57.075 E21.39347
G1 X26.413 Y57.125 E21.41389
G1 X30.700 Y61.413 E21.63292
G1 X30.138 Y61.475 E21.65312
G1 X25.850 Y57.175 E21.87249
G1 X25.288 Y57.225 E21.89291
G1 X29.588 Y61.525 E22.11262
G1 X29.025 Y61.588 E22.13282
G1 X24.713 Y57.275 E22.35288
G1 X24.150 Y57.325 E22.37329
G1 X28.475 Y61.650 E22.59369
G1 X27.913 Y61.700 E22.61389
G1 X23.588 Y57.388 E22.83462
G1 X23.463 Y57.875 E22.85284
G1 X27.363 Y61.763 E23.05158
G1 X26.800 Y61.825 E23.07178
G1 X23.525 Y58.550 E23.23895
G1 X23.588 Y59.225 E23.26346
G1 X26.250 Y61.875 E23.39907
G1 X25.688 Y61.938 E23.41927
G1 X23.650 Y59.900 E23.52332
G1 X23.713 Y60.575 E23.54783
G1 X25.138 Y61.988 E23.62032
G1 X24.575 Y62.050 E23.64052
G1 X23.775 Y61.250 E23.68144
G1 X23.838 Y61.925 E23.70595
G1 X24.025 Y62.113 E23.71531
G1 F1800.000 E19.21531
G92 E0
G1 X59.925 Y59.925 F3600.000
G1 F1800.000 E4.50000
G1 X64.150 Y64.150 F1200.000 E4.71574
G1 X60.913 Y64.000 F3600.000
G1 X60.863 Y63.325 F1200.000 E4.74010
G1 X61.775 Y64.250 E4.78717
G1 X62.588 Y64.438 E4.81697
G1 X60.700 Y62.550 E4.91341
G1 X60.538 Y61.763 E4.94209
G1 X63.100 Y64.338 E5.07344
G1 X63.625 Y64.250 E5.09253
G1 X60.238 Y60.850 E5.26571
G1 X61.075 Y53.713 F3600.000
G1 X68.188 Y60.825 F1200.000 E5.62924
G1 X61.550 Y53.575 F3600.000
G1 X67.450 Y59.475 F1200.000 E5.93041
G1 X67.325 Y58.738 E5.95725
G1 X62.025 Y53.438 E6.22795
G1 X62.500 Y53.300 E6.24588
G1 X67.375 Y58.163 E6.49448
G1 X67.513 Y57.688 E6.51236
G1 X62.988 Y53.163 E6.74368
G1 X63.463 Y53.025 E6.76161
G1 X67.750 Y57.313 E6.98046
G1 X68.000 Y56.950 E6.99636
G1 X63.938 Y52.888 E7.20389
G1 X64.413 Y52.750 E7.22182
G1 X68.363 Y56.700 E7.42311
G1 X68.725 Y56.450 E7.43914
G1 X64.888 Y52.613 E7.63504
G1 X65.375 Y52.475 E7.65298
G1 X69.200 Y56.313 E7.84887
G1 X69.688 Y56.175 E7.86679
G1 X65.850 Y52.338 E8.06267
G1 X66.325 Y52.213 E8.08060
G1 X70.163 Y56.038 E8.27646
G1 X70.638 Y55.900 E8.29439
G1 X66.800 Y52.075 E8.49023
G1 X67.275 Y51.938 E8.50817
G1 X71.113 Y55.763 E8.70400
G1 X71.588 Y55.625 E8.72193
G1 X67.763 Y51.800 E8.91774
G1 X68.238 Y51.663 E8.93567
G1 X72.075 Y55.500 E9.13147
G1 X72.550 Y55.363 E9.14940
G1 X68.713 Y51.525 E9.34519
G1 X69.188 Y51.388 E9.36312
G1 X73.025 Y55.225 E9.55889
G1 X73.500 Y55.088 E9.57682
G1 X69.663 Y51.250 E9.77257
G1 X70.150 Y51.113 E9.79051
G1 X73.975 Y54.950 E9.98625
G1 X74.450 Y54.813 E10.00418
G1 X70.625 Y50.975 E10.19990
G1 X71.100 Y50.838 E10.21784
G1 X74.938 Y54.675 E10.41355
G1 X75.413 Y54.538 E10.43147
G1 X71.575 Y50.700 E10.62717
G1 X72.050 Y50.563 E10.64510
G1 X75.888 Y54.400 E10.84078
G1 X76.363 Y54.263 E10.85871
G1 X72.538 Y50.425 E11.05438
G1 X73.013 Y50.288 E11.07231
G1 X76.838 Y54.125 E11.26796
G1 X77.313 Y53.988 E11.28589
G1 X73.488 Y50.150 E11.48153
G1 X73.963 Y50.025 E11.49946
G1 X77.800 Y53.850 E11.69508
G1 X78.275 Y53.713 E11.71301
G1 X74.438 Y49.888 E11.90862
G1 X74.925 Y49.750 E11.92655
G1 X78.750 Y53.575 E12.12214
G1 X79.225 Y53.438 E12.14007
G1 X75.400 Y49.613 E12.33565
G1 X75.875 Y49.475 E12.35358
G1 X79.700 Y53.300 E12.54914
G1 X80.175 Y53.163 E12.56707
G1 X76.350 Y49.338 E12.76262
G1 X76.825 Y49.200 E12.78055
G1 X80.663 Y53.025 E12.97608
G1 X81.138 Y52.888 E12.99401
G1 X77.313 Y49.063 E13.18953
G1 X77.788 Y48.925 E13.20746
G1 X81.613 Y52.750 E13.40296
G1 X82.088 Y52.613 E13.42089
G1 X78.263 Y48.788 E13.61638
G1 X78.738 Y48.650 E13.63431
G1 X82.563 Y52.475 E13.82978
G1 X83.038 Y52.338 E13.84771
G1 X79.213 Y48.513 E14.04317
G1 X79.700 Y48.375 E14.06110
G1 X83.525 Y52.200 E14.25655
G1 X84.000 Y52.063 E14.27447
G1 X80.175 Y48.238 E14.46990
G1 X80.650 Y48.100 E14.48784
G1 X84.475 Y51.925 E14.68325
G1 X84.950 Y51.800 E14.70118
G1 X81.125 Y47.963 E14.89657
G1 X81.600 Y47.825 E14.91451
G1 X85.425 Y51.663 E15.10989
G1 X85.913 Y51.525 E15.12782
G1 X82.075 Y47.700 E15.32319
G1 X82.563 Y47.563 E15.34112
G1 X86.388 Y51.388 E15.53647
G1 X86.863 Y51.250 E15.55440
G1 X83.038 Y47.425 E15.74974
G1 X83.513 Y47.288 E15.76767
G1 X87.338 Y51.113 E15.96300
G1 X87.813 Y50.975 E15.98092
G1 X83.988 Y47.150 E16.17623
G1 X84.463 Y47.013 E16.19417
G1 X88.288 Y50.838 E16.38946
G1 X88.775 Y50.700 E16.40739
G1 X84.950 Y46.875 E16.60267
G1 X85.425 Y46.738 E16.62060
G1 X89.250 Y50.563 E16.81587
G1 X89.725 Y50.425 E16.83379
G1 X85.900 Y46.600 E17.02904
G1 X86.375 Y46.463 E17.04698
G1 X90.200 Y50.288 E17.24221
G1 X90.675 Y50.150 E17.26014
G1 X86.850 Y46.325 E17.45536
G1 X87.338 Y46.188 E17.47329
G1 X91.150 Y50.013 E17.66850
G1 X91.638 Y49.875 E17.68642
G1 X87.813 Y46.050 E17.88161
G1 X88.288 Y45.913 E17.89955
G1 X92.113 Y49.738 E18.09472
G1 X92.588 Y49.600 E18.11265
G1 X88.763 Y45.775 E18.30781
G1 X89.238 Y45.638 E18.32574
G1 X93.063 Y49.463 E18.52089
G1 X93.538 Y49.325 E18.53882
G1 X89.725 Y45.513 E18.73394
G1 X90.200 Y45.375 E18.75188
G1 X94.013 Y49.188 E18.94699
G1 X94.500 Y49.050 E18.96492
G1 X90.675 Y45.238 E19.16002
G1 X91.150 Y45.100 E19.17796
G1 X94.975 Y48.913 E19.37304
G1 X95.450 Y48.775 E19.39097
G1 X91.625 Y44.963 E19.58604
G1 X92.113 Y44.825 E19.60397
G1 X95.925 Y48.638 E19.79903
G1 X96.400 Y48.500 E19.81696
G1 X92.588 Y44.688 E20.01200
G1 X93.063 Y44.550 E20.02993
G1 X96.200 Y47.688 E20.18993
G1 X95.950 Y46.825 E20.22229
G1 X93.538 Y44.413 E20.34529
G1 X94.013 Y44.275 E20.36323
G1 X95.700 Y45.963 E20.44924
G1 X95.450 Y45.100 E20.48159
G1 X94.500 Y44.138 E20.53061
G1 X94.975 Y44.000 E20.54854
G1 X95.213 Y44.238 E20.56056
; infill_end
G1 F1800.000 E16.06056
G92 E0
; Layer: 4 Time: 77
G1 Z0.950 F3600.000
; Region: 0
; perimeter_start
G1 X87.538 Y67.600
G1 F1800.000 E4.50000
G1 X87.438 Y66.600 F900.000 E4.53373
G1 X87.175 Y66.113 E4.55177
G1 X90.125 Y66.125 E4.64972
G1 X90.125 Y76.537 E4.99621
G1 X34.150 Y76.537 E6.85803
G1 X34.150 Y69.338 E7.09742
G1 X53.775 Y66.975 E7.75523
G1 X56.575 Y65.100 E7.86728
G1 X58.100 Y65.700 E7.92170
G1 X58.438 Y65.700 E7.93302
G1 X58.288 Y66.100 E7.94715
G1 X58.238 Y66.588 E7.96369
G1 X58.450 Y67.225 E7.98604
G1 X57.963 Y67.563 E8.00609
G1 X57.638 Y67.988 E8.02350
G1 X57.475 Y68.488 E8.04107
G1 X57.463 Y70.488 E8.10779
G1 X57.675 Y71.125 E8.13007
G1 X58.063 Y71.675 E8.15257
G1 X58.650 Y72.088 E8.17607
G1 X59.250 Y72.275 E8.19713
G1 X75.438 Y72.300 E8.73545
G1 X86.363 Y69.225 E9.11302
G1 X86.925 Y68.825 E9.13582
G1 X87.325 Y68.275 E9.15833
G1 X87.475 Y67.800 E9.17525
G1 X87.138 Y67.563
G1 X87.050 Y66.713 E9.20354
G1 X86.775 Y66.213 E9.22258
G1 X86.238 Y65.713 E9.24668
G1 X90.525 Y65.725 E9.38898
G1 X90.525 Y76.938 E9.76208
G1 X33.750 Y76.938 E11.65050
G1 X33.750 Y68.988 E11.91500
G1 X53.638 Y66.588 E12.58142
G1 X56.525 Y64.650 E12.69726
G1 X58.175 Y65.300 E12.75598
G1 X58.800 Y65.288 E12.77684
G1 X59.063 Y65.188 E12.78615
G1 X59.150 Y65.313 E12.79108
G1 X58.900 Y65.600 E12.80367
G1 X58.688 Y66.188 E12.82461
G1 X58.638 Y66.550 E12.83647
G1 X58.925 Y67.375 E12.86589
G1 X58.238 Y67.863 E12.89392
G1 X58.000 Y68.175 E12.90706
G1 X57.875 Y68.550 E12.92025
G1 X57.875 Y70.425 E12.98270
G1 X58.038 Y70.950 E13.00079
G1 X58.350 Y71.388 E13.01895
G1 X58.825 Y71.725 E13.03818
G1 X59.313 Y71.875 E13.05512
G1 X75.375 Y71.900 E13.58953
G1 X86.188 Y68.863 E13.96294
G1 X86.638 Y68.538 E13.98128
G1 X86.963 Y68.100 E13.99953
G1 X87.075 Y67.750 E14.01148
G1 X87.838 Y67.188
G1 F1800.000 E9.51148
G92 E0
G1 X84.388 Y65.050 F3600.000
G1 F1800.000 E4.50000
G1 X73.125 Y63.975 F900.000 E4.87635
G1 X72.588 Y62.588 E4.92582
G1 X72.138 Y62.088 E4.94818
G1 X73.675 Y60.575 E5.02002
G1 X77.675 Y61.400 E5.15553
G1 X84.088 Y63.875 E5.38426
G1 X84.338 Y64.863 E5.41820
G1 X84.763 Y64.925
G1 X85.325 Y65.413 E5.44279
G1 X85.263 Y65.538 E5.44743
G1 X72.838 Y64.350 E5.86258
G1 X72.238 Y62.800 E5.91782
G1 X71.850 Y62.363 E5.93702
G1 X71.275 Y62.050 E5.95892
G1 X71.888 Y61.775 E5.98101
G1 X73.550 Y60.138 E6.05856
G1 X77.788 Y61.013 E6.20225
G1 X84.425 Y63.575 E6.43895
G1 X84.713 Y64.725 E6.47865
G1 X84.475 Y65.600
G1 F1800.000 E1.97865
G92 E0
G1 X69.463 Y61.975 F3600.000
G1 F1800.000 E4.50000
G1 X68.963 Y62.463 F900.000 E4.52318
G1 X68.388 Y63.688 E4.56823
G1 X62.300 Y64.788 E4.77362
G1 X61.213 Y64.325 E4.81295
G1 X60.538 Y64.250 E4.83560
G1 X60.650 Y63.800 E4.85091
G1 X60.225 Y61.775 E4.92002
G1 X59.463 Y59.500 E4.99981
G1 X57.050 Y58.975 E5.08193
G1 X23.588 Y62.450 E6.20085
G1 X23.100 Y57.125 E6.37866
G1 X59.650 Y53.813 E7.59941
G1 X95.325 Y43.588 E8.83376
G1 X96.800 Y48.700 E9.01059
G1 X68.813 Y56.738 E9.97905
G1 X68.225 Y57.150 E10.00283
G1 X67.813 Y57.738 E10.02661
G1 X67.613 Y58.425 E10.05039
G1 X67.650 Y59.113 E10.07332
G1 X67.763 Y59.488 E10.08656
G1 X69.000 Y61.638 E10.16907
G1 X69.300 Y61.863 E10.18159
G1 X69.300 Y61.363
G1 X69.875 Y61.788 E10.20530
G1 X70.400 Y61.963 E10.22354
G1 X69.713 Y62.300 E10.24905
G1 X69.300 Y62.700 E10.26821
G1 X68.650 Y64.050 E10.31772
G1 X62.263 Y65.200 E10.53385
G1 X61.113 Y64.725 E10.57525
G1 X60.488 Y64.650 E10.59629
G1 X59.775 Y64.800 E10.62041
G1 X60.150 Y64.138 E10.64594
G1 X60.250 Y63.788 E10.65760
G1 X59.838 Y61.875 E10.72274
G1 X59.150 Y59.838 E10.79419
G1 X57.025 Y59.375 E10.86664
G1 X23.225 Y62.888 E11.99691
G1 X22.663 Y56.763 E12.20150
G1 X59.575 Y53.413 E13.43431
G1 X95.600 Y43.100 E14.68069
G1 X97.288 Y48.975 E14.88413
G1 X68.988 Y57.100 E15.86364
G1 X68.513 Y57.438 E15.88291
G1 X68.175 Y57.913 E15.90218
G1 X68.013 Y58.463 E15.92145
G1 X68.038 Y59.038 E15.94044
G1 X68.138 Y59.325 E15.95054
G1 X69.200 Y61.188 E16.02213
G1 X69.125 Y62.063
G1 F1800.000 E11.52213
G92 E0
G1 X85.663 Y65.463 F3600.000
G1 F1800.000 E4.50000
G1 X85.950 Y65.463 F900.000 E4.50952
G1 X85.950 Y65.713 E4.51781
G1 X85.663 Y65.713 E4.52733
G1 X85.663 Y65.550 E4.53266
; perimeter_end
; infill_start
G1 F1800.000 E0.03266
G92 E0
G1 X87.813 Y67.338 F3600.000
G1 F1800.000 E4.50000
G1 X88.738 Y66.413 F1200.000 E4.54350
G1 X89.825 Y70.988 F3600.000
G1 X84.563 Y76.238 F1200.000 E4.79077
G1 X78.913 Y76.238 E4.97891
G1 X85.338 Y69.825 E5.28092
G1 X77.463 Y72.038 F3600.000
G1 X73.250 Y76.238 F1200.000 E5.47887
G1 X71.250 Y72.588 F3600.000
G1 X67.600 Y76.238 F1200.000 E5.65074
G1 X65.600 Y72.588 F3600.000
G1 X61.938 Y76.238 F1200.000 E5.82289
G1 X59.950 Y72.575 F3600.000
G1 X56.288 Y76.238 F1200.000 E5.99533
G1 X54.000 Y72.875 E6.13077
G1 X57.175 Y69.700 E6.28024
G1 X54.075 Y67.138 E6.41390
G1 X52.038 Y69.175 E6.50957
G1 X53.063 Y75.763 F3600.000
G1 X52.588 Y76.238 F1200.000 E6.53390
G1 X51.975 Y76.238
G1 X53.575 Y74.638 E6.61572
G1 X53.775 Y73.825 E6.64609
G1 X51.363 Y76.238 E6.76963
G1 X50.750 Y76.238 E6.79189
G1 X53.800 Y73.188 E6.94818
G1 X53.800 Y72.575 E6.97053
G1 X50.125 Y76.238 E7.15843
G1 X49.513 Y76.238 E7.18069
G1 X53.800 Y71.950 E7.40019
G1 X53.813 Y71.338 E7.42254
G1 X48.900 Y76.238 E7.67365
G1 X48.288 Y76.238 E7.69591
G1 X53.813 Y70.713 E7.97863
G1 X53.813 Y70.100 E8.00098
G1 X47.663 Y76.238 E8.31530
G1 X47.050 Y76.238 E8.33756
G1 X53.813 Y69.475 E8.68349
G1 X53.313 Y69.375 E8.70221
G1 X46.438 Y76.238 E9.05374
G1 X45.825 Y76.238 E9.07600
G1 X52.688 Y69.375 E9.42753
G1 X52.075 Y69.375 E9.44979
G1 X45.213 Y76.238 E9.80133
G1 X44.588 Y76.238 E9.82358
G1 X51.750 Y69.088 E10.18973
G1 X51.713 Y68.500 E10.21076
G1 X43.975 Y76.238 E10.60660
G1 X43.363 Y76.238 E10.62886
G1 X51.675 Y67.925 E11.05439
G1 X51.425 Y67.563 E11.07038
G1 X42.750 Y76.238 E11.51449
G1 X42.125 Y76.238 E11.53675
G1 X50.725 Y67.650 E11.97655
G1 X50.025 Y67.725 E12.00204
G1 X41.513 Y76.238 E12.43753
G1 X40.900 Y76.238 E12.45979
G1 X49.325 Y67.813 E12.89098
G1 X48.625 Y67.900 E12.91647
G1 X40.288 Y76.238 E13.34335
G1 X39.675 Y76.238 E13.36561
G1 X47.925 Y67.988 E13.78819
G1 X47.225 Y68.063 E13.81368
G1 X39.050 Y76.238 E14.23195
G1 X38.600 Y76.075 E14.24938
G1 X46.525 Y68.150 E14.65508
G1 X45.838 Y68.238 E14.68057
G1 X38.600 Y75.463 E15.05049
G1 X38.600 Y74.850 E15.07275
G1 X45.138 Y68.313 E15.40690
G1 X44.438 Y68.400 E15.43238
G1 X38.600 Y74.238 E15.73074
G1 X38.600 Y73.625 E15.75300
G1 X43.738 Y68.488 E16.01558
G1 X43.038 Y68.575 E16.04107
G1 X38.600 Y73.000 E16.26787
G1 X38.600 Y72.388 E16.29012
G1 X42.338 Y68.650 E16.48114
G1 X41.638 Y68.738 E16.50663
G1 X38.600 Y71.775 E16.66186
G1 X38.600 Y71.163 E16.68412
G1 X40.938 Y68.825 E16.80357
G1 X40.238 Y68.913 E16.82906
G1 X38.600 Y70.538 E16.91273
G1 X38.600 Y69.925 E16.93499
G1 X39.538 Y68.988 E16.98288
G1 X38.838 Y69.075 E17.00837
G1 X38.600 Y69.313 E17.02048
G1 X38.413 Y70.988 F3600.000
G1 X34.438 Y74.950 F1200.000 E17.20696
G1 F1800.000 E12.70696
G92 E0
G1 X74.125 Y63.763 F3600.000
G1 F1800.000 E4.50000
G1 X76.438 Y61.450 F1200.000 E4.60921
G1 X79.288 Y64.263 E4.74226
G1 X80.675 Y62.875 E4.80773
G1 F1800.000 E0.30773
G92 E0
G1 X81.100 Y52.900 F3600.000
G1 F1800.000 E4.50000
G1 X88.000 Y46.000 F1200.000 E4.82462
G1 X89.038 Y50.625 F3600.000
G1 X95.250 Y44.400 F1200.000 E5.11727
G1 X80.075 Y48.275 F3600.000
G1 X73.163 Y55.175 F1200.000 E5.44230
G1 X72.138 Y50.538 F3600.000
G1 X60.600 Y62.088 F1200.000 E5.98536
G1 F1800.000 E1.48536
G92 E0
G1 X58.125 Y58.900 F3600.000
G1 F1800.000 E4.50000
G1 X64.213 Y52.813 F1200.000 E4.78663
G1 X57.025 Y54.350 F3600.000
G1 X52.188 Y59.188 F1200.000 E5.01413
G1 X50.800 Y54.913 F3600.000
G1 X45.875 Y59.838 F1200.000 E5.24589
G1 X44.575 Y55.475 F3600.000
G1 X39.563 Y60.488 F1200.000 E5.48192
G1 X38.363 Y56.038 F3600.000
G1 X33.250 Y61.150 F1200.000 E5.72222
G1 X32.138 Y56.600 F3600.000
G1 X26.938 Y61.800 F1200.000 E5.96679
G1 X23.613 Y59.475 E6.10186
G1 X25.913 Y57.175 E6.21018
G1 F1800.000 E1.71018
G92 E0
G1 X64.200 Y64.138 F3600.000
G1 F1800.000 E4.50000
G1 X67.938 Y60.400 F1200.000 E4.67616
; infill_end
G1 F1800.000 E0.17616
G92 E0
; Layer: 5 Time: 64
G1 Z1.150 F3600.000
; Region: 0
; perimeter_start
G1 X87.538 Y67.600
G1 F1800.000 E4.50000
G1 X87.438 Y66.600 F900.000 E4.53373
G1 X87.175 Y66.113 E4.55177
G1 X90.125 Y66.125 E4.64972
G1 X90.125 Y76.537 E4.99621
G1 X34.150 Y76.537 E6.85803
G1 X34.150 Y69.338 E7.09742
G1 X53.775 Y66.975 E7.75523
G1 X56.575 Y65.100 E7.86728
G1 X58.100 Y65.700 E7.92170
G1 X58.438 Y65.700 E7.93302
G1 X58.288 Y66.100 E7.94715
G1 X58.238 Y66.588 E7.96369
G1 X58.450 Y67.225 E7.98604
G1 X57.963 Y67.563 E8.00609
G1 X57.638 Y67.988 E8.02350
G1 X57.475 Y68.488 E8.04107
G1 X57.463 Y70.488 E8.10779
G1 X57.675 Y71.125 E8.13007
G1 X58.063 Y71.675 E8.15241
G1 X58.613 Y72.075 E8.17476
G1 X59.250 Y72.275 E8.19709
G1 X75.438 Y72.300 E8.73547
G1 X86.363 Y69.225 E9.11304
G1 X86.925 Y68.825 E9.13584
G1 X87.325 Y68.275 E9.15836
G1 X87.475 Y67.800 E9.17528
G1 X87.138 Y67.563
G1 X87.050 Y66.713 E9.20356
G1 X86.775 Y66.213 E9.22261
G1 X86.238 Y65.713 E9.24671
G1 X90.525 Y65.725 E9.38901
G1 X90.525 Y76.938 E9.76210
G1 X33.750 Y76.938 E11.65053
G1 X33.750 Y68.988 E11.91502
G1 X53.638 Y66.588 E12.58144
G1 X56.525 Y64.650 E12.69729
G1 X58.175 Y65.300 E12.75601
G1 X58.800 Y65.288 E12.77687
G1 X59.063 Y65.188 E12.78617
G1 X59.150 Y65.313 E12.79111
G1 X58.900 Y65.600 E12.80370
G1 X58.688 Y66.188 E12.82463
G1 X58.638 Y66.550 E12.83650
G1 X58.925 Y67.375 E12.86591
G1 X58.238 Y67.863 E12.89394
G1 X58.000 Y68.175 E12.90709
G1 X57.875 Y68.550 E12.92028
G1 X57.875 Y70.425 E12.98272
G1 X58.038 Y70.950 E13.00081
G1 X58.350 Y71.388 E13.01892
G1 X58.788 Y71.713 E13.03704
G1 X59.313 Y71.875 E13.05515
G1 X75.375 Y71.900 E13.58958
G1 X86.188 Y68.863 E13.96299
G1 X86.638 Y68.538 E13.98133
G1 X86.963 Y68.100 E13.99958
G1 X87.075 Y67.750 E14.01153
G1 X87.838 Y67.188
G1 F1800.000 E9.51153
G92 E0
G1 X84.388 Y65.050 F3600.000
G1 F1800.000 E4.50000
G1 X73.125 Y63.975 F900.000 E4.87635
G1 X72.588 Y62.588 E4.92582
G1 X72.138 Y62.088 E4.94818
G1 X73.675 Y60.575 E5.02002
G1 X77.675 Y61.400 E5.15553
G1 X84.088 Y63.875 E5.38426
G1 X84.338 Y64.863 E5.41820
G1 X84.763 Y64.925
G1 X85.325 Y65.413 E5.44279
G1 X85.263 Y65.538 E5.44743
G1 X72.838 Y64.350 E5.86258
G1 X72.238 Y62.800 E5.91782
G1 X71.850 Y62.363 E5.93702
G1 X71.275 Y62.050 E5.95892
G1 X71.888 Y61.775 E5.98101
G1 X73.550 Y60.138 E6.05856
G1 X77.788 Y61.013 E6.20225
G1 X84.425 Y63.575 E6.43895
G1 X84.713 Y64.725 E6.47865
G1 X84.475 Y65.600
G1 F1800.000 E1.97865
G92 E0
G1 X69.463 Y61.975 F3600.000
G1 F1800.000 E4.50000
G1 X68.963 Y62.463 F900.000 E4.52318
G1 X68.388 Y63.688 E4.56823
G1 X62.300 Y64.788 E4.77362
G1 X61.213 Y64.325 E4.81295
G1 X60.538 Y64.250 E4.83560
G1 X60.650 Y63.800 E4.85091
G1 X60.225 Y61.775 E4.92002
G1 X59.463 Y59.500 E4.99981
G1 X57.050 Y58.975 E5.08193
G1 X23.588 Y62.450 E6.20085
G1 X23.100 Y57.125 E6.37866
G1 X59.650 Y53.813 E7.59941
G1 X95.325 Y43.588 E8.83376
G1 X96.800 Y48.700 E9.01059
G1 X68.813 Y56.738 E9.97905
G1 X68.225 Y57.150 E10.00283
G1 X67.813 Y57.738 E10.02661
G1 X67.613 Y58.425 E10.05039
G1 X67.650 Y59.113 E10.07332
G1 X67.763 Y59.488 E10.08656
G1 X69.000 Y61.638 E10.16907
G1 X69.300 Y61.863 E10.18159
G1 X69.300 Y61.363
G1 X69.875 Y61.788 E10.20530
G1 X70.400 Y61.963 E10.22354
G1 X69.713 Y62.300 E10.24905
G1 X69.300 Y62.700 E10.26821
G1 X68.650 Y64.050 E10.31772
G1 X62.263 Y65.200 E10.53385
G1 X61.113 Y64.725 E10.57525
G1 X60.488 Y64.650 E10.59629
G1 X59.775 Y64.800 E10.62041
G1 X60.150 Y64.138 E10.64594
G1 X60.250 Y63.788 E10.65760
G1 X59.838 Y61.875 E10.72274
G1 X59.150 Y59.838 E10.79419
G1 X57.025 Y59.375 E10.86664
G1 X23.225 Y62.888 E11.99691
G1 X22.663 Y56.763 E12.20150
G1 X59.575 Y53.413 E13.43431
G1 X95.600 Y43.100 E14.68069
G1 X97.288 Y48.975 E14.88413
G1 X68.988 Y57.100 E15.86364
G1 X68.513 Y57.438 E15.88291
G1 X68.175 Y57.913 E15.90218
G1 X68.013 Y58.463 E15.92145
G1 X68.038 Y59.038 E15.94044
G1 X68.138 Y59.325 E15.95054
G1 X69.200 Y61.188 E16.02213
G1 X69.125 Y62.063
G1 F1800.000 E11.52213
G92 E0
G1 X85.663 Y65.463 F3600.000
G1 F1800.000 E4.50000
G1 X85.950 Y65.463 F900.000 E4.50952
G1 X85.950 Y65.713 E4.51781
G1 X85.663 Y65.713 E4.52733
G1 X85.663 Y65.550 E4.53266
; perimeter_end
; infill_start
G1 X79.225 Y64.263 F3600.000
G1 X76.413 Y61.438 F1200.000 E4.66527
G1 F1800.000 E0.16527
G92 E0
G1 X80.025 Y71.313 F3600.000
G1 F1800.000 E4.50000
G1 X84.950 Y76.238 F1200.000 E4.73183
G1 X89.825 Y75.463 E4.89595
G1 X84.438 Y70.075 E5.14923
G1 X87.800 Y67.775 F3600.000
G1 X89.825 Y69.800 F1200.000 E5.24456
G1 X79.300 Y76.238 F3600.000
G1 X75.613 Y72.550 F1200.000 E5.41800
G1 X73.638 Y76.238 F3600.000
G1 X69.988 Y72.588 F1200.000 E5.58993
G1 X67.988 Y76.238 F3600.000
G1 X64.325 Y72.575 F1200.000 E5.76215
G1 X62.325 Y76.238 F3600.000
G1 X58.288 Y72.200 F1200.000 E5.95209
G1 X57.550 Y71.463 F3600.000
G1 X53.413 Y67.325 F1200.000 E6.14688
G1 X57.550 Y65.800 E6.29354
G1 X57.975 Y66.238 E6.31367
G1 X56.675 Y76.238 F3600.000
G1 X48.363 Y67.925 F1200.000 E6.70463
G1 X43.313 Y68.538 E6.87378
G1 X51.013 Y76.238 E7.23615
G1 X45.350 Y76.238 E7.42430
G1 X38.263 Y69.150 E7.75810
G1 X34.438 Y70.988 E7.89903
G1 X39.700 Y76.238 E8.14630
G1 F1800.000 E3.64630
G92 E0
G1 X38.863 Y60.563 F3600.000
G1 F1800.000 E4.50000
G1 X34.675 Y56.375 F1200.000 E4.69713
G1 X33.738 Y61.100 F3600.000
G1 X29.488 Y56.850 F1200.000 E4.89714
G1 X24.300 Y57.313 E5.07034
G1 X28.613 Y61.625 E5.27325
G1 X39.863 Y55.900 F3600.000
G1 X43.988 Y60.038 F1200.000 E5.46748
G1 X45.050 Y55.438 F3600.000
G1 X49.113 Y59.500 F1200.000 E5.65884
G1 X50.238 Y54.963 F3600.000
G1 X54.238 Y58.975 F1200.000 E5.84730
G1 X55.413 Y54.488 F3600.000
G1 X64.938 Y64.013 F1200.000 E6.29499
G1 X68.800 Y62.213 E6.43664
G1 X60.463 Y53.888 E6.82849
G1 X64.863 Y52.625 E6.98063
G1 X68.700 Y56.463 E7.16106
G1 X73.100 Y55.200 E7.31314
G1 X69.263 Y51.363 E7.49345
G1 X73.663 Y50.100 E7.64559
G1 X77.488 Y53.938 E7.82577
G1 X81.888 Y52.675 E7.97785
G1 X78.063 Y48.850 E8.15790
G1 X82.450 Y47.588 E8.31004
G1 X86.275 Y51.413 E8.48997
G1 X90.675 Y50.150 E8.64205
G1 X86.850 Y46.325 E8.82185
G1 X91.250 Y45.063 E8.97399
G1 X95.075 Y48.888 E9.15366
; infill_end
G1 F1800.000 E4.65366
G92 E0
; Layer: 6 Time: 64
G1 Z1.350 F3600.000
; Region: 0
; perimeter_start
G1 X87.538 Y67.600
G1 F1800.000 E4.50000
G1 X87.438 Y66.600 F900.000 E4.53373
G1 X87.175 Y66.113 E4.55177
G1 X90.125 Y66.125 E4.64972
G1 X90.125 Y76.537 E4.99621
G1 X34.150 Y76.537 E6.85803
G1 X34.150 Y69.338 E7.09742
G1 X53.775 Y66.975 E7.75523
G1 X56.575 Y65.100 E7.86728
G1 X58.100 Y65.700 E7.92170
G1 X58.438 Y65.700 E7.93302
G1 X58.288 Y66.100 E7.94715
G1 X58.238 Y66.588 E7.96369
G1 X58.450 Y67.225 E7.98604
G1 X57.963 Y67.563 E8.00609
G1 X57.638 Y67.988 E8.02350
G1 X57.475 Y68.488 E8.04107
G1 X57.463 Y70.488 E8.10779
G1 X57.675 Y71.125 E8.13007
G1 X58.063 Y71.675 E8.15241
G1 X58.613 Y72.075 E8.17476
G1 X59.250 Y72.275 E8.19709
G1 X75.438 Y72.300 E8.73547
G1 X86.363 Y69.225 E9.11304
G1 X86.925 Y68.825 E9.13584
G1 X87.325 Y68.275 E9.15836
G1 X87.475 Y67.800 E9.17528
G1 X87.138 Y67.563
G1 X87.050 Y66.713 E9.20356
G1 X86.775 Y66.213 E9.22261
G1 X86.238 Y65.713 E9.24671
G1 X90.525 Y65.725 E9.38901
G1 X90.525 Y76.938 E9.76210
G1 X33.750 Y76.938 E11.65053
G1 X33.750 Y68.988 E11.91502
G1 X53.638 Y66.588 E12.58144
G1 X56.525 Y64.650 E12.69729
G1 X58.175 Y65.300 E12.75601
G1 X58.800 Y65.288 E12.77687
G1 X59.063 Y65.188 E12.78617
G1 X59.150 Y65.313 E12.79111
G1 X58.900 Y65.600 E12.80370
G1 X58.688 Y66.188 E12.82463
G1 X58.638 Y66.550 E12.83650
G1 X58.925 Y67.375 E12.86591
G1 X58.238 Y67.863 E12.89394
G1 X58.000 Y68.175 E12.90709
G1 X57.875 Y68.550 E12.92028
G1 X57.875 Y70.425 E12.98272
G1 X58.038 Y70.950 E13.00081
G1 X58.350 Y71.388 E13.01892
G1 X58.788 Y71.713 E13.03704
G1 X59.313 Y71.875 E13.05515
G1 X75.375 Y71.900 E13.58958
G1 X86.188 Y68.863 E13.96299
G1 X86.638 Y68.538 E13.98133
G1 X86.963 Y68.100 E13.99958
G1 X87.075 Y67.750 E14.01153
G1 X87.838 Y67.188
G1 F1800.000 E9.51153
G92 E0
G1 X84.388 Y65.050 F3600.000
G1 F1800.000 E4.50000
G1 X73.125 Y63.975 F900.000 E4.87635
G1 X72.588 Y62.588 E4.92582
G1 X72.138 Y62.088 E4.94818
G1 X73.675 Y60.575 E5.02002
G1 X77.675 Y61.400 E5.15553
G1 X84.088 Y63.875 E5.38426
G1 X84.338 Y64.863 E5.41820
G1 X84.763 Y64.925
G1 X85.325 Y65.413 E5.44279
G1 X85.263 Y65.538 E5.44743
G1 X72.838 Y64.350 E5.86258
G1 X72.238 Y62.800 E5.91782
G1 X71.850 Y62.363 E5.93702
G1 X71.275 Y62.050 E5.95892
G1 X71.888 Y61.775 E5.98101
G1 X73.550 Y60.138 E6.05856
G1 X77.788 Y61.013 E6.20225
G1 X84.425 Y63.575 E6.43895
G1 X84.713 Y64.725 E6.47865
G1 X84.475 Y65.600
G1 F1800.000 E1.97865
G92 E0
G1 X69.463 Y61.975 F3600.000
G1 F1800.000 E4.50000
G1 X68.963 Y62.463 F900.000 E4.52318
G1 X68.388 Y63.688 E4.56823
G1 X62.300 Y64.788 E4.77362
G1 X61.213 Y64.325 E4.81295
G1 X60.538 Y64.250 E4.83560
G1 X60.650 Y63.800 E4.85091
G1 X60.225 Y61.775 E4.92002
G1 X59.463 Y59.500 E4.99981
G1 X57.050 Y58.975 E5.08193
G1 X23.588 Y62.450 E6.20085
G1 X23.100 Y57.125 E6.37866
G1 X59.650 Y53.813 E7.59941
G1 X95.325 Y43.588 E8.83376
G1 X96.800 Y48.700 E9.01059
G1 X68.813 Y56.738 E9.97905
G1 X68.225 Y57.150 E10.00283
G1 X67.813 Y57.738 E10.02661
G1 X67.613 Y58.425 E10.05039
G1 X67.650 Y59.113 E10.07332
G1 X67.763 Y59.488 E10.08656
G1 X69.000 Y61.638 E10.16907
G1 X69.300 Y61.863 E10.18159
G1 X69.300 Y61.363
G1 X69.875 Y61.788 E10.20530
G1 X70.400 Y61.963 E10.22354
G1 X69.713 Y62.300 E10.24905
G1 X69.300 Y62.700 E10.26821
G1 X68.650 Y64.050 E10.31772
G1 X62.263 Y65.200 E10.53385
G1 X61.113 Y64.725 E10.57525
G1 X60.488 Y64.650 E10.59629
G1 X59.775 Y64.800 E10.62041
G1 X60.150 Y64.138 E10.64594
G1 X60.250 Y63.788 E10.65760
G1 X59.838 Y61.875 E10.72274
G1 X59.150 Y59.838 E10.79419
G1 X57.025 Y59.375 E10.86664
G1 X23.225 Y62.888 E11.99691
G1 X22.663 Y56.763 E12.20150
G1 X59.575 Y53.413 E13.43431
G1 X95.600 Y43.100 E14.68069
G1 X97.288 Y48.975 E14.88413
G1 X68.988 Y57.100 E15.86364
G1 X68.513 Y57.438 E15.88291
G1 X68.175 Y57.913 E15.90218
G1 X68.013 Y58.463 E15.92145
G1 X68.038 Y59.038 E15.94044
G1 X68.138 Y59.325 E15.95054
G1 X69.200 Y61.188 E16.02213
G1 X69.125 Y62.063
G1 F1800.000 E11.52213
G92 E0
G1 X85.663 Y65.463 F3600.000
G1 F1800.000 E4.50000
G1 X85.950 Y65.463 F900.000 E4.50952
G1 X85.950 Y65.713 E4.51781
G1 X85.663 Y65.713 E4.52733
G1 X85.663 Y65.550 E4.53266
; perimeter_end
; infill_start
G1 F1800.000 E0.03266
G92 E0
G1 X87.813 Y67.338 F3600.000
G1 F1800.000 E4.50000
G1 X88.738 Y66.413 F1200.000 E4.54350
G1 X89.825 Y70.988 F3600.000
G1 X84.563 Y76.238 F1200.000 E4.79077
G1 X78.913 Y76.238 E4.97891
G1 X85.338 Y69.825 E5.28092
G1 X77.463 Y72.038 F3600.000
G1 X73.250 Y76.238 F1200.000 E5.47887
G1 X71.250 Y72.588 F3600.000
G1 X67.600 Y76.238 F1200.000 E5.65074
G1 X65.600 Y72.588 F3600.000
G1 X61.938 Y76.238 F1200.000 E5.82289
G1 X59.950 Y72.575 F3600.000
G1 X56.288 Y76.238 F1200.000 E5.99533
G1 X50.625 Y76.238 E6.18348
G1 X57.175 Y69.700 E6.49135
G1 X54.075 Y67.138 E6.62501
G1 X44.975 Y76.238 E7.05303
G1 X39.313 Y76.238 E7.24118
G1 X47.525 Y68.025 E7.62742
G1 X41.100 Y68.800 E7.84285
G1 X34.438 Y75.463 E8.15575
G1 X34.438 Y69.800 E8.34390
G1 X34.663 Y69.575 E8.35433
G1 F1800.000 E3.85433
G92 E0
G1 X74.125 Y63.763 F3600.000
G1 F1800.000 E4.50000
G1 X76.438 Y61.450 F1200.000 E4.60921
G1 X79.288 Y64.263 E4.74226
G1 X80.675 Y62.875 E4.80773
G1 F1800.000 E0.30773
G92 E0
G1 X81.100 Y52.900 F3600.000
G1 F1800.000 E4.50000
G1 X88.000 Y46.000 F1200.000 E4.82462
G1 X89.038 Y50.625 F3600.000
G1 X95.250 Y44.400 F1200.000 E5.11727
G1 X80.075 Y48.275 F3600.000
G1 X73.163 Y55.175 F1200.000 E5.44230
G1 X72.138 Y50.538 F3600.000
G1 X60.600 Y62.088 F1200.000 E5.98536
G1 F1800.000 E1.48536
G92 E0
G1 X58.125 Y58.900 F3600.000
G1 F1800.000 E4.50000
G1 X64.213 Y52.813 F1200.000 E4.78663
G1 X57.025 Y54.350 F3600.000
G1 X52.188 Y59.188 F1200.000 E5.01413
G1 X50.800 Y54.913 F3600.000
G1 X45.875 Y59.838 F1200.000 E5.24589
G1 X44.575 Y55.475 F3600.000
G1 X39.563 Y60.488 F1200.000 E5.48192
G1 X38.363 Y56.038 F3600.000
G1 X33.250 Y61.150 F1200.000 E5.72222
G1 X32.138 Y56.600 F3600.000
G1 X26.938 Y61.800 F1200.000 E5.96679
G1 X23.613 Y59.475 E6.10186
G1 X25.913 Y57.175 E6.21018
G1 F1800.000 E1.71018
G92 E0
G1 X64.200 Y64.138 F3600.000
G1 F1800.000 E4.50000
G1 X67.938 Y60.400 F1200.000 E4.67616
; infill_end
G1 F1800.000 E0.17616
G92 E0
; Layer: 7 Time: 64
G1 Z1.550 F3600.000
; Region: 0
; perimeter_start
G1 X87.538 Y67.600
G1 F1800.000 E4.50000
G1 X87.438 Y66.600 F900.000 E4.53373
G1 X87.175 Y66.113 E4.55177
G1 X90.125 Y66.125 E4.64972
G1 X90.125 Y76.537 E4.99621
G1 X34.150 Y76.537 E6.85803
G1 X34.150 Y69.338 E7.09742
G1 X53.775 Y66.975 E7.75523
G1 X56.575 Y65.100 E7.86728
G1 X58.100 Y65.700 E7.92170
G1 X58.438 Y65.700 E7.93302
G1 X58.288 Y66.100 E7.94715
G1 X58.238 Y66.588 E7.96369
G1 X58.450 Y67.225 E7.98604
G1 X57.963 Y67.563 E8.00609
G1 X57.638 Y67.988 E8.02350
G1 X57.475 Y68.488 E8.04107
G1 X57.463 Y70.488 E8.10779
G1 X57.675 Y71.125 E8.13007
G1 X58.063 Y71.675 E8.15241
G1 X58.613 Y72.075 E8.17476
G1 X59.250 Y72.275 E8.19709
G1 X75.438 Y72.300 E8.73547
G1 X86.363 Y69.225 E9.11304
G1 X86.925 Y68.825 E9.13584
G1 X87.325 Y68.275 E9.15836
G1 X87.475 Y67.800 E9.17528
G1 X87.138 Y67.563
G1 X87.050 Y66.713 E9.20356
G1 X86.775 Y66.213 E9.22261
G1 X86.238 Y65.713 E9.24671
G1 X90.525 Y65.725 E9.38901
G1 X90.525 Y76.938 E9.76210
G1 X33.750 Y76.938 E11.65053
G1 X33.750 Y68.988 E11.91502
G1 X53.638 Y66.588 E12.58144
G1 X56.525 Y64.650 E12.69729
G1 X58.175 Y65.300 E12.75601
G1 X58.800 Y65.288 E12.77687
G1 X59.063 Y65.188 E12.78617
G1 X59.150 Y65.313 E12.79111
G1 X58.900 Y65.600 E12.80370
G1 X58.688 Y66.188 E12.82463
G1 X58.638 Y66.550 E12.83650
G1 X58.925 Y67.375 E12.86591
G1 X58.238 Y67.863 E12.89394
G1 X58.000 Y68.175 E12.90709
G1 X57.875 Y68.550 E12.92028
G1 X57.875 Y70.425 E12.98272
G1 X58.038 Y70.950 E13.00081
G1 X58.350 Y71.388 E13.01892
G1 X58.788 Y71.713 E13.03704
G1 X59.313 Y71.875 E13.05515
G1 X75.375 Y71.900 E13.58958
G1 X86.188 Y68.863 E13.96299
G1 X86.638 Y68.538 E13.98133
G1 X86.963 Y68.100 E13.99958
G1 X87.075 Y67.750 E14.01153
G1 X87.838 Y67.188
G1 F1800.000 E9.51153
G92 E0
G1 X84.388 Y65.050 F3600.000
G1 F1800.000 E4.50000
G1 X73.125 Y63.975 F900.000 E4.87635
G1 X72.588 Y62.588 E4.92582
G1 X72.138 Y62.088 E4.94818
G1 X73.675 Y60.575 E5.02002
G1 X77.675 Y61.400 E5.15553
G1 X84.088 Y63.875 E5.38426
G1 X84.338 Y64.863 E5.41820
G1 X84.763 Y64.925
G1 X85.325 Y65.413 E5.44279
G1 X85.263 Y65.538 E5.44743
G1 X72.838 Y64.350 E5.86258
G1 X72.238 Y62.800 E5.91782
G1 X71.850 Y62.363 E5.93702
G1 X71.275 Y62.050 E5.95892
G1 X71.888 Y61.775 E5.98101
G1 X73.550 Y60.138 E6.05856
G1 X77.788 Y61.013 E6.20225
G1 X84.425 Y63.575 E6.43895
G1 X84.713 Y64.725 E6.47865
G1 X84.475 Y65.600
G1 F1800.000 E1.97865
G92 E0
G1 X69.463 Y61.975 F3600.000
G1 F1800.000 E4.50000
G1 X68.963 Y62.463 F900.000 E4.52318
G1 X68.388 Y63.688 E4.56823
G1 X62.300 Y64.788 E4.77362
G1 X61.213 Y64.325 E4.81295
G1 X60.538 Y64.250 E4.83560
G1 X60.650 Y63.800 E4.85091
G1 X60.225 Y61.775 E4.92002
G1 X59.463 Y59.500 E4.99981
G1 X57.050 Y58.975 E5.08193
G1 X23.588 Y62.450 E6.20085
G1 X23.100 Y57.125 E6.37866
G1 X59.650 Y53.813 E7.59941
G1 X95.325 Y43.588 E8.83376
G1 X96.800 Y48.700 E9.01059
G1 X68.813 Y56.738 E9.97905
G1 X68.225 Y57.150 E10.00283
G1 X67.813 Y57.738 E10.02661
G1 X67.613 Y58.425 E10.05039
G1 X67.650 Y59.113 E10.07332
G1 X67.763 Y59.488 E10.08656
G1 X69.000 Y61.638 E10.16907
G1 X69.300 Y61.863 E10.18159
G1 X69.300 Y61.363
G1 X69.875 Y61.788 E10.20530
G1 X70.400 Y61.963 E10.22354
G1 X69.713 Y62.300 E10.24905
G1 X69.300 Y62.700 E10.26821
G1 X68.650 Y64.050 E10.31772
G1 X62.263 Y65.200 E10.53385
G1 X61.113 Y64.725 E10.57525
G1 X60.488 Y64.650 E10.59629
G1 X59.775 Y64.800 E10.62041
G1 X60.150 Y64.138 E10.64594
G1 X60.250 Y63.788 E10.65760
G1 X59.838 Y61.875 E10.72274
G1 X59.150 Y59.838 E10.79419
G1 X57.025 Y59.375 E10.86664
G1 X23.225 Y62.888 E11.99691
G1 X22.663 Y56.763 E12.20150
G1 X59.575 Y53.413 E13.43431
G1 X95.600 Y43.100 E14.68069
G1 X97.288 Y48.975 E14.88413
G1 X68.988 Y57.100 E15.86364
G1 X68.513 Y57.438 E15.88291
G1 X68.175 Y57.913 E15.90218
G1 X68.013 Y58.463 E15.92145
G1 X68.038 Y59.038 E15.94044
G1 X68.138 Y59.325 E15.95054
G1 X69.200 Y61.188 E16.02213
G1 X69.125 Y62.063
G1 F1800.000 E11.52213
G92 E0
G1 X85.663 Y65.463 F3600.000
G1 F1800.000 E4.50000
G1 X85.950 Y65.463 F900.000 E4.50952
G1 X85.950 Y65.713 E4.51781
G1 X85.663 Y65.713 E4.52733
G1 X85.663 Y65.550 E4.53266
; perimeter_end
; infill_start
G1 X79.225 Y64.263 F3600.000
G1 X76.413 Y61.438 F1200.000 E4.66527
G1 F1800.000 E0.16527
G92 E0
G1 X80.025 Y71.313 F3600.000
G1 F1800.000 E4.50000
G1 X84.950 Y76.238 F1200.000 E4.73183
G1 X89.825 Y75.463 E4.89595
G1 X84.438 Y70.075 E5.14923
G1 X87.800 Y67.775 F3600.000
G1 X89.825 Y69.800 F1200.000 E5.24456
G1 X79.300 Y76.238 F3600.000
G1 X75.613 Y72.550 F1200.000 E5.41800
G1 X73.638 Y76.238 F3600.000
G1 X69.988 Y72.588 F1200.000 E5.58993
G1 X67.988 Y76.238 F3600.000
G1 X64.325 Y72.575 F1200.000 E5.76215
G1 X62.325 Y76.238 F3600.000
G1 X58.288 Y72.200 F1200.000 E5.95209
G1 X57.550 Y71.463 F3600.000
G1 X53.413 Y67.325 F1200.000 E6.14688
G1 X57.550 Y65.800 E6.29354
G1 X57.975 Y66.238 E6.31367
G1 X56.675 Y76.238 F3600.000
G1 X48.363 Y67.925 F1200.000 E6.70463
G1 X43.313 Y68.538 E6.87378
G1 X51.013 Y76.238 E7.23615
G1 X45.350 Y76.238 E7.42430
G1 X38.263 Y69.150 E7.75810
G1 X34.438 Y70.988 E7.89903
G1 X39.700 Y76.238 E8.14630
G1 F1800.000 E3.64630
G92 E0
G1 X38.863 Y60.563 F3600.000
G1 F1800.000 E4.50000
G1 X34.675 Y56.375 F1200.000 E4.69713
G1 X33.738 Y61.100 F3600.000
G1 X29.488 Y56.850 F1200.000 E4.89714
G1 X24.300 Y57.313 E5.07034
G1 X28.613 Y61.625 E5.27325
G1 X39.863 Y55.900 F3600.000
G1 X43.988 Y60.038 F1200.000 E5.46748
G1 X45.050 Y55.438 F3600.000
G1 X49.113 Y59.500 F1200.000 E5.65884
G1 X50.238 Y54.963 F3600.000
G1 X54.238 Y58.975 F1200.000 E5.84730
G1 X55.413 Y54.488 F3600.000
G1 X64.938 Y64.013 F1200.000 E6.29499
G1 X68.800 Y62.213 E6.43664
G1 X60.463 Y53.888 E6.82849
G1 X64.863 Y52.625 E6.98063
G1 X68.700 Y56.463 E7.16106
G1 X73.100 Y55.200 E7.31314
G1 X69.263 Y51.363 E7.49345
G1 X73.663 Y50.100 E7.64559
G1 X77.488 Y53.938 E7.82577
G1 X81.888 Y52.675 E7.97785
G1 X78.063 Y48.850 E8.15790
G1 X82.450 Y47.588 E8.31004
G1 X86.275 Y51.413 E8.48997
G1 X90.675 Y50.150 E8.64205
G1 X86.850 Y46.325 E8.82185
G1 X91.250 Y45.063 E8.97399
G1 X95.075 Y48.888 E9.15366
; infill_end
G1 F1800.000 E4.65366
G92 E0
; Layer: 8 Time: 64
G1 Z1.750 F3600.000
; Region: 0
; perimeter_start
G1 X87.538 Y67.600
G1 F1800.000 E4.50000
G1 X87.438 Y66.600 F900.000 E4.53373
G1 X87.175 Y66.113 E4.55177
G1 X90.125 Y66.125 E4.64972
G1 X90.125 Y76.537 E4.99621
G1 X34.150 Y76.537 E6.85803
G1 X34.150 Y69.338 E7.09742
G1 X53.775 Y66.975 E7.75523
G1 X56.575 Y65.100 E7.86728
G1 X58.100 Y65.700 E7.92170
G1 X58.438 Y65.700 E7.93302
G1 X58.288 Y66.100 E7.94715
G1 X58.238 Y66.588 E7.96369
G1 X58.450 Y67.225 E7.98604
G1 X57.963 Y67.563 E8.00609
G1 X57.638 Y67.988 E8.02350
G1 X57.475 Y68.488 E8.04107
G1 X57.463 Y70.488 E8.10779
G1 X57.675 Y71.125 E8.13007
G1 X58.063 Y71.675 E8.15241
G1 X58.613 Y72.075 E8.17476
G1 X59.250 Y72.275 E8.19709
G1 X75.438 Y72.300 E8.73547
G1 X86.363 Y69.225 E9.11304
G1 X86.925 Y68.825 E9.13584
G1 X87.325 Y68.275 E9.15836
G1 X87.475 Y67.800 E9.17528
G1 X87.138 Y67.563
G1 X87.050 Y66.713 E9.20356
G1 X86.775 Y66.213 E9.22261
G1 X86.238 Y65.713 E9.24671
G1 X90.525 Y65.725 E9.38901
G1 X90.525 Y76.938 E9.76210
G1 X33.750 Y76.938 E11.65053
G1 X33.750 Y68.988 E11.91502
G1 X53.638 Y66.588 E12.58144
G1 X56.525 Y64.650 E12.69729
G1 X58.175 Y65.300 E12.75601
G1 X58.800 Y65.288 E12.77687
G1 X59.063 Y65.188 E12.78617
G1 X59.150 Y65.313 E12.79111
G1 X58.900 Y65.600 E12.80370
G1 X58.688 Y66.188 E12.82463
G1 X58.638 Y66.550 E12.83650
G1 X58.925 Y67.375 E12.86591
G1 X58.238 Y67.863 E12.89394
G1 X58.000 Y68.175 E12.90709
G1 X57.875 Y68.550 E12.92028
G1 X57.875 Y70.425 E12.98272
G1 X58.038 Y70.950 E13.00081
G1 X58.350 Y71.388 E13.01892
G1 X58.788 Y71.713 E13.03704
G1 X59.313 Y71.875 E13.05515
G1 X75.375 Y71.900 E13.58958
G1 X86.188 Y68.863 E13.96299
G1 X86.638 Y68.538 E13.98133
G1 X86.963 Y68.100 E13.99958
G1 X87.075 Y67.750 E14.01153
G1 X87.838 Y67.188
G1 F1800.000 E9.51153
G92 E0
G1 X84.388 Y65.050 F3600.000
G1 F1800.000 E4.50000
G1 X73.125 Y63.975 F900.000 E4.87635
G1 X72.588 Y62.588 E4.92582
G1 X72.138 Y62.088 E4.94818
G1 X73.675 Y60.575 E5.02002
G1 X77.675 Y61.400 E5.15553
G1 X84.088 Y63.875 E5.38426
G1 X84.338 Y64.863 E5.41820
G1 X84.763 Y64.925
G1 X85.325 Y65.413 E5.44279
G1 X85.263 Y65.538 E5.44743
G1 X72.838 Y64.350 E5.86258
G1 X72.238 Y62.800 E5.91782
G1 X71.850 Y62.363 E5.93702
G1 X71.275 Y62.050 E5.95892
G1 X71.888 Y61.775 E5.98101
G1 X73.550 Y60.138 E6.05856
G1 X77.788 Y61.013 E6.20225
G1 X84.425 Y63.575 E6.43895
G1 X84.713 Y64.725 E6.47865
G1 X84.475 Y65.600
G1 F1800.000 E1.97865
G92 E0
G1 X69.463 Y61.975 F3600.000
G1 F1800.000 E4.50000
G1 X68.963 Y62.463 F900.000 E4.52318
G1 X68.388 Y63.688 E4.56823
G1 X62.300 Y64.788 E4.77362
G1 X61.213 Y64.325 E4.81295
G1 X60.538 Y64.250 E4.83560
G1 X60.650 Y63.800 E4.85091
G1 X60.225 Y61.775 E4.92002
G1 X59.463 Y59.500 E4.99981
G1 X57.050 Y58.975 E5.08193
G1 X23.588 Y62.450 E6.20085
G1 X23.100 Y57.125 E6.37866
G1 X59.650 Y53.813 E7.59941
G1 X95.325 Y43.588 E8.83376
G1 X96.800 Y48.700 E9.01059
G1 X68.813 Y56.738 E9.97905
G1 X68.225 Y57.150 E10.00283
G1 X67.813 Y57.738 E10.02661
G1 X67.613 Y58.425 E10.05039
G1 X67.650 Y59.113 E10.07332
G1 X67.763 Y59.488 E10.08656
G1 X69.000 Y61.638 E10.16907
G1 X69.300 Y61.863 E10.18159
G1 X69.300 Y61.363
G1 X69.875 Y61.788 E10.20530
G1 X70.400 Y61.963 E10.22354
G1 X69.713 Y62.300 E10.24905
G1 X69.300 Y62.700 E10.26821
G1 X68.650 Y64.050 E10.31772
G1 X62.263 Y65.200 E10.53385
G1 X61.113 Y64.725 E10.57525
G1 X60.488 Y64.650 E10.59629
G1 X59.775 Y64.800 E10.62041
G1 X60.150 Y64.138 E10.64594
G1 X60.250 Y63.788 E10.65760
G1 X59.838 Y61.875 E10.72274
G1 X59.150 Y59.838 E10.79419
G1 X57.025 Y59.375 E10.86664
G1 X23.225 Y62.888 E11.99691
G1 X22.663 Y56.763 E12.20150
G1 X59.575 Y53.413 E13.43431
G1 X95.600 Y43.100 E14.68069
G1 X97.288 Y48.975 E14.88413
G1 X68.988 Y57.100 E15.86364
G1 X68.513 Y57.438 E15.88291
G1 X68.175 Y57.913 E15.90218
G1 X68.013 Y58.463 E15.92145
G1 X68.038 Y59.038 E15.94044
G1 X68.138 Y59.325 E15.95054
G1 X69.200 Y61.188 E16.02213
G1 X69.125 Y62.063
G1 F1800.000 E11.52213
G92 E0
G1 X85.663 Y65.463 F3600.000
G1 F1800.000 E4.50000
G1 X85.950 Y65.463 F900.000 E4.50952
G1 X85.950 Y65.713 E4.51781
G1 X85.663 Y65.713 E4.52733
G1 X85.663 Y65.550 E4.53266
; perimeter_end
; infill_start
G1 F1800.000 E0.03266
G92 E0
G1 X87.813 Y67.338 F3600.000
G1 F1800.000 E4.50000
G1 X88.738 Y66.413 F1200.000 E4.54350
G1 X89.825 Y70.988 F3600.000
G1 X84.563 Y76.238 F1200.000 E4.79077
G1 X78.913 Y76.238 E4.97891
G1 X85.338 Y69.825 E5.28092
G1 X77.463 Y72.038 F3600.000
G1 X73.250 Y76.238 F1200.000 E5.47887
G1 X71.250 Y72.588 F3600.000
G1 X67.600 Y76.238 F1200.000 E5.65074
G1 X65.600 Y72.588 F3600.000
G1 X61.938 Y76.238 F1200.000 E5.82289
G1 X59.950 Y72.575 F3600.000
G1 X56.288 Y76.238 F1200.000 E5.99533
G1 X50.625 Y76.238 E6.18348
G1 X57.175 Y69.700 E6.49135
G1 X54.075 Y67.138 E6.62501
G1 X44.975 Y76.238 E7.05303
G1 X39.313 Y76.238 E7.24118
G1 X47.525 Y68.025 E7.62742
G1 X41.100 Y68.800 E7.84285
G1 X34.438 Y75.463 E8.15575
G1 X34.438 Y69.800 E8.34390
G1 X34.663 Y69.575 E8.35433
G1 F1800.000 E3.85433
G92 E0
G1 X74.125 Y63.763 F3600.000
G1 F1800.000 E4.50000
G1 X76.438 Y61.450 F1200.000 E4.60921
G1 X79.288 Y64.263 E4.74226
G1 X80.675 Y62.875 E4.80773
G1 F1800.000 E0.30773
G92 E0
G1 X81.100 Y52.900 F3600.000
G1 F1800.000 E4.50000
G1 X88.000 Y46.000 F1200.000 E4.82462
G1 X89.038 Y50.625 F3600.000
G1 X95.250 Y44.400 F1200.000 E5.11727
G1 X80.075 Y48.275 F3600.000
G1 X73.163 Y55.175 F1200.000 E5.44230
G1 X72.138 Y50.538 F3600.000
G1 X60.600 Y62.088 F1200.000 E5.98536
G1 F1800.000 E1.48536
G92 E0
G1 X58.125 Y58.900 F3600.000
G1 F1800.000 E4.50000
G1 X64.213 Y52.813 F1200.000 E4.78663
G1 X57.025 Y54.350 F3600.000
G1 X52.188 Y59.188 F1200.000 E5.01413
G1 X50.800 Y54.913 F3600.000
G1 X45.875 Y59.838 F1200.000 E5.24589
G1 X44.575 Y55.475 F3600.000
G1 X39.563 Y60.488 F1200.000 E5.48192
G1 X38.363 Y56.038 F3600.000
G1 X33.250 Y61.150 F1200.000 E5.72222
G1 X32.138 Y56.600 F3600.000
G1 X26.938 Y61.800 F1200.000 E5.96679
G1 X23.613 Y59.475 E6.10186
G1 X25.913 Y57.175 E6.21018
G1 F1800.000 E1.71018
G92 E0
G1 X64.200 Y64.138 F3600.000
G1 F1800.000 E4.50000
G1 X67.938 Y60.400 F1200.000 E4.67616
; infill_end
G1 F1800.000 E0.17616
G92 E0
; Layer: 9 Time: 64
G1 Z1.950 F3600.000
; Region: 0
; perimeter_start
G1 X87.538 Y67.600
G1 F1800.000 E4.50000
G1 X87.438 Y66.600 F900.000 E4.53373
G1 X87.175 Y66.113 E4.55177
G1 X90.125 Y66.125 E4.64972
G1 X90.125 Y76.537 E4.99621
G1 X34.150 Y76.537 E6.85803
G1 X34.150 Y69.338 E7.09742
G1 X53.775 Y66.975 E7.75523
G1 X56.575 Y65.100 E7.86728
G1 X58.100 Y65.700 E7.92170
G1 X58.438 Y65.700 E7.93302
G1 X58.288 Y66.100 E7.94715
G1 X58.238 Y66.588 E7.96369
G1 X58.450 Y67.225 E7.98604
G1 X57.963 Y67.563 E8.00609
G1 X57.638 Y67.988 E8.02350
G1 X57.475 Y68.488 E8.04107
G1 X57.463 Y70.488 E8.10779
G1 X57.675 Y71.125 E8.13007
G1 X58.063 Y71.675 E8.15241
G1 X58.613 Y72.075 E8.17476
G1 X59.250 Y72.275 E8.19709
G1 X75.438 Y72.300 E8.73547
G1 X86.363 Y69.225 E9.11304
G1 X86.925 Y68.825 E9.13584
G1 X87.325 Y68.275 E9.15836
G1 X87.475 Y67.800 E9.17528
G1 X87.138 Y67.563
G1 X87.050 Y66.713 E9.20356
G1 X86.775 Y66.213 E9.22261
G1 X86.238 Y65.713 E9.24671
G1 X90.525 Y65.725 E9.38901
G1 X90.525 Y76.938 E9.76210
G1 X33.750 Y76.938 E11.65053
G1 X33.750 Y68.988 E11.91502
G1 X53.638 Y66.588 E12.58144
G1 X56.525 Y64.650 E12.69729
G1 X58.175 Y65.300 E12.75601
G1 X58.800 Y65.288 E12.77687
G1 X59.063 Y65.188 E12.78617
G1 X59.150 Y65.313 E12.79111
G1 X58.900 Y65.600 E12.80370
G1 X58.688 Y66.188 E12.82463
G1 X58.638 Y66.550 E12.83650
G1 X58.925 Y67.375 E12.86591
G1 X58.238 Y67.863 E12.89394
G1 X58.000 Y68.175 E12.90709
G1 X57.875 Y68.550 E12.92028
G1 X57.875 Y70.425 E12.98272
G1 X58.038 Y70.950 E13.00081
G1 X58.350 Y71.388 E13.01892
G1 X58.788 Y71.713 E13.03704
G1 X59.313 Y71.875 E13.05515
G1 X75.375 Y71.900 E13.58958
G1 X86.188 Y68.863 E13.96299
G1 X86.638 Y68.538 E13.98133
G1 X86.963 Y68.100 E13.99958
G1 X87.075 Y67.750 E14.01153
G1 X87.838 Y67.188
G1 F1800.000 E9.51153
G92 E0
G1 X84.388 Y65.050 F3600.000
G1 F1800.000 E4.50000
G1 X73.125 Y63.975 F900.000 E4.87635
G1 X72.588 Y62.588 E4.92582
G1 X72.138 Y62.088 E4.94818
G1 X73.675 Y60.575 E5.02002
G1 X77.675 Y61.400 E5.15553
G1 X84.088 Y63.875 E5.38426
G1 X84.338 Y64.863 E5.41820
G1 X84.763 Y64.925
G1 X85.325 Y65.413 E5.44279
G1 X85.263 Y65.538 E5.44743
G1 X72.838 Y64.350 E5.86258
G1 X72.238 Y62.800 E5.91782
G1 X71.850 Y62.363 E5.93702
G1 X71.275 Y62.050 E5.95892
G1 X71.888 Y61.775 E5.98101
G1 X73.550 Y60.138 E6.05856
G1 X77.788 Y61.013 E6.20225
G1 X84.425 Y63.575 E6.43895
G1 X84.713 Y64.725 E6.47865
G1 X84.475 Y65.600
G1 F1800.000 E1.97865
G92 E0
G1 X69.463 Y61.975 F3600.000
G1 F1800.000 E4.50000
G1 X68.963 Y62.463 F900.000 E4.52318
G1 X68.388 Y63.688 E4.56823
G1 X62.300 Y64.788 E4.77362
G1 X61.213 Y64.325 E4.81295
G1 X60.538 Y64.250 E4.83560
G1 X60.650 Y63.800 E4.85091
G1 X60.225 Y61.775 E4.92002
G1 X59.463 Y59.500 E4.99981
G1 X57.050 Y58.975 E5.08193
G1 X23.588 Y62.450 E6.20085
G1 X23.100 Y57.125 E6.37866
G1 X59.650 Y53.813 E7.59941
G1 X95.325 Y43.588 E8.83376
G1 X96.800 Y48.700 E9.01059
G1 X68.813 Y56.738 E9.97905
G1 X68.225 Y57.150 E10.00283
G1 X67.813 Y57.738 E10.02661
G1 X67.613 Y58.425 E10.05039
G1 X67.650 Y59.113 E10.07332
G1 X67.763 Y59.488 E10.08656
G1 X69.000 Y61.638 E10.16907
G1 X69.300 Y61.863 E10.18159
G1 X69.300 Y61.363
G1 X69.875 Y61.788 E10.20530
G1 X70.400 Y61.963 E10.22354
G1 X69.713 Y62.300 E10.24905
G1 X69.300 Y62.700 E10.26821
