; filename = 1.3w
; print_time = 9384
; machine = dv1NW0A000
; facets = 6090
; total_layers = 31
; version = 20100610
; total_filament = 5123.92
; nozzle_diameter = 0.40
; nozzle_type = 57
; first_layer_height = 0.35
; layer_height = 0.20
; avoid_crossing_perimeters = 0
; bridge_detect = 0
; bridge_flow_ratio = 0.90
; support_material = 0
; extruder_filament = 5123.92:0.00
; extruder = 1
; temperature = 210
; bed_temperature = 0
; non_double_speed = 1
; preheating_time = 0,0,0
; filamentid = 50,50
; materialid = 0
; fill_density = 0.10
; infill_expand = 0.000
; raft_layers = 0
; shells = 2
; speed = 20.000
; brim_width = 0.000
; dimension = 104.15:72.21:6.35
; original_dimension = 104.15:72.21:6.35
; boundingbox_x1 = 7.92
; boundingbox_y1 = 23.90
; boundingbox_x2 = 112.08
; boundingbox_y2 = 96.10
; resolution = 0.0400
; top_solid_layers = 5
; bottom_solid_layers = 3
; fill_pattern = rectilinear
; perimeter_speed = 15.000
; external_perimeter_speed = 15.000
; small_perimeter_speed = 15.000
; top_solid_infill_speed = 20.000
; solid_infill_speed = 20.000
; bridge_speed = 10.000
; travel_speed = 60.000
; retract_speed = 30
; retract_length = 4.500
; retract_before_travel = 2.000
; retract_lift = 0.000
; retract_restart_extra = 0.000
; retract_layer_change = 1
; only_retract_when_crossing_perimeters = 1
; first_layer_speed = 10.000
; extrusion_multiplier_perimeter = 1.000
; extrusion_multiplier_infill = 1.000
; extrusion_multiplier_gapfill = 1.000
; extrusion_multiplier_solid_infill = 1.000
; extrusion_multiplier_top_infill = 1.000
; Call_From_APP = XYZprint V2.0.5_2A14512
; speed_limit_open = 0

; infill_type = 0
; Seam_Corner_Preference = 0
G21 ; set units to millimeters
M107
M104 S210 ; set temperature
M109 S210 ; wait for temperature to be reached
M191
G90 ; use absolute coordinates
G92 E0
M82 ; use absolute distances for extrusion
G1 F1800.000 E-4.50000
G92 E0
; Layer: 1 Time: 633
G1 Z0.350 F3600.000
; skirt start
G1 X3.000 Y1.000
G1 F1800.000 E4.50000
G1 X5.000 Y1.000 F600.000 E4.96245
G1 X5.000 Y101.000 E28.08519
G1 X3.000 Y101.000 E28.54765
G1 X3.000 Y1.788 E51.48667
; skirt end
; Region: 0
; perimeter_start
G1 F1800.000 E46.98667
G92 E0
G1 X17.363 Y46.825 F3600.000
G1 F1800.000 E4.50000
G1 X17.675 Y46.463 F600.000 E4.54485
G1 X18.388 Y46.163 E4.61649
G1 X19.525 Y46.163 E4.72107
G1 X19.525 Y29.288 E6.28149
G1 X100.463 Y29.288 E13.76799
G1 X100.463 Y46.150 E15.32797
G1 X101.400 Y46.150 E15.41412
G1 X102.075 Y46.313 E15.47883
G1 X102.675 Y46.825 E15.55181
G1 X102.988 Y46.463 E15.59658
G1 X103.713 Y46.163 E15.66832
G1 X107.950 Y46.150 E16.06006
G1 X107.950 Y58.063 E17.16161
G1 X103.913 Y58.063 E17.53501
G1 X103.225 Y57.900 E17.59978
G1 X102.625 Y57.388 E17.67270
G1 X102.313 Y57.750 E17.71755
G1 X101.600 Y58.050 E17.78920
G1 X100.463 Y58.050 E17.89377
G1 X100.463 Y71.388 E19.12741
G1 X101.400 Y71.388 E19.21349
G1 X102.075 Y71.550 E19.27776
G1 X102.675 Y72.063 E19.35123
G1 X102.988 Y71.700 E19.39594
G1 X103.713 Y71.400 E19.46768
G1 X107.950 Y71.388 E19.85954
G1 X107.950 Y83.300 E20.96108
G1 X103.913 Y83.300 E21.33441
G1 X103.225 Y83.138 E21.39875
G1 X102.625 Y82.625 E21.47215
G1 X102.313 Y82.988 E21.51694
G1 X101.600 Y83.288 E21.58859
G1 X100.463 Y83.300 E21.69317
G1 X100.463 Y90.700 E22.37806
G1 X19.525 Y90.700 E29.86456
G1 X19.525 Y83.300 E30.54902
G1 X18.588 Y83.300 E30.63516
G1 X17.913 Y83.138 E30.69987
G1 X17.313 Y82.625 E30.77285
G1 X17.000 Y82.988 E30.81762
G1 X16.275 Y83.288 E30.88936
G1 X12.038 Y83.300 E31.28110
G1 X12.038 Y71.388 E32.38264
G1 X16.075 Y71.388 E32.75616
G1 X16.763 Y71.563 E32.82093
G1 X17.363 Y72.075 E32.89385
G1 X17.675 Y71.700 E32.93870
G1 X18.388 Y71.400 E33.01034
G1 X19.525 Y71.400 E33.11492
G1 X19.525 Y58.063 E34.34856
G1 X18.588 Y58.063 E34.43471
G1 X17.913 Y57.900 E34.49941
G1 X17.313 Y57.388 E34.57239
G1 X17.000 Y57.750 E34.61716
G1 X16.275 Y58.050 E34.68890
G1 X12.038 Y58.063 E35.08065
G1 X12.038 Y46.150 E36.18219
G1 X16.075 Y46.150 E36.55559
G1 X16.763 Y46.313 E36.62036
G1 X17.125 Y46.625 E36.66389
G1 F1800.000 E32.16389
G92 E0
G1 X102.938 Y47.838 F3600.000
G1 F1800.000 E4.50000
G1 X103.050 Y47.375 F600.000 E4.54372
G1 X103.375 Y46.988 E4.59100
G1 X103.838 Y46.800 E4.63702
G1 X107.313 Y46.788 E4.95820
G1 X107.313 Y57.425 E5.94198
G1 X103.988 Y57.425 E6.24964
G1 X103.525 Y57.313 E6.29334
G1 X103.138 Y56.988 E6.34062
G1 X102.938 Y56.525 E6.38667
G1 X102.938 Y48.150 E7.16055
G1 X102.563 Y47.538
G1 X103.838 Y72.038 F3600.000
G1 X107.313 Y72.025 F600.000 E7.48184
G1 X107.313 Y82.663 E8.46562
G1 X103.988 Y82.663 E8.77325
G1 X103.525 Y82.550 E8.81661
G1 X103.138 Y82.225 E8.86420
G1 X102.938 Y81.763 E8.91030
G1 X102.938 Y73.075 E9.71358
G1 X103.050 Y72.613 E9.75729
G1 X103.375 Y72.225 E9.80457
G1 X103.538 Y72.163 E9.82120
G1 X104.325 Y70.863
G1 F1800.000 E5.32120
G92 E0
G1 X17.050 Y72.938 F3600.000
G1 F1800.000 E4.50000
G1 X17.050 Y81.613 F600.000 E5.30328
G1 X16.938 Y82.075 E5.34700
G1 X16.613 Y82.463 E5.39428
G1 X16.150 Y82.650 E5.44030
G1 X12.675 Y82.663 E5.76147
G1 X12.675 Y72.025 E6.74526
G1 X16.000 Y72.025 E7.05302
G1 X16.463 Y72.138 E7.09672
G1 X16.850 Y72.475 E7.14400
G1 X16.925 Y72.638 E7.16066
G1 X18.213 Y73.413
G1 F1800.000 E2.66066
G92 E0
G1 X16.150 Y57.413 F3600.000
G1 F1800.000 E4.50000
G1 X12.675 Y57.425 F600.000 E4.82118
G1 X12.675 Y46.788 E5.80496
G1 X16.000 Y46.788 E6.11262
G1 X16.463 Y46.900 E6.15632
G1 X16.850 Y47.238 E6.20360
G1 X17.050 Y47.688 E6.24965
G1 X17.050 Y56.375 E7.05293
G1 X16.938 Y56.838 E7.09665
G1 X16.613 Y57.225 E7.14392
G1 X16.450 Y57.288 E7.16055
G1 X15.663 Y58.588
G1 X17.825 Y56.988 F3600.000
G1 X17.625 Y56.525 F600.000 E7.20697
G1 X17.638 Y52.425 E7.58588
G1 X17.950 Y52.088 E7.62869
G1 X17.638 Y51.738 E7.67212
G1 X17.613 Y47.838 E8.03301
G1 X17.725 Y47.375 E8.07678
G1 X18.063 Y46.988 E8.12405
G1 X18.525 Y46.800 E8.17005
G1 X20.163 Y46.788 E8.32158
G1 X20.163 Y29.925 E9.88170
G1 X99.825 Y29.925 E17.25063
G1 X99.825 Y46.788 E18.81061
G1 X101.325 Y46.788 E18.94859
G1 X101.775 Y46.900 E18.99227
G1 X102.163 Y47.225 E19.03920
G1 X102.363 Y47.688 E19.08569
G1 X102.325 Y51.825 E19.46742
G1 X102.013 Y52.063 E19.50436
G1 X102.350 Y52.425 E19.54970
G1 X102.375 Y56.375 E19.91509
G1 X102.263 Y56.838 E19.95886
G1 X101.925 Y57.225 E20.00614
G1 X101.463 Y57.413 E20.05213
G1 X99.825 Y57.425 E20.20366
G1 X99.825 Y72.025 E21.55458
G1 X101.325 Y72.025 E21.69254
G1 X101.775 Y72.138 E21.73587
G1 X102.163 Y72.463 E21.78312
G1 X102.363 Y72.938 E21.82966
G1 X102.325 Y77.063 E22.21138
G1 X102.013 Y77.313 E22.24832
G1 X102.350 Y77.663 E22.29367
G1 X102.375 Y81.613 E22.65905
G1 X102.263 Y82.075 E22.70282
G1 X101.925 Y82.463 E22.75010
G1 X101.463 Y82.650 E22.79609
G1 X99.825 Y82.663 E22.94763
G1 X99.825 Y90.063 E23.63222
G1 X20.163 Y90.063 E31.00115
G1 X20.163 Y82.663 E31.68560
G1 X18.663 Y82.663 E31.82358
G1 X18.213 Y82.550 E31.86726
G1 X17.825 Y82.225 E31.91419
G1 X17.625 Y81.763 E31.96061
G1 X17.638 Y77.663 E32.33952
G1 X17.913 Y77.375 E32.37652
G1 X17.638 Y76.950 E32.42304
G1 X17.613 Y73.075 E32.78124
G1 X17.725 Y72.613 E32.82501
G1 X18.063 Y72.225 E32.87229
G1 X18.525 Y72.038 E32.91828
G1 X20.163 Y72.025 E33.06981
G1 X20.163 Y57.425 E34.42073
G1 X18.663 Y57.425 E34.55871
G1 X18.213 Y57.313 E34.60239
G1 X18.063 Y57.188 E34.61992
G1 F1800.000 E30.11992
G92 E0
G1 X56.588 Y46.138 F3600.000
G1 F1800.000 E4.50000
G1 X56.600 Y42.625 F600.000 E4.82513
G1 X56.775 Y41.738 E4.90870
G1 X57.038 Y41.300 E4.95527
G1 X57.450 Y40.950 E5.00530
G1 X58.100 Y40.675 E5.07086
G1 X58.975 Y40.638 E5.15178
G1 X59.763 Y40.950 E5.23100
G1 X60.175 Y41.338 E5.28329
G1 X60.438 Y41.875 E5.33878
G1 X60.863 Y41.500 E5.39106
G1 X63.575 Y39.850 E5.68535
G1 X63.575 Y41.625 E5.84937
G1 X62.088 Y42.500 E6.00918
G1 X61.000 Y43.250 E6.13167
G1 X60.763 Y43.625 E6.17341
G1 X60.738 Y44.600 E6.26376
G1 X63.575 Y44.600 E6.52666
G1 X63.575 Y46.138 E6.66828
G1 X56.913 Y46.138 E7.28511
G1 X55.325 Y46.138
G1 X56.588 Y46.888 F3600.000
G1 X63.575 Y46.888 F600.000 E7.93121
G1 X63.575 Y48.413 E8.07283
G1 X60.813 Y48.413 E8.32867
G1 X60.775 Y48.675 E8.35288
G1 X63.575 Y49.563 E8.62501
G1 X63.575 Y50.963 E8.75474
G1 X60.788 Y51.838 E9.02501
G1 X60.825 Y52.100 E9.04924
G1 X63.575 Y52.100 E9.30346
G1 X63.575 Y53.625 E9.44508
G1 X61.100 Y53.625 E9.67426
G1 X61.050 Y53.875 E9.69759
G1 X62.275 Y54.363 E9.81965
G1 X62.950 Y54.900 E9.89979
G1 X63.413 Y55.625 E9.97886
G1 X63.650 Y56.525 E10.06525
G1 X63.638 Y57.425 E10.14791
G1 X63.388 Y58.338 E10.23562
G1 X62.938 Y59.038 E10.31277
G1 X62.150 Y59.650 E10.40501
G1 X61.538 Y59.900 E10.46585
G1 X60.888 Y60.063 E10.52772
G1 X60.038 Y60.138 E10.60645
G1 X59.388 Y60.100 E10.66727
G1 X58.288 Y59.788 E10.77285
G1 X57.463 Y59.250 E10.86418
G1 X56.925 Y58.563 E10.94477
G1 X56.588 Y57.625 E11.03690
G1 X56.513 Y57.063 E11.08953
G1 X56.538 Y56.400 E11.15003
G1 X56.788 Y55.588 E11.22874
G1 X57.238 Y54.925 E11.30331
G1 X57.913 Y54.413 E11.38180
G1 X58.913 Y54.013 E11.48070
G1 X59.238 Y55.538 E11.62438
G1 X58.438 Y55.875 E11.70394
G1 X58.150 Y56.113 E11.73860
G1 X57.988 Y56.388 E11.76815
G1 X57.888 Y56.750 E11.80325
G1 X57.900 Y57.238 E11.84775
G1 X58.038 Y57.688 E11.89228
G1 X58.275 Y58.025 E11.92953
G1 X58.638 Y58.313 E11.97294
G1 X59.350 Y58.538 E12.04215
G1 X59.888 Y58.600 E12.09152
G1 X61.013 Y58.500 E12.19612
G1 X61.625 Y58.238 E12.25768
G1 X61.950 Y57.963 E12.29760
G1 X62.188 Y57.550 E12.34139
G1 X62.288 Y56.950 E12.39666
G1 X62.225 Y56.488 E12.44062
G1 X62.013 Y56.088 E12.48252
G1 X61.700 Y55.800 E12.52149
G1 X60.650 Y55.375 E12.62655
G1 X61.050 Y53.625 E12.79261
G1 X56.588 Y53.625 E13.20533
G1 X56.588 Y51.725 E13.38085
G1 X60.900 Y50.363 E13.79848
G1 X60.900 Y50.138 E13.81913
G1 X56.588 Y48.775 E14.23704
G1 X56.588 Y47.200 E14.38206
G1 X56.588 Y45.613
G1 X55.963 Y62.450 F3600.000
G1 X61.175 Y62.463 F600.000 E14.86494
G1 X62.388 Y62.700 E14.97905
G1 X63.138 Y63.113 E15.05769
G1 X63.725 Y63.738 E15.13693
G1 X64.138 Y64.600 E15.22527
G1 X64.300 Y65.825 E15.33942
G1 X64.175 Y66.950 E15.44445
G1 X63.813 Y67.838 E15.53379
G1 X63.225 Y68.525 E15.61718
G1 X62.413 Y68.988 E15.70417
G1 X61.050 Y69.225 E15.83139
G1 X59.625 Y69.238 E15.96402
G1 X59.488 Y69.663 E16.00583
G1 X60.863 Y70.588 E16.15831
G1 X64.213 Y70.588 E16.46860
G1 X64.213 Y73.388 E16.72780
G1 X60.863 Y73.388 E17.03809
G1 X59.013 Y74.613 E17.24342
G1 X59.788 Y74.900 E17.32004
G1 X60.563 Y74.475 E17.40165
G1 X61.338 Y74.325 E17.47445
G1 X62.325 Y74.463 E17.56664
G1 X63.150 Y74.888 E17.65217
G1 X63.663 Y75.425 E17.72067
G1 X63.950 Y75.950 E17.77673
G1 X64.200 Y77.075 E17.88303
G1 X64.225 Y80.963 E18.24275
G1 X55.950 Y80.963 E19.00753
G1 X55.963 Y73.288 E19.71739
G1 X58.013 Y71.988 E19.94300
G1 X55.963 Y70.675 E20.16851
G1 X55.963 Y66.438 E20.56024
G1 X60.900 Y66.425 E21.01706
G1 X61.488 Y66.300 E21.07356
G1 X61.563 Y65.725 E21.12653
G1 X61.488 Y65.400 E21.15733
G1 X60.975 Y65.275 E21.20672
G1 X55.963 Y65.250 E21.67055
G1 X55.963 Y62.763 E21.90025
G1 X56.588 Y63.088
G1 X61.113 Y63.100 E22.31859
G1 X62.175 Y63.313 E22.41789
G1 X62.738 Y63.625 E22.47797
G1 X63.188 Y64.100 E22.53911
G1 X63.525 Y64.788 E22.60904
G1 X63.663 Y65.825 E22.70650
G1 X63.563 Y66.788 E22.79613
G1 X63.263 Y67.500 E22.86765
G1 X62.813 Y68.025 E22.93125
G1 X62.188 Y68.388 E22.99794
G1 X61.000 Y68.600 E23.10998
G1 X57.138 Y68.600 E23.46644
G1 X57.075 Y68.825 E23.48735
G1 X60.663 Y71.213 E23.88659
G1 X63.575 Y71.213 E24.15591
G1 X63.575 Y72.750 E24.29752
G1 X60.663 Y72.750 E24.56684
G1 X56.588 Y75.463 E25.01983
G1 X56.588 Y73.638 E25.18895
G1 X59.200 Y71.988 E25.47493
G1 X56.588 Y70.325 E25.76080
G1 X56.588 Y67.075 E26.06158
G1 X60.938 Y67.063 E26.46374
G1 X61.475 Y66.988 E26.51374
G1 X61.763 Y66.875 E26.54245
G1 X61.963 Y66.700 E26.56616
G1 X62.113 Y66.463 E26.59250
G1 X62.200 Y66.088 E26.62762
G1 X62.200 Y65.663 E26.66796
G1 X62.100 Y65.200 E26.71188
G1 X61.963 Y64.975 E26.73499
G1 X61.813 Y64.850 E26.75332
G1 X61.450 Y64.700 E26.78939
G1 X61.025 Y64.638 E26.82983
G1 X56.588 Y64.613 E27.23961
G1 X56.588 Y63.400 E27.35180
G1 X56.600 Y61.813
G1 F1800.000 E22.85180
G92 E0
G1 X58.113 Y75.263 F3600.000
G1 F1800.000 E4.50000
G1 X58.863 Y75.238 F600.000 E4.56850
G1 X59.375 Y75.425 E4.61913
G1 X59.663 Y75.613 E4.65056
G1 X59.888 Y75.863 E4.68257
G1 X60.025 Y75.600 E4.71071
G1 X60.300 Y75.338 E4.74475
G1 X60.788 Y75.075 E4.79587
G1 X61.350 Y74.975 E4.84976
G1 X62.138 Y75.075 E4.92219
G1 X62.763 Y75.400 E4.98783
G1 X63.138 Y75.800 E5.03873
G1 X63.350 Y76.175 E5.07855
G1 X63.563 Y77.150 E5.17037
G1 X63.575 Y80.325 E5.46470
G1 X56.588 Y80.325 E6.11117
G1 X56.613 Y77.188 E6.40137
G1 X56.775 Y76.438 E6.47205
G1 X57.088 Y75.900 E6.53030
G1 X57.825 Y75.375 E6.61409
G1 X58.400 Y74.575
G1 F1800.000 E2.11409
G92 E0
G1 X54.575 Y73.100 F3600.000
G1 F1800.000 E4.50000
G1 X54.600 Y42.000 F600.000 E7.37744
G1 X49.588 Y41.963 E7.84082
G1 X49.125 Y41.800 E7.88672
G1 X48.725 Y41.513 E7.93234
G1 X48.438 Y41.125 E7.97704
G1 X48.275 Y40.638 E8.02403
G1 X48.263 Y38.813 E8.19296
G1 X63.200 Y38.813 E9.57489
G1 X63.325 Y39.263 E9.61769
G1 X60.638 Y40.900 E9.90902
G1 X60.113 Y40.400 E9.97490
G1 X59.075 Y40.000 E10.07804
G1 X57.950 Y40.038 E10.18215
G1 X57.100 Y40.400 E10.26768
G1 X56.538 Y40.888 E10.33640
G1 X56.175 Y41.500 E10.40271
G1 X55.975 Y42.563 E10.50212
G1 X55.963 Y49.238 E11.11961
G1 X58.450 Y50.025 E11.36131
G1 X58.450 Y50.475 E11.40259
G1 X55.963 Y51.263 E11.64410
G1 X55.963 Y54.263 E11.92146
G1 X56.925 Y54.263 E12.01066
G1 X56.200 Y55.313 E12.12853
G1 X55.913 Y56.300 E12.22378
G1 X55.875 Y57.088 E12.29621
G1 X55.963 Y57.775 E12.36062
G1 X56.363 Y58.875 E12.46875
G1 X57.025 Y59.713 E12.56796
G1 X58.025 Y60.375 E12.67817
G1 X59.275 Y60.725 E12.79929
G1 X60.050 Y60.775 E12.87069
G1 X61.000 Y60.700 E12.95856
G1 X61.738 Y60.500 E13.02967
G1 X62.463 Y60.200 E13.10246
G1 X63.413 Y59.475 E13.21227
G1 X63.988 Y58.600 E13.30908
G1 X64.263 Y57.513 E13.41340
G1 X64.288 Y56.450 E13.51091
G1 X64.013 Y55.363 E13.61476
G1 X63.300 Y54.263 E13.73645
G1 X64.213 Y54.263 E13.82153
G1 X64.213 Y43.975 E14.77345
G1 X61.825 Y43.975 E14.99424
G1 X61.700 Y43.538 E15.03589
G1 X62.438 Y43.038 E15.11840
G1 X64.213 Y41.988 E15.30986
G1 X64.213 Y38.813 E15.60311
G1 X71.725 Y38.813 E16.29825
G1 X71.713 Y40.638 E16.46733
G1 X71.563 Y41.113 E16.51338
G1 X71.263 Y41.513 E16.55895
G1 X70.863 Y41.800 E16.60451
G1 X70.400 Y41.963 E16.65042
G1 X65.388 Y42.000 E17.11381
G1 X65.438 Y73.125 E19.99366
G1 X65.388 Y79.113 E20.54700
G1 X70.400 Y79.150 E21.01079
G1 X70.863 Y79.300 E21.05669
G1 X71.263 Y79.588 E21.10226
G1 X71.563 Y79.988 E21.14782
G1 X71.713 Y80.463 E21.19387
G1 X71.725 Y82.288 E21.36295
G1 X48.263 Y82.288 E23.53397
G1 X48.275 Y80.463 E23.70305
G1 X48.425 Y79.988 E23.74910
G1 X48.725 Y79.588 E23.79466
G1 X49.125 Y79.300 E23.84023
G1 X49.588 Y79.150 E23.88613
G1 X54.600 Y79.113 E24.34952
G1 X54.575 Y73.425 E24.87592
G1 F1800.000 E20.37592
G92 E0
G1 X59.488 Y57.913 F3600.000
G1 F1800.000 E4.50000
G1 X58.950 Y57.738 F600.000 E4.52663
G1 X58.650 Y57.438 E4.54625
G1 X58.625 Y57.413 E4.54948
G1 X58.538 Y57.138 E4.57657
G1 X58.525 Y56.825 E4.60513
G1 X58.575 Y56.638 E4.62311
G1 X58.775 Y56.425 E4.65036
G1 X60.113 Y55.850 E4.78455
G1 X61.350 Y56.338 E4.90859
G1 X61.500 Y56.475 E4.92641
G1 X61.600 Y56.688 E4.94834
G1 X61.650 Y56.950 E4.97282
G1 X61.575 Y57.325 E5.00861
G1 X61.288 Y57.700 E5.05200
G1 X60.838 Y57.888 E5.09745
G1 X60.800 Y57.888 E5.10023
G1 X60.488 Y57.950 E5.11522
G1 X59.813 Y57.950 E5.14647
G1 F1800.000 E0.64647
G92 E0
G1 X53.950 Y48.300 F3600.000
G1 F1800.000 E4.50000
G1 X53.625 Y47.950 F600.000 E4.54348
G1 X53.950 Y47.613 E4.58643
G1 X53.963 Y42.625 E5.04775
G1 X49.488 Y42.588 E5.46165
G1 X48.825 Y42.375 E5.52595
G1 X48.263 Y41.975 E5.59016
G1 X47.863 Y41.413 E5.65338
G1 X47.638 Y40.750 E5.71871
G1 X47.613 Y38.175 E5.95615
G1 X72.375 Y38.175 E8.24600
G1 X72.350 Y40.750 E8.48349
G1 X72.125 Y41.413 E8.54784
G1 X71.725 Y41.975 E8.61203
G1 X71.163 Y42.375 E8.67622
G1 X70.500 Y42.588 E8.74052
G1 X66.025 Y42.625 E9.15442
G1 X66.050 Y47.613 E9.61597
G1 X66.375 Y47.975 E9.66130
G1 X66.063 Y48.225 E9.69845
G1 X66.038 Y72.850 E11.97673
G1 X66.375 Y73.213 E12.02216
G1 X66.063 Y73.463 E12.05909
G1 X66.025 Y78.488 E12.52354
G1 X70.500 Y78.513 E12.93757
G1 X71.163 Y78.725 E13.00187
G1 X71.725 Y79.138 E13.06606
G1 X72.125 Y79.700 E13.13025
G1 X72.350 Y80.363 E13.19460
G1 X72.375 Y82.925 E13.43209
G1 X47.613 Y82.925 E15.72194
G1 X47.638 Y80.363 E15.95943
G1 X47.863 Y79.700 E16.02378
G1 X48.263 Y79.138 E16.08797
G1 X48.825 Y78.725 E16.15216
G1 X49.488 Y78.513 E16.21647
G1 X53.963 Y78.488 E16.63036
G1 X53.950 Y73.538 E17.08744
G1 X53.625 Y73.188 E17.13088
G1 X53.950 Y72.850 E17.17373
G1 X53.950 Y48.625 E19.41529
G1 F1800.000 E14.91529
G92 E0
G1 X77.050 Y50.025 F3600.000
G1 F1800.000 E4.50000
G1 X77.200 Y48.763 F600.000 E4.61760
G1 X77.488 Y47.550 E4.73297
G1 X77.688 Y47.313 E4.76149
G1 X91.313 Y49.725 E6.04081
G1 X91.350 Y50.013 E6.06798
G1 X91.188 Y51.363 E6.19375
G1 X91.113 Y51.438 E6.20395
G1 X90.900 Y52.488 E6.30283
G1 X90.775 Y52.738 E6.32842
G1 X77.113 Y50.325 E7.61157
G1 X76.413 Y50.038
G1 X76.525 Y49.050 E7.65781
G1 X76.538 Y48.963 E7.66551
G1 X76.275 Y48.688 E7.70080
G1 X76.663 Y48.375 E7.74662
G1 X76.675 Y48.338 E7.75030
G1 X76.875 Y47.363 E7.84280
G1 X76.888 Y47.338 E7.84497
G1 X77.025 Y47.075 E7.87244
G1 X77.238 Y46.863 E7.90036
G1 X77.513 Y46.738 E7.92775
G1 X77.588 Y46.725 E7.93529
G1 X77.800 Y46.688 E7.95519
G1 X78.575 Y46.825 E8.02778
G1 X79.563 Y47.000 E8.12027
G1 X80.538 Y47.175 E8.21276
G1 X91.350 Y49.075 E9.22755
G1 X91.613 Y49.225 E9.25499
G1 X91.813 Y49.438 E9.28243
G1 X91.950 Y49.700 E9.30987
G1 X91.988 Y50.000 E9.33816
G1 X91.863 Y51.075 E9.43834
G1 X92.088 Y51.325 E9.46908
G1 X91.700 Y51.738 E9.52167
G1 X91.513 Y52.700 E9.61267
G1 X91.375 Y52.975 E9.64043
G1 X91.150 Y53.175 E9.66787
G1 X90.888 Y53.313 E9.69531
G1 X90.600 Y53.350 E9.72275
G1 X83.075 Y52.025 E10.42888
G1 X82.088 Y51.850 E10.52138
G1 X81.113 Y51.675 E10.61387
G1 X80.125 Y51.500 E10.70636
G1 X79.138 Y51.325 E10.79885
G1 X78.150 Y51.150 E10.89134
G1 X77.163 Y50.975 E10.98383
G1 X77.050 Y50.963 E10.98947
G1 X76.788 Y50.825 E11.00319
G1 X76.575 Y50.613 E11.01691
G1 X76.450 Y50.350 E11.03008
G1 F1800.000 E6.53008
G92 E0
G1 X77.688 Y72.563 F3600.000
G1 F1800.000 E4.50000
G1 X91.313 Y74.963 F600.000 E5.77931
G1 X91.350 Y75.250 E5.80649
G1 X91.188 Y76.600 E5.93226
G1 X91.113 Y76.688 E5.94246
G1 X90.900 Y77.725 E6.04139
G1 X90.775 Y77.975 E6.06679
G1 X77.088 Y75.563 E7.35224
G1 X77.050 Y75.275 E7.37942
G1 X77.200 Y74.013 E7.49702
G1 X77.488 Y72.800 E7.61183
G1 X77.513 Y71.975
G1 X77.800 Y71.938 E7.62555
G1 X78.488 Y72.050 E7.65808
G1 X79.475 Y72.225 E7.75057
G1 X80.463 Y72.400 E7.84306
G1 X81.450 Y72.575 E7.93555
G1 X82.438 Y72.750 E8.02804
G1 X83.413 Y72.925 E8.12053
G1 X84.400 Y73.100 E8.21302
G1 X91.350 Y74.325 E8.86539
G1 X91.613 Y74.463 E8.89283
G1 X91.813 Y74.675 E8.92027
G1 X91.950 Y74.938 E8.94771
G1 X91.988 Y75.238 E8.97600
G1 X91.863 Y76.313 E9.07618
G1 X92.088 Y76.563 E9.10692
G1 X91.700 Y76.975 E9.15951
G1 X91.513 Y77.950 E9.25052
G1 X91.375 Y78.213 E9.27782
G1 X91.150 Y78.413 E9.30574
G1 X90.888 Y78.550 E9.33315
G1 X90.600 Y78.588 E9.36008
G1 X79.213 Y76.588 E10.42912
G1 X78.238 Y76.413 E10.52161
G1 X77.250 Y76.238 E10.61411
G1 X77.050 Y76.200 E10.63292
G1 X76.788 Y76.063 E10.66036
G1 X76.575 Y75.850 E10.68780
G1 X76.488 Y75.663 E10.70660
G1 X76.450 Y75.575 E10.71524
G1 X76.413 Y75.275 E10.74353
G1 X76.475 Y74.675 E10.79909
G1 X76.538 Y74.200 E10.84371
G1 X76.275 Y73.925 E10.87900
G1 X76.388 Y73.838 E10.89158
G1 X76.663 Y73.613 E10.92482
G1 X76.800 Y72.988 E10.98407
G1 X76.888 Y72.575 E11.00362
G1 X77.025 Y72.313 E11.01736
G1 X77.225 Y72.113 E11.03031
G1 F1800.000 E6.53031
G92 E0
G1 X42.938 Y75.275 F3600.000
G1 F1800.000 E4.50000
G1 X42.838 Y75.575 F600.000 E4.52957
G1 X29.213 Y77.975 E5.80888
G1 X29.075 Y77.713 E5.83581
G1 X28.775 Y76.425 E5.95846
G1 X28.638 Y75.250 E6.06788
G1 X28.675 Y74.963 E6.09506
G1 X42.363 Y72.550 E7.38043
G1 X42.500 Y72.800 E7.40736
G1 X42.800 Y74.100 E7.53002
G1 X42.900 Y74.950 E7.61009
G1 X43.575 Y75.275
G1 X43.538 Y75.575 E7.62400
G1 X43.413 Y75.850 E7.63796
G1 X43.200 Y76.063 E7.65165
G1 X43.113 Y76.113 E7.65633
G1 X42.938 Y76.200 E7.67442
G1 X42.150 Y76.338 E7.74882
G1 X41.163 Y76.513 E7.84131
G1 X40.175 Y76.688 E7.93380
G1 X39.188 Y76.863 E8.02630
G1 X38.213 Y77.038 E8.11879
G1 X37.225 Y77.213 E8.21128
G1 X29.388 Y78.588 E8.94678
G1 X29.100 Y78.550 E8.97422
G1 X28.838 Y78.413 E9.00166
G1 X28.613 Y78.213 E9.02910
G1 X28.475 Y77.938 E9.05731
G1 X28.225 Y76.825 E9.16289
G1 X27.850 Y76.625 E9.20247
G1 X28.125 Y76.313 E9.24090
G1 X28.000 Y75.238 E9.34108
G1 X28.038 Y74.938 E9.36937
G1 X28.175 Y74.675 E9.39681
G1 X28.375 Y74.463 E9.42424
G1 X28.638 Y74.325 E9.45168
G1 X39.175 Y72.463 E10.44153
G1 X40.163 Y72.288 E10.53402
G1 X41.150 Y72.113 E10.62651
G1 X42.138 Y71.938 E10.71901
G1 X42.188 Y71.938 E10.72405
G1 X42.475 Y71.975 E10.75149
G1 X42.750 Y72.100 E10.77893
G1 X42.963 Y72.313 E10.80637
G1 X42.988 Y72.363 E10.81150
G1 X43.100 Y72.575 E10.83457
G1 X43.275 Y73.313 E10.90399
G1 X43.363 Y73.688 E10.94016
G1 X43.738 Y73.900 E10.97974
G1 X43.613 Y74.025 E10.99648
G1 X43.450 Y74.200 E11.00732
G1 X43.538 Y74.963 E11.04272
G1 F1800.000 E6.54272
G92 E0
G1 X42.838 Y50.338 F3600.000
G1 F1800.000 E4.50000
G1 X29.213 Y52.738 F600.000 E5.77931
G1 X29.075 Y52.475 E5.80624
G1 X28.775 Y51.188 E5.92889
G1 X28.638 Y50.013 E6.03831
G1 X28.675 Y49.725 E6.06549
G1 X42.363 Y47.300 E7.35086
G1 X42.500 Y47.563 E7.37779
G1 X42.800 Y48.850 E7.50045
G1 X42.938 Y50.038 E7.61041
G1 X43.200 Y50.825
G1 X42.938 Y50.963 E7.62413
G1 X42.250 Y51.088 E7.65665
G1 X41.263 Y51.250 E7.74914
G1 X40.275 Y51.425 E7.84163
G1 X39.288 Y51.600 E7.93412
G1 X38.313 Y51.775 E8.02662
G1 X37.325 Y51.950 E8.11911
G1 X36.338 Y52.125 E8.21160
G1 X29.388 Y53.350 E8.86396
G1 X29.100 Y53.313 E8.89140
G1 X28.838 Y53.175 E8.91884
G1 X28.613 Y52.975 E8.94628
G1 X28.475 Y52.700 E8.97449
G1 X28.225 Y51.588 E9.08007
G1 X27.850 Y51.388 E9.11965
G1 X28.125 Y51.075 E9.15808
G1 X28.000 Y50.000 E9.25826
G1 X28.038 Y49.700 E9.28655
G1 X28.175 Y49.438 E9.31399
G1 X28.375 Y49.225 E9.34143
G1 X28.638 Y49.075 E9.36887
G1 X40.063 Y47.063 E10.44185
G1 X41.050 Y46.888 E10.53434
G1 X42.038 Y46.725 E10.62683
G1 X42.188 Y46.688 E10.64123
G1 X42.475 Y46.738 E10.66867
G1 X42.750 Y46.863 E10.69611
G1 X42.925 Y47.038 E10.71932
G1 X42.963 Y47.075 E10.72355
G1 X43.100 Y47.338 E10.75176
G1 X43.250 Y47.975 E10.81182
G1 X43.363 Y48.450 E10.85734
G1 X43.738 Y48.663 E10.89692
G1 X43.675 Y48.713 E10.90431
G1 X43.450 Y48.963 E10.93535
G1 X43.525 Y49.625 E10.99680
G1 X43.575 Y50.038 E11.01617
G1 X43.538 Y50.338 E11.03009
G1 X43.413 Y50.588 E11.04304
G1 F1800.000 E6.54304
G92 E0
G1 X8.875 Y24.850 F3600.000
G1 F1800.000 E4.50000
G1 X111.113 Y24.850 F600.000 E13.95694
G1 X111.113 Y95.138 E20.45901
G1 X8.875 Y95.138 E29.91595
G1 X8.875 Y25.162 E36.38863
G1 X8.238 Y24.213 F450.000
G1 X111.750 Y24.213 F600.000 E45.96315
G1 X111.750 Y95.775 E52.58280
G1 X8.238 Y95.775 E62.15732
G1 X8.238 Y24.525 E68.74758
G1 X9.338 Y24.850
G1 F1800.000 E64.24758
G92 E0
G1 X27.438 Y51.213 F3600.000
G1 F1800.000 E4.50000
G1 X26.850 Y51.488 F600.000 E4.56003
G1 X18.638 Y52.138 E5.32228
G1 F1800.000 E0.82228
G92 E0
G1 X44.150 Y48.825 F3600.000
G1 F1800.000 E4.50000
G1 X44.725 Y48.550 F600.000 E4.56004
G1 X52.950 Y47.900 E5.32227
G1 F1800.000 E0.82227
G92 E0
G1 X58.025 Y48.113 F3600.000
G1 F1800.000 E4.50000
G1 X60.725 Y48.538 F600.000 E4.75257
G1 X61.463 Y50.225 F3600.000
G1 X61.950 Y50.288 F600.000 E4.79811
G1 F1800.000 E0.29811
G92 E0
G1 X60.750 Y51.975 F3600.000
G1 F1800.000 E4.50000
G1 X58.025 Y52.388 F600.000 E4.75381
G1 F1800.000 E0.25381
G92 E0
G1 X66.838 Y47.975 F3600.000
G1 F1800.000 E4.50000
G1 X76.000 Y48.488 F600.000 E5.34905
G1 X92.550 Y51.525 F3600.000
G1 X101.563 Y52.063 F600.000 E6.18398
G1 F1800.000 E1.68398
G92 E0
G1 X101.563 Y77.300 F3600.000
G1 F1800.000 E4.50000
G1 X92.550 Y76.763 F600.000 E5.33493
G1 X76.000 Y73.738 F3600.000
G1 X66.838 Y73.213 F600.000 E6.18401
G1 F1800.000 E1.68401
G92 E0
G1 X52.950 Y73.138 F3600.000
G1 F1800.000 E4.50000
G1 X44.725 Y73.788 F600.000 E5.26224
G1 X44.150 Y74.063 E5.32228
G1 X27.425 Y76.450 F3600.000
G1 X26.850 Y76.738 F600.000 E5.38173
G1 X18.400 Y77.275 E6.16525
; perimeter_end
; infill_start
G1 F1800.000 E1.66525
G92 E0
G1 X29.750 Y52.175 F3600.000
G1 F1800.000 E4.50000
G1 X29.400 Y51.825 F600.000 E4.54608
G1 X29.188 Y50.700 E4.65297
G1 X30.525 Y52.038 E4.82953
G1 X31.300 Y51.900 E4.90317
G1 X29.450 Y50.050 E5.14797
G1 X30.225 Y49.913 E5.22162
G1 X32.075 Y51.763 E5.46641
G1 X32.838 Y51.625 E5.54006
G1 X31.000 Y49.775 E5.78486
G1 X31.775 Y49.638 E5.85850
G1 X33.613 Y51.488 E6.10330
G1 X34.388 Y51.350 E6.17695
G1 X32.538 Y49.500 E6.42174
G1 X33.313 Y49.375 E6.49539
G1 X35.163 Y51.213 E6.74019
G1 X35.938 Y51.075 E6.81383
G1 X34.088 Y49.238 E7.05863
G1 X34.863 Y49.100 E7.13228
G1 X36.713 Y50.950 E7.37707
G1 X37.488 Y50.813 E7.45072
G1 X35.638 Y48.963 E7.69552
G1 X36.413 Y48.825 E7.76916
G1 X38.263 Y50.675 E8.01396
G1 X39.038 Y50.538 E8.08761
G1 X37.188 Y48.688 E8.33241
G1 X37.963 Y48.550 E8.40605
G1 X39.813 Y50.400 E8.65085
G1 X40.588 Y50.263 E8.72450
G1 X38.738 Y48.413 E8.96929
G1 X39.513 Y48.275 E9.04294
G1 X41.363 Y50.125 E9.28774
G1 X42.138 Y49.988 E9.36138
G1 X40.288 Y48.138 E9.60618
G1 X41.063 Y48.000 E9.67983
G1 X42.388 Y49.338 E9.85640
G1 X42.175 Y48.213 E9.96330
G1 X41.838 Y47.863 E10.00938
G1 F1800.000 E5.50938
G92 E0
G1 X49.850 Y41.500 F3600.000
G1 F1800.000 E4.50000
G1 X48.738 Y40.388 F600.000 E4.65157
G1 X48.725 Y39.438 E4.74294
G1 X50.788 Y41.500 E5.02468
G1 X51.738 Y41.513 E5.11575
G1 X49.500 Y39.275 E5.42090
G1 X50.438 Y39.275 E5.51129
G1 X52.675 Y41.525 E5.81739
G1 X53.625 Y41.525 E5.90847
G1 X51.375 Y39.275 E6.21553
G1 X52.313 Y39.275 E6.30592
G1 X54.563 Y41.538 E6.61394
G1 X55.513 Y41.538 E6.70502
G1 X53.250 Y39.275 E7.01399
G1 X54.188 Y39.275 E7.10438
G1 X55.925 Y41.013 E7.34224
G1 X56.325 Y40.475 E7.40703
G1 X55.125 Y39.275 E7.57038
G1 X56.063 Y39.275 E7.66077
G1 X56.825 Y40.038 E7.76476
G1 X57.325 Y39.600 E7.82885
G1 X57.000 Y39.275 E7.87348
G1 X57.400 Y39.900
G1 X57.825 Y39.538 E7.92162
G1 X58.250 Y39.400 E7.95973
G1 X59.288 Y39.400 E8.04792
G1 X60.775 Y39.738 E8.17727
G1 X62.775 Y39.188 E8.35408
G1 X64.950 Y41.538 F3600.000
G1 X64.675 Y41.250 F600.000 E8.39172
G1 X64.675 Y40.338 E8.47898
G1 X65.875 Y41.525 E8.63911
G1 X66.788 Y41.525 E8.72573
G1 X64.675 Y39.413 E9.00836
G1 X65.463 Y39.275 E9.08360
G1 X67.700 Y41.513 E9.38396
G1 X68.613 Y41.513 E9.47058
G1 X66.375 Y39.275 E9.77003
G1 X67.300 Y39.275 E9.85729
G1 X69.525 Y41.500 E10.15583
G1 X70.413 Y41.463 E10.23982
G1 X68.225 Y39.275 E10.53363
G1 X69.138 Y39.275 E10.62089
G1 X70.988 Y41.125 E10.86801
G1 X71.250 Y40.463 E10.93494
G1 X70.063 Y39.275 E11.09442
G1 X70.988 Y39.275 E11.18168
G1 X71.263 Y39.550 E11.21906
G1 X64.800 Y41.950 F3600.000
G1 X64.713 Y42.513 F600.000 E11.27751
G1 X64.413 Y43.000 E11.33642
G1 X62.538 Y43.488 E11.53494
G1 X64.188 Y42.725 F3600.000
G1 X64.813 Y43.513 F600.000 E11.61780
G1 X64.838 Y54.625 E12.53658
G1 X64.675 Y55.000 E12.57030
G1 X64.875 Y56.663 E12.70884
G1 X64.700 Y56.238 E12.74658
G1 X64.913 Y56.313
G1 X64.638 Y58.975 E12.90866
G1 X64.963 Y59.713
G1 X64.388 Y59.138 E12.98819
G1 X63.888 Y59.600 E13.05486
G1 X64.963 Y60.675 E13.20433
G1 X64.963 Y61.625 E13.29841
G1 X63.400 Y60.063 E13.51528
G1 X62.863 Y60.488 E13.58244
G1 X64.950 Y62.575 E13.87463
G1 X64.950 Y63.538 E13.96871
G1 X62.225 Y60.800 E14.34915
G1 X61.575 Y62.075 F3600.000
G1 X61.100 Y61.588 F600.000 E14.41675
G1 X61.500 Y61.038 E14.48403
G1 X62.938 Y62.475 E14.68419
G1 X64.488 Y64.188 F3600.000
G1 X64.800 Y64.800 F600.000 E14.72665
G1 X64.863 Y65.963 E14.79979
G1 X64.800 Y66.800 E14.85172
G1 X64.375 Y67.650 E14.91134
G1 X64.613 Y67.613
G1 X64.950 Y67.950 E14.95799
G1 X64.950 Y68.900 E15.05122
G1 X64.175 Y68.125 E15.15881
G1 X63.738 Y68.638 E15.22497
G1 X64.950 Y69.863 E15.39350
G1 X64.263 Y70.125 E15.46575
G1 X63.200 Y69.063 E15.61197
G1 X62.775 Y69.588 E15.67831
G1 X63.313 Y70.125 E15.75162
G1 X64.813 Y70.550 F3600.000
G1 X64.813 Y73.413 F600.000 E15.97024
G1 X64.963 Y74.325
G1 X64.475 Y73.850 E16.04913
G1 X63.350 Y73.850 E16.17922
G1 X64.950 Y75.438 E16.44057
G1 X64.238 Y75.625
G1 X64.775 Y76.613 E16.51891
G1 X64.788 Y79.150 E16.69670
G1 X64.200 Y81.625 F3600.000
G1 X55.975 Y81.625 F600.000 E17.45090
G1 X55.500 Y79.863 F3600.000
G1 X55.200 Y79.575 F600.000 E17.49104
G1 X54.275 Y79.575 E17.58095
G1 X55.488 Y80.800 E17.74741
G1 X55.488 Y81.725 E17.83740
G1 X53.338 Y79.588 E18.13019
G1 X52.413 Y79.588 E18.22010
G1 X54.650 Y81.838 E18.52624
G1 X53.713 Y81.838 E18.61681
G1 X51.475 Y79.600 E18.92201
G1 X50.550 Y79.600 E19.01192
G1 X52.775 Y81.838 E19.31617
G1 X51.838 Y81.838 E19.40675
G1 X49.625 Y79.625 E19.70841
G1 X49.025 Y79.963 E19.77502
G1 X50.900 Y81.838 E20.03090
G1 X49.963 Y81.838 E20.12148
G1 X48.738 Y80.613 E20.28865
G1 X48.725 Y81.538 E20.37828
G1 X49.025 Y81.838 E20.41870
G1 X55.288 Y79.088 F3600.000
G1 X55.250 Y74.100 F600.000 E20.89820
G1 X55.388 Y73.538 E20.95356
G1 X55.100 Y73.288
G1 X55.038 Y73.225 E20.96214
G1 X55.700 Y72.900 E21.03744
G1 X55.038 Y72.238 E21.13313
G1 X55.038 Y71.250 E21.23381
G1 X56.313 Y72.525 E21.41659
G1 X56.913 Y72.138 E21.48955
G1 X56.075 Y71.300 E21.61022
G1 X55.388 Y70.425 F3600.000
G1 X55.250 Y69.863 F600.000 E21.66707
G1 X55.263 Y62.475 E22.38641
G1 X55.400 Y61.988
G1 X55.038 Y61.625 E22.43781
G1 X55.038 Y60.638 E22.53861
G1 X56.388 Y61.988 E22.73314
G1 X57.388 Y61.988 E22.83435
G1 X55.038 Y59.650 E23.17201
G1 X55.338 Y58.963 E23.24856
G1 X58.375 Y62.000 E23.68599
G1 X58.825 Y61.450
G1 X58.313 Y60.938 E23.75994
G1 X59.050 Y61.400
G1 X60.088 Y61.625 E23.90347
G1 X60.688 Y61.400 E23.98989
G1 X59.513 Y61.575 F3600.000
G1 X59.288 Y61.750 F600.000 E24.02523
G1 F1800.000 E19.52523
G92 E0
G1 X60.013 Y57.500 F3600.000
G1 F1800.000 E4.50000
G1 X59.238 Y56.725 F600.000 E4.63038
G1 X60.038 Y56.375 E4.73439
G1 X60.988 Y57.325 E4.89282
G1 X59.913 Y55.563 F3600.000
G1 X59.925 Y54.513 F600.000 E5.00830
G1 X59.375 Y54.063 E5.08688
G1 X59.925 Y54.513
G1 X60.225 Y54.275 E5.13281
G1 F1800.000 E0.63281
G92 E0
G1 X62.500 Y51.725 F3600.000
G1 F1800.000 E4.50000
G1 X63.650 Y51.538 F600.000 E4.55655
G1 X63.650 Y48.975 F3600.000
G1 X62.500 Y48.838 F600.000 E4.61396
G1 F1800.000 E0.11396
G92 E0
G1 X63.375 Y46.463 F3600.000
G1 F1800.000 E4.50000
G1 X56.800 Y46.563 F600.000 E4.66704
G1 X55.350 Y49.100 F3600.000
G1 X55.313 Y41.963 F600.000 E5.35592
G1 X55.300 Y42.038
G1 X55.563 Y41.863 E5.38154
G1 X55.325 Y42.088
G1 X55.338 Y42.188 E5.39166
G1 X56.425 Y50.288 F3600.000
G1 X55.813 Y49.675 F600.000 E5.47931
G1 X55.038 Y49.875 E5.55875
G1 X55.950 Y50.788 E5.68700
G1 X55.038 Y50.850 E5.77792
G1 X55.213 Y51.013 E5.80165
G1 X56.925 Y50.250 F3600.000
G1 X57.600 Y50.250 F600.000 E5.84939
G1 X59.100 Y50.250 F3600.000
G1 X59.725 Y50.250 F600.000 E5.89150
G1 X55.350 Y51.400 F3600.000
G1 X55.250 Y54.588 F600.000 E6.17458
G1 X55.413 Y55.050 E6.21803
G1 X55.225 Y57.388 E6.42651
G1 X55.313 Y56.925 E6.46836
G1 X55.213 Y57.038
G1 X55.238 Y58.500 E6.61035
G1 X55.413 Y55.050 F3600.000
G1 X55.975 Y54.788 F600.000 E6.66518
G1 F1800.000 E2.16518
G92 E0
G1 X64.250 Y54.800 F3600.000
G1 F1800.000 E4.50000
G1 X64.675 Y55.000 F600.000 E4.53997
G1 F1800.000 E0.03997
G92 E0
G1 X60.900 Y65.888 F3600.000
G1 F1800.000 E4.50000
G1 X55.463 Y65.850 F600.000 E4.90374
G1 F1800.000 E0.40374
G92 E0
G1 X60.000 Y69.563 F3600.000
G1 F1800.000 E4.50000
G1 X61.113 Y69.925 F600.000 E4.59508
G1 X62.163 Y69.800 E4.68057
G1 X62.638 Y70.113 E4.72738
G1 X58.925 Y69.263 F3600.000
G1 X58.275 Y69.063 F600.000 E4.77444
G1 F1800.000 E0.27444
G92 E0
G1 X60.638 Y74.000 F3600.000
G1 F1800.000 E4.50000
G1 X62.450 Y73.925 F600.000 E4.57958
G1 X62.900 Y74.350 E4.60686
G1 X64.975 Y81.838 F3600.000
G1 X64.688 Y81.538 F600.000 E4.64629
G1 X64.675 Y80.613 E4.73484
G1 X65.900 Y81.838 E4.89949
G1 X66.825 Y81.838 E4.98752
G1 X64.675 Y79.675 E5.27740
G1 X65.500 Y79.575 E5.35615
G1 X67.750 Y81.838 E5.66003
G1 X68.675 Y81.838 E5.74806
G1 X66.425 Y79.588 E6.05101
G1 X67.363 Y79.588 E6.13971
G1 X69.600 Y81.838 E6.44172
G1 X70.525 Y81.838 E6.52975
G1 X68.288 Y79.600 E6.83084
G1 X69.225 Y79.600 E6.91953
G1 X71.263 Y81.638 E7.19419
G1 X71.250 Y80.713 E7.28317
G1 X70.150 Y79.613 E7.43106
G1 F1800.000 E2.93106
G92 E0
G1 X77.950 Y75.250 F3600.000
G1 F1800.000 E4.50000
G1 X77.563 Y74.863 F600.000 E4.55400
G1 X77.700 Y74.038 E4.63639
G1 X79.113 Y75.450 E4.83399
G1 X80.275 Y75.650 E4.95057
G1 X77.863 Y73.238 E5.28718
G1 X78.800 Y73.225 E5.37980
G1 X81.438 Y75.863 E5.74781
G1 X82.613 Y76.063 E5.86439
G1 X79.963 Y73.425 E6.23238
G1 X81.138 Y73.638 E6.34897
G1 X83.775 Y76.275 E6.71695
G1 X84.938 Y76.475 E6.83352
G1 X82.300 Y73.838 E7.20148
G1 X83.463 Y74.038 E7.31807
G1 X86.100 Y76.675 E7.68601
G1 X87.263 Y76.888 E7.80258
G1 X84.625 Y74.250 E8.17050
G1 X85.788 Y74.450 E8.28709
G1 X88.425 Y77.088 E8.65499
G1 X89.588 Y77.300 E8.77156
G1 X86.950 Y74.663 E9.13945
G1 X88.113 Y74.863 E9.25603
G1 X90.525 Y77.275 E9.59213
G1 X90.688 Y76.475 E9.67260
G1 X89.275 Y75.075 E9.86844
G1 X90.450 Y75.275 E9.98503
G1 X90.825 Y75.663 E10.03900
G1 F1800.000 E5.53900
G92 E0
G1 X90.825 Y50.425 F3600.000
G1 F1800.000 E4.50000
G1 X90.450 Y50.038 F600.000 E4.55397
G1 X89.275 Y49.825 E4.67056
G1 X90.688 Y51.238 E4.86640
G1 X90.525 Y52.038 E4.94687
G1 X88.113 Y49.625 E5.28296
G1 X86.950 Y49.425 E5.39955
G1 X89.588 Y52.063 E5.76763
G1 X88.425 Y51.850 E5.88422
G1 X85.788 Y49.213 E6.25230
G1 X84.625 Y49.013 E6.36889
G1 X87.263 Y51.650 E6.73697
G1 X86.100 Y51.438 E6.85356
G1 X83.463 Y48.800 E7.22164
G1 X82.300 Y48.600 E7.33823
G1 X84.938 Y51.238 E7.70631
G1 X83.775 Y51.038 E7.82290
G1 X81.138 Y48.388 E8.19098
G1 X79.963 Y48.188 E8.30757
G1 X82.613 Y50.825 E8.67565
G1 X81.438 Y50.625 E8.79224
G1 X78.800 Y47.988 E9.16033
G1 X77.863 Y48.000 E9.25295
G1 X80.275 Y50.413 E9.58961
G1 X79.113 Y50.213 E9.70620
G1 X77.700 Y48.800 E9.90384
G1 X77.563 Y49.613 E9.98622
G1 X77.950 Y50.000 E10.04023
G1 F1800.000 E5.54023
G92 E0
G1 X41.838 Y73.113 F3600.000
G1 F1800.000 E4.50000
G1 X42.175 Y73.450 F600.000 E4.54608
G1 X42.388 Y74.575 E4.65298
G1 X41.063 Y73.250 E4.82955
G1 X40.288 Y73.375 E4.90319
G1 X42.138 Y75.225 E5.14799
G1 X41.363 Y75.363 E5.22164
G1 X39.513 Y73.513 E5.46644
G1 X38.738 Y73.650 E5.54008
G1 X40.588 Y75.500 E5.78488
G1 X39.813 Y75.638 E5.85853
G1 X37.963 Y73.788 E6.10332
G1 X37.188 Y73.925 E6.17697
G1 X39.038 Y75.775 E6.42177
G1 X38.263 Y75.913 E6.49542
G1 X36.413 Y74.063 E6.74021
G1 X35.638 Y74.200 E6.81386
G1 X37.488 Y76.050 E7.05866
G1 X36.713 Y76.188 E7.13230
G1 X34.863 Y74.338 E7.37710
G1 X34.088 Y74.475 E7.45075
G1 X35.938 Y76.325 E7.69555
G1 X35.163 Y76.463 E7.76919
G1 X33.313 Y74.613 E8.01399
G1 X32.538 Y74.750 E8.08764
G1 X34.388 Y76.588 E8.33243
G1 X33.613 Y76.725 E8.40608
G1 X31.775 Y74.888 E8.65088
G1 X31.000 Y75.025 E8.72452
G1 X32.838 Y76.863 E8.96932
G1 X32.075 Y77.000 E9.04297
G1 X30.225 Y75.150 E9.28777
G1 X29.450 Y75.288 E9.36141
G1 X31.300 Y77.138 E9.60621
G1 X30.525 Y77.275 E9.67986
G1 X29.188 Y75.938 E9.85642
G1 X29.400 Y77.063 E9.96330
G1 X29.750 Y77.413 E10.00938
G1 F1800.000 E5.50938
G92 E0
G1 X19.063 Y84.338 F3600.000
G1 F1800.000 E4.50000
G1 X18.463 Y83.750 F600.000 E4.57804
G1 X17.225 Y83.400 E4.69777
G1 X19.063 Y85.238 E4.93899
G1 X19.063 Y86.138 E5.02241
G1 X16.588 Y83.663 E5.34705
G1 X15.775 Y83.750 E5.42260
G1 X19.063 Y87.038 E5.85344
G1 X19.063 Y87.938 E5.93685
G1 X14.875 Y83.750 E6.48530
G1 X13.975 Y83.763 E6.56846
G1 X19.063 Y88.838 E7.23451
G1 X19.063 Y89.738 E7.31793
G1 X13.075 Y83.763 E8.10159
G1 X12.188 Y83.763
G1 X19.063 Y90.638 E9.00286
G1 X19.575 Y91.163
G1 X23.100 Y94.688 E9.46424
G1 X24.000 Y94.688 E9.54766
G1 X20.475 Y91.163 E10.00904
G1 X21.375 Y91.163 E10.09246
G1 X24.900 Y94.688 E10.55384
G1 X25.800 Y94.688 E10.63726
G1 X22.288 Y91.163 E11.09864
G1 X23.188 Y91.163 E11.18205
G1 X26.700 Y94.688 E11.64344
G1 X27.600 Y94.688 E11.72685
G1 X24.088 Y91.163 E12.18823
G1 X24.988 Y91.163 E12.27165
G1 X28.500 Y94.688 E12.73303
G1 X29.400 Y94.688 E12.81645
G1 X25.888 Y91.163 E13.27783
G1 X26.788 Y91.163 E13.36125
G1 X30.300 Y94.688 E13.82263
G1 X31.200 Y94.688 E13.90605
G1 X27.688 Y91.163 E14.36743
G1 X28.588 Y91.163 E14.45084
G1 X32.100 Y94.688 E14.91223
G1 X33.000 Y94.688 E14.99564
G1 X29.488 Y91.163 E15.45702
G1 X30.388 Y91.163 E15.54044
G1 X33.913 Y94.688 E16.00182
G1 X34.813 Y94.688 E16.08524
G1 X31.288 Y91.163 E16.54662
G1 X32.188 Y91.163 E16.63004
G1 X35.713 Y94.688 E17.09142
G1 X36.613 Y94.688 E17.17484
G1 X33.088 Y91.163 E17.63622
G1 X33.988 Y91.163 E17.71963
G1 X37.513 Y94.688 E18.18102
G1 X38.413 Y94.688 E18.26443
G1 X34.888 Y91.163 E18.72581
G1 X35.788 Y91.163 E18.80923
G1 X39.313 Y94.688 E19.27061
G1 X40.213 Y94.688 E19.35403
G1 X36.688 Y91.163 E19.81541
G1 X37.588 Y91.163 E19.89883
G1 X41.113 Y94.688 E20.36021
G1 X42.013 Y94.688 E20.44363
G1 X38.488 Y91.163 E20.90501
G1 X39.388 Y91.163 E20.98842
G1 X42.913 Y94.688 E21.44981
G1 X43.813 Y94.688 E21.53322
G1 X40.288 Y91.163 E21.99460
G1 X41.188 Y91.163 E22.07802
G1 X44.713 Y94.688 E22.53940
G1 X45.613 Y94.688 E22.62282
G1 X42.088 Y91.163 E23.08420
G1 X42.988 Y91.163 E23.16762
G1 X46.513 Y94.688 E23.62900
G1 X47.413 Y94.688 E23.71241
G1 X43.888 Y91.163 E24.17380
G1 X44.788 Y91.163 E24.25721
G1 X48.313 Y94.688 E24.71860
G1 X49.213 Y94.688 E24.80201
G1 X45.688 Y91.163 E25.26339
G1 X46.588 Y91.163 E25.34681
G1 X50.113 Y94.688 E25.80819
G1 X51.013 Y94.688 E25.89161
G1 X47.488 Y91.163 E26.35299
G1 X48.388 Y91.163 E26.43641
G1 X51.913 Y94.688 E26.89779
G1 X52.813 Y94.688 E26.98120
G1 X49.288 Y91.163 E27.44259
G1 X50.188 Y91.163 E27.52600
G1 X53.713 Y94.688 E27.98739
G1 X54.613 Y94.688 E28.07080
G1 X51.100 Y91.163 E28.53218
G1 X52.000 Y91.163 E28.61560
G1 X55.513 Y94.688 E29.07698
G1 X56.413 Y94.688 E29.16040
G1 X52.900 Y91.163 E29.62178
G1 X53.800 Y91.163 E29.70520
G1 X57.313 Y94.688 E30.16658
G1 X58.213 Y94.688 E30.24999
G1 X54.700 Y91.163 E30.71138
G1 X55.600 Y91.163 E30.79479
G1 X59.113 Y94.688 E31.25617
G1 X60.013 Y94.688 E31.33959
G1 X56.500 Y91.163 E31.80097
G1 X57.400 Y91.163 E31.88439
G1 X60.913 Y94.688 E32.34577
G1 X61.813 Y94.688 E32.42919
G1 X58.300 Y91.163 E32.89057
G1 X59.200 Y91.163 E32.97399
G1 X62.725 Y94.688 E33.43537
G1 X63.625 Y94.688 E33.51878
G1 X60.100 Y91.163 E33.98017
G1 X61.000 Y91.163 E34.06358
G1 X64.525 Y94.688 E34.52496
G1 X65.425 Y94.688 E34.60838
G1 X61.900 Y91.163 E35.06976
G1 X62.800 Y91.163 E35.15318
G1 X66.325 Y94.688 E35.61456
G1 X67.225 Y94.688 E35.69798
G1 X63.700 Y91.163 E36.15936
G1 X64.600 Y91.163 E36.24278
G1 X68.125 Y94.688 E36.70416
G1 X69.025 Y94.688 E36.78757
G1 X65.500 Y91.163 E37.24896
G1 X66.400 Y91.163 E37.33237
G1 X69.925 Y94.688 E37.79375
G1 X70.825 Y94.688 E37.87717
G1 X67.300 Y91.163 E38.33855
G1 X68.200 Y91.163 E38.42197
G1 X71.725 Y94.688 E38.88335
G1 X72.625 Y94.688 E38.96677
G1 X69.100 Y91.163 E39.42815
G1 X70.000 Y91.163 E39.51157
G1 X73.525 Y94.688 E39.97295
G1 X74.425 Y94.688 E40.05636
G1 X70.900 Y91.163 E40.51775
G1 X71.800 Y91.163 E40.60116
G1 X75.325 Y94.688 E41.06254
G1 X76.225 Y94.688 E41.14596
G1 X72.700 Y91.163 E41.60734
G1 X73.600 Y91.163 E41.69076
G1 X77.125 Y94.688 E42.15214
G1 X78.025 Y94.688 E42.23556
G1 X74.500 Y91.163 E42.69694
G1 X75.400 Y91.163 E42.78036
G1 X78.925 Y94.688 E43.24174
G1 X79.825 Y94.688 E43.32515
G1 X76.300 Y91.163 E43.78654
G1 X77.200 Y91.163 E43.86995
G1 X80.725 Y94.688 E44.33133
G1 X81.625 Y94.688 E44.41475
G1 X78.100 Y91.163 E44.87613
G1 X79.000 Y91.163 E44.95955
G1 X82.525 Y94.688 E45.42093
G1 X83.425 Y94.688 E45.50435
G1 X79.913 Y91.163 E45.96573
G1 X80.813 Y91.163 E46.04914
G1 X84.325 Y94.688 E46.51053
G1 X85.225 Y94.688 E46.59394
G1 X81.713 Y91.163 E47.05533
G1 X82.613 Y91.163 E47.13874
G1 X86.125 Y94.688 E47.60012
G1 X87.025 Y94.688 E47.68354
G1 X83.513 Y91.163 E48.14492
G1 X84.413 Y91.163 E48.22834
G1 X87.925 Y94.688 E48.68972
G1 X88.825 Y94.688 E48.77314
G1 X85.313 Y91.163 E49.23452
G1 X86.213 Y91.163 E49.31793
G1 X89.725 Y94.688 E49.77932
G1 X90.625 Y94.688 E49.86273
G1 X87.113 Y91.163 E50.32412
G1 X88.013 Y91.163 E50.40753
G1 X91.538 Y94.688 E50.86891
G1 X92.438 Y94.688 E50.95233
G1 X88.913 Y91.163 E51.41371
G1 X89.813 Y91.163 E51.49713
G1 X93.338 Y94.688 E51.95851
G1 X94.238 Y94.688 E52.04193
G1 X90.713 Y91.163 E52.50331
G1 X91.613 Y91.163 E52.58672
G1 X95.138 Y94.688 E53.04811
G1 X96.038 Y94.688 E53.13152
G1 X92.513 Y91.163 E53.59291
G1 X93.413 Y91.163 E53.67632
G1 X96.938 Y94.688 E54.13770
G1 X97.838 Y94.688 E54.22112
G1 X94.313 Y91.163 E54.68250
G1 X95.213 Y91.163 E54.76592
G1 X98.738 Y94.688 E55.22730
G1 X99.638 Y94.688 E55.31072
G1 X96.113 Y91.163 E55.77210
G1 X97.013 Y91.163 E55.85551
G1 X100.538 Y94.688 E56.31690
G1 X101.438 Y94.688 E56.40031
G1 X97.913 Y91.163 E56.86169
G1 X98.813 Y91.163 E56.94511
G1 X102.338 Y94.688 E57.40649
G1 X103.238 Y94.688 E57.48991
G1 X99.713 Y91.163 E57.95129
G1 X100.613 Y91.163 E58.03471
G1 X104.138 Y94.688 E58.49609
G1 X105.038 Y94.688 E58.57951
G1 X100.925 Y90.575 E59.11814
G1 X100.925 Y89.675 E59.20155
G1 X105.938 Y94.688 E59.85815
G1 X106.838 Y94.688 E59.94157
G1 X100.925 Y88.775 E60.71613
G1 X100.925 Y87.875 E60.79955
G1 X107.738 Y94.688 E61.69208
G1 X108.638 Y94.688 E61.77550
G1 X100.925 Y86.975 E62.78600
G1 X100.925 Y86.075 E62.86942
G1 X109.538 Y94.688 E63.99789
G1 X110.438 Y94.688 E64.08130
G1 X100.925 Y85.175 E65.32774
G1 X100.925 Y84.275 E65.41116
G1 X110.663 Y94.000 E66.68602
G1 X110.663 Y93.100 E66.76943
G1 X101.313 Y83.750 E67.99404
G1 X102.050 Y83.600 E68.06465
G1 X110.663 Y92.200 E69.19147
G1 X110.663 Y91.300 E69.27488
G1 X102.663 Y83.300 E70.32297
G1 X104.025 Y83.763 F3600.000
G1 X110.663 Y90.400 F600.000 E71.19250
G1 X110.663 Y89.500 E71.27592
G1 X104.925 Y83.763 E72.02748
G1 X105.825 Y83.763 E72.11089
G1 X110.663 Y88.600 E72.74449
G1 X110.663 Y87.700 E72.82790
G1 X106.725 Y83.763 E73.34353
G1 X107.625 Y83.763 E73.42694
G1 X110.663 Y86.800 E73.82460
G1 X110.663 Y85.900 E73.90802
G1 X108.400 Y83.650 E74.20303
G1 X108.400 Y82.750 E74.28643
G1 X110.663 Y85.000 E74.58143
G1 X110.663 Y84.100 E74.66484
G1 X108.400 Y81.838 E74.95982
G1 X108.400 Y80.938 E75.04323
G1 X110.663 Y83.200 E75.33820
G1 X110.663 Y82.300 E75.42161
G1 X108.400 Y80.038 E75.71657
G1 X108.400 Y79.138 E75.79998
G1 X110.663 Y81.400 E76.09492
G1 X110.663 Y80.488 E76.17833
G1 X108.400 Y78.238 E76.47326
G1 X108.400 Y77.338 E76.55667
G1 X110.663 Y79.588 E76.85158
G1 X110.663 Y78.688 E76.93500
G1 X108.400 Y76.438 E77.22990
G1 X108.400 Y75.538 E77.31331
G1 X110.663 Y77.788 E77.60820
G1 X110.663 Y76.888 E77.69161
G1 X108.400 Y74.638 E77.98649
G1 X108.400 Y73.738 E78.06989
G1 X110.663 Y75.988 E78.36476
G1 X110.663 Y75.088 E78.44817
G1 X108.400 Y72.838 E78.74302
G1 X108.400 Y71.938 E78.82643
G1 X110.663 Y74.188 E79.12126
G1 X110.663 Y73.288 E79.20468
G1 X108.413 Y71.038 E79.49950
G1 X108.300 Y70.925
G1 X100.925 Y63.563 E80.46494
G1 X100.925 Y62.663
G1 X110.663 Y72.388 E81.73980
G1 X110.663 Y71.488 E81.82321
G1 X100.925 Y61.763 E83.09807
G1 X100.925 Y60.863 E83.18149
G1 X110.663 Y70.588 E84.45635
G1 X110.663 Y69.688 E84.53977
G1 X100.925 Y59.963 E85.81463
G1 X100.925 Y59.063 E85.89805
G1 X110.663 Y68.788 E87.17291
G1 X110.663 Y67.888 E87.25632
G1 X101.275 Y58.513 E88.48472
G1 X102.038 Y58.363 E88.55593
G1 X110.663 Y66.988 E89.68544
G1 X110.663 Y66.088 E89.76885
G1 X102.638 Y58.075 E90.81869
G1 X103.988 Y58.525 E90.95019
G1 X110.663 Y65.188 E91.82352
G1 X110.663 Y64.288 E91.90693
G1 X104.888 Y58.525 E92.66230
G1 X105.788 Y58.525 E92.74572
G1 X110.663 Y63.388 E93.38311
G1 X110.663 Y62.488 E93.46653
G1 X106.688 Y58.525 E93.98596
G1 X107.588 Y58.525 E94.06937
G1 X110.663 Y61.588 E94.47083
G1 X110.663 Y60.688 E94.55425
G1 X108.400 Y58.438 E94.84924
G1 X108.400 Y57.538 E94.93265
G1 X110.663 Y59.788 E95.22764
G1 X110.663 Y58.888 E95.31106
G1 X108.400 Y56.638 E95.60605
G1 X108.400 Y55.738 E95.68946
G1 X110.663 Y57.988 E95.98445
G1 X110.663 Y57.088 E96.06787
G1 X108.400 Y54.838 E96.36286
G1 X108.400 Y53.938 E96.44627
G1 X110.663 Y56.188 E96.74126
G1 X110.663 Y55.288 E96.82468
G1 X108.400 Y53.025 E97.11967
G1 X108.400 Y52.125 E97.20308
G1 X110.663 Y54.388 E97.49807
G1 X110.663 Y53.488 E97.58149
G1 X108.400 Y51.225 E97.87647
G1 X108.400 Y50.325 E97.95989
G1 X110.663 Y52.588 E98.25488
G1 X110.663 Y51.675 E98.33830
G1 X108.400 Y49.425 E98.63328
G1 X108.400 Y48.525 E98.71670
G1 X110.663 Y50.775 E99.01169
G1 X110.663 Y49.875 E99.09510
G1 X108.400 Y47.625 E99.39009
G1 X108.400 Y46.725 E99.47351
G1 X110.663 Y48.975 E99.76850
G1 X110.663 Y48.075 E99.85191
G1 X108.400 Y45.825 E100.14690
G1 X108.263 Y45.688
G1 X100.925 Y38.350 E101.10854
G1 X100.925 Y37.450
G1 X110.663 Y47.175 E102.38340
G1 X110.663 Y46.275 E102.46682
G1 X100.925 Y36.550 E103.74168
G1 X100.925 Y35.650 E103.82510
G1 X110.663 Y45.375 E105.09996
G1 X110.663 Y44.475 E105.18337
G1 X100.925 Y34.750 E106.45824
G1 X100.925 Y33.850 E106.54165
G1 X110.663 Y43.575 E107.81651
G1 X110.663 Y42.675 E107.89993
G1 X100.925 Y32.950 E109.17479
G1 X100.925 Y32.050 E109.25821
G1 X110.663 Y41.775 E110.53307
G1 X110.663 Y40.875 E110.61648
G1 X100.925 Y31.150 E111.89135
G1 X100.925 Y30.250 E111.97476
G1 X110.663 Y39.975 E113.24962
G1 X110.663 Y39.075 E113.33304
G1 X100.925 Y29.350 E114.60790
G1 X100.413 Y28.825
G1 X96.888 Y25.300 E115.06928
G1 X97.788 Y25.300
G1 X110.663 Y38.175 E116.75553
G1 X110.663 Y37.275 E116.83894
G1 X98.688 Y25.300 E118.40722
G1 X99.588 Y25.300 E118.49063
G1 X110.663 Y36.375 E119.94094
G1 X110.663 Y35.475 E120.02436
G1 X100.488 Y25.300 E121.35670
G1 X101.388 Y25.300 E121.44011
G1 X110.663 Y34.575 E122.65448
G1 X110.663 Y33.675 E122.73790
G1 X102.288 Y25.300 E123.83430
G1 X103.188 Y25.300 E123.91772
G1 X110.663 Y32.775 E124.89615
G1 X110.663 Y31.875 E124.97957
G1 X104.088 Y25.300 E125.84004
G1 X104.988 Y25.300 E125.92345
G1 X110.663 Y30.975 E126.66595
G1 X110.663 Y30.075 E126.74937
G1 X105.888 Y25.300 E127.37390
G1 X106.788 Y25.300 E127.45731
G1 X110.663 Y29.175 E127.96388
G1 X110.663 Y28.275 E128.04729
G1 X107.688 Y25.300 E128.43589
G1 X108.588 Y25.300 E128.51930
G1 X110.663 Y27.375 E128.78993
G1 X110.663 Y26.475 E128.87334
G1 X109.488 Y25.300 E129.02600
G1 X110.388 Y25.300 E129.10942
G1 X110.663 Y25.575 E129.14411
G1 X99.513 Y28.825 F3600.000
G1 X95.988 Y25.300 F600.000 E129.60549
G1 X95.088 Y25.300 E129.68891
G1 X98.613 Y28.825 E130.15029
G1 X97.700 Y28.825 E130.23370
G1 X94.188 Y25.300 E130.69509
G1 X93.288 Y25.300 E130.77850
G1 X96.800 Y28.825 E131.23989
G1 X95.900 Y28.825 E131.32330
G1 X92.388 Y25.300 E131.78468
G1 X91.488 Y25.300 E131.86810
G1 X95.000 Y28.825 E132.32948
G1 X94.100 Y28.825 E132.41290
G1 X90.588 Y25.300 E132.87428
G1 X89.688 Y25.300 E132.95770
G1 X93.200 Y28.825 E133.41908
G1 X92.300 Y28.825 E133.50249
G1 X88.788 Y25.300 E133.96388
G1 X87.888 Y25.300 E134.04729
G1 X91.400 Y28.825 E134.50868
G1 X90.500 Y28.825 E134.59209
G1 X86.988 Y25.300 E135.05347
G1 X86.075 Y25.300 E135.13689
G1 X89.600 Y28.825 E135.59827
G1 X88.700 Y28.825 E135.68169
G1 X85.175 Y25.300 E136.14307
G1 X84.275 Y25.300 E136.22649
G1 X87.800 Y28.825 E136.68787
G1 X86.900 Y28.825 E136.77128
G1 X83.375 Y25.300 E137.23267
G1 X82.475 Y25.300 E137.31608
G1 X86.000 Y28.825 E137.77746
G1 X85.100 Y28.825 E137.86088
G1 X81.575 Y25.300 E138.32226
G1 X80.675 Y25.300 E138.40568
G1 X84.200 Y28.825 E138.86706
G1 X83.300 Y28.825 E138.95048
G1 X79.775 Y25.300 E139.41186
G1 X78.875 Y25.300 E139.49528
G1 X82.400 Y28.825 E139.95666
G1 X81.500 Y28.825 E140.04007
G1 X77.975 Y25.300 E140.50146
G1 X77.075 Y25.300 E140.58487
G1 X80.600 Y28.825 E141.04625
G1 X79.700 Y28.825 E141.12967
G1 X76.175 Y25.300 E141.59105
G1 X75.275 Y25.300 E141.67447
G1 X78.800 Y28.825 E142.13585
G1 X77.900 Y28.825 E142.21927
G1 X74.375 Y25.300 E142.68065
G1 X73.475 Y25.300 E142.76407
G1 X77.000 Y28.825 E143.22545
G1 X76.100 Y28.825 E143.30886
G1 X72.575 Y25.300 E143.77025
G1 X71.675 Y25.300 E143.85366
G1 X75.200 Y28.825 E144.31504
G1 X74.300 Y28.825 E144.39846
G1 X70.775 Y25.300 E144.85984
G1 X69.875 Y25.300 E144.94326
G1 X73.400 Y28.825 E145.40464
G1 X72.500 Y28.825 E145.48806
G1 X68.975 Y25.300 E145.94944
G1 X68.075 Y25.300 E146.03286
G1 X71.600 Y28.825 E146.49424
G1 X70.700 Y28.825 E146.57765
G1 X67.175 Y25.300 E147.03904
G1 X66.275 Y25.300 E147.12245
G1 X69.800 Y28.825 E147.58383
G1 X68.888 Y28.825 E147.66725
G1 X65.375 Y25.300 E148.12863
G1 X64.475 Y25.300 E148.21205
G1 X67.988 Y28.825 E148.67343
G1 X67.088 Y28.825 E148.75685
G1 X63.575 Y25.300 E149.21823
G1 X62.675 Y25.300 E149.30165
G1 X66.188 Y28.825 E149.76303
G1 X65.288 Y28.825 E149.84644
G1 X61.775 Y25.300 E150.30783
G1 X60.875 Y25.300 E150.39124
G1 X64.388 Y28.825 E150.85262
G1 X63.488 Y28.825 E150.93604
G1 X59.975 Y25.300 E151.39742
G1 X59.075 Y25.300 E151.48084
G1 X62.588 Y28.825 E151.94222
G1 X61.688 Y28.825 E152.02564
G1 X58.175 Y25.300 E152.48702
G1 X57.263 Y25.300 E152.57044
G1 X60.788 Y28.825 E153.03182
G1 X59.888 Y28.825 E153.11523
G1 X56.363 Y25.300 E153.57662
G1 X55.463 Y25.300 E153.66003
G1 X58.988 Y28.825 E154.12141
G1 X58.088 Y28.825 E154.20483
G1 X54.563 Y25.300 E154.66621
G1 X53.663 Y25.300 E154.74963
G1 X57.188 Y28.825 E155.21101
G1 X56.288 Y28.825 E155.29443
G1 X52.763 Y25.300 E155.75581
G1 X51.863 Y25.300 E155.83922
G1 X55.388 Y28.825 E156.30061
G1 X54.488 Y28.825 E156.38402
G1 X50.963 Y25.300 E156.84541
G1 X50.063 Y25.300 E156.92882
G1 X53.588 Y28.825 E157.39020
G1 X52.688 Y28.825 E157.47362
G1 X49.163 Y25.300 E157.93500
G1 X48.263 Y25.300 E158.01842
G1 X51.788 Y28.825 E158.47980
G1 X50.888 Y28.825 E158.56322
G1 X47.363 Y25.300 E159.02460
G1 X46.463 Y25.300 E159.10801
G1 X49.988 Y28.825 E159.56940
G1 X49.088 Y28.825 E159.65281
G1 X45.563 Y25.300 E160.11420
G1 X44.663 Y25.300 E160.19761
G1 X48.188 Y28.825 E160.65899
G1 X47.288 Y28.825 E160.74241
G1 X43.763 Y25.300 E161.20379
G1 X42.863 Y25.300 E161.28721
G1 X46.388 Y28.825 E161.74859
G1 X45.488 Y28.825 E161.83201
G1 X41.963 Y25.300 E162.29339
G1 X41.063 Y25.300 E162.37680
G1 X44.588 Y28.825 E162.83819
G1 X43.688 Y28.825 E162.92160
G1 X40.163 Y25.300 E163.38298
G1 X39.263 Y25.300 E163.46640
G1 X42.788 Y28.825 E163.92778
G1 X41.888 Y28.825 E164.01120
G1 X38.363 Y25.300 E164.47258
G1 X37.463 Y25.300 E164.55600
G1 X40.988 Y28.825 E165.01738
G1 X40.075 Y28.825 E165.10080
G1 X36.563 Y25.300 E165.56218
G1 X35.663 Y25.300 E165.64559
G1 X39.175 Y28.825 E166.10698
G1 X38.275 Y28.825 E166.19039
G1 X34.763 Y25.300 E166.65177
G1 X33.863 Y25.300 E166.73519
G1 X37.375 Y28.825 E167.19657
G1 X36.475 Y28.825 E167.27999
G1 X32.963 Y25.300 E167.74137
G1 X32.063 Y25.300 E167.82479
G1 X35.575 Y28.825 E168.28617
G1 X34.675 Y28.825 E168.36959
G1 X31.163 Y25.300 E168.83097
G1 X30.263 Y25.300 E168.91438
G1 X33.775 Y28.825 E169.37577
G1 X32.875 Y28.825 E169.45918
G1 X29.363 Y25.300 E169.92056
G1 X28.450 Y25.300 E170.00398
G1 X31.975 Y28.825 E170.46536
G1 X31.075 Y28.825 E170.54878
G1 X27.550 Y25.300 E171.01016
G1 X26.650 Y25.300 E171.09358
G1 X30.175 Y28.825 E171.55496
G1 X29.275 Y28.825 E171.63838
G1 X25.750 Y25.300 E172.09976
G1 X24.850 Y25.300 E172.18317
G1 X28.375 Y28.825 E172.64456
G1 X27.475 Y28.825 E172.72797
G1 X23.950 Y25.300 E173.18935
G1 X23.050 Y25.300 E173.27277
G1 X26.575 Y28.825 E173.73415
G1 X25.675 Y28.825 E173.81757
G1 X22.150 Y25.300 E174.27895
G1 X21.250 Y25.300 E174.36237
G1 X24.775 Y28.825 E174.82375
G1 X23.875 Y28.825 E174.90717
G1 X20.350 Y25.300 E175.36855
G1 X19.450 Y25.300 E175.45196
G1 X22.975 Y28.825 E175.91335
G1 X22.075 Y28.825 E175.99676
G1 X18.550 Y25.300 E176.45814
G1 X17.650 Y25.300 E176.54156
G1 X21.175 Y28.825 E177.00294
G1 X20.275 Y28.825 E177.08636
G1 X16.750 Y25.300 E177.54774
G1 X15.850 Y25.300 E177.63116
G1 X19.375 Y28.825 E178.09254
G1 X19.063 Y29.413 E178.15429
G1 X14.950 Y25.300 E178.69292
G1 X14.050 Y25.300 E178.77633
G1 X19.063 Y30.313 E179.43293
G1 X19.063 Y31.213 E179.51635
G1 X13.150 Y25.300 E180.29091
G1 X12.250 Y25.300 E180.37433
G1 X19.063 Y32.113 E181.26686
G1 X19.063 Y33.013 E181.35028
G1 X11.350 Y25.300 E182.36078
G1 X10.450 Y25.300 E182.44420
G1 X19.063 Y33.913 E183.57267
G1 X19.063 Y34.813 E183.65608
G1 X9.550 Y25.300 E184.90252
G1 X9.325 Y25.988 E184.96895
G1 X19.063 Y35.713 E186.24381
G1 X19.063 Y36.625 E186.32723
G1 X9.325 Y26.888 E187.60209
G1 X9.325 Y27.788 E187.68551
G1 X19.063 Y37.525 E188.96037
G1 X19.063 Y38.425 E189.04379
G1 X9.325 Y28.688 E190.31865
G1 X9.325 Y29.588 E190.40206
G1 X19.063 Y39.325 E191.67693
G1 X19.063 Y40.225 E191.76034
G1 X9.325 Y30.488 E193.03520
G1 X9.325 Y31.388 E193.11862
G1 X19.063 Y41.125 E194.39348
G1 X19.063 Y42.025 E194.47690
G1 X9.325 Y32.288 E195.75176
G1 X9.325 Y33.188 E195.83517
G1 X19.063 Y42.925 E197.11004
G1 X19.063 Y43.825 E197.19345
G1 X9.325 Y34.088 E198.46831
G1 X9.325 Y34.988 E198.55173
G1 X19.063 Y44.725 E199.82659
G1 X19.063 Y45.625 E199.91001
G1 X9.325 Y35.888 E201.18487
G1 X9.325 Y36.788 E201.26829
G1 X18.263 Y45.725 E202.43793
G1 X17.625 Y45.988 E202.50177
G1 X9.325 Y37.688 E203.58799
G1 X9.325 Y38.588 E203.67141
G1 X16.525 Y45.788 E204.61370
G1 X15.525 Y45.688 E204.70615
G1 X9.325 Y39.500 E205.51826
G1 X9.325 Y40.400 E205.60168
G1 X14.625 Y45.688 E206.29583
G1 X13.725 Y45.688 E206.37924
G1 X9.325 Y41.300 E206.95542
G1 X9.325 Y42.200 E207.03884
G1 X12.825 Y45.688 E207.49705
G1 X11.925 Y45.688 E207.58047
G1 X9.325 Y43.100 E207.92071
G1 X9.325 Y44.000 E208.00413
G1 X11.588 Y46.250 E208.29911
G1 X11.588 Y47.150 E208.38253
G1 X9.325 Y44.900 E208.67752
G1 X9.325 Y45.800 E208.76094
G1 X11.588 Y48.050 E209.05592
G1 X11.588 Y48.950 E209.13934
G1 X9.325 Y46.700 E209.43433
G1 X9.325 Y47.600 E209.51774
G1 X11.588 Y49.850 E209.81273
G1 X11.588 Y50.750 E209.89615
G1 X9.325 Y48.500 E210.19114
G1 X9.325 Y49.400 E210.27455
G1 X11.588 Y51.650 E210.56954
G1 X11.588 Y52.550 E210.65296
G1 X9.325 Y50.300 E210.94795
G1 X9.325 Y51.200 E211.03136
G1 X11.588 Y53.450 E211.32635
G1 X11.588 Y54.350 E211.40977
G1 X9.325 Y52.100 E211.70476
G1 X9.325 Y53.000 E211.78817
G1 X11.588 Y55.250 E212.08316
G1 X11.588 Y56.150 E212.16658
G1 X9.325 Y53.900 E212.46156
G1 X9.325 Y54.800 E212.54498
G1 X11.588 Y57.050 E212.83997
G1 X11.588 Y57.950 E212.92339
G1 X9.325 Y55.700 E213.21837
G1 X9.325 Y56.600
G1 X19.063 Y66.338 E214.49324
G1 X19.063 Y67.238
G1 X9.325 Y57.500 E215.76810
G1 X9.325 Y58.400 E215.85151
G1 X19.063 Y68.138 E217.12637
G1 X19.063 Y69.038 E217.20979
G1 X9.325 Y59.300 E218.48465
G1 X9.325 Y60.200 E218.56807
G1 X19.063 Y69.938 E219.84293
G1 X19.063 Y70.838 E219.92635
G1 X9.325 Y61.100 E221.20121
G1 X9.325 Y62.000 E221.28462
G1 X18.275 Y70.950 E222.45695
G1 X17.638 Y71.213 E222.52080
G1 X9.325 Y62.900 E223.60971
G1 X9.325 Y63.800 E223.69313
G1 X16.563 Y71.038 E224.64042
G1 X15.563 Y70.938 E224.73380
G1 X9.325 Y64.700 E225.54972
G1 X9.325 Y65.600 E225.63313
G1 X14.663 Y70.938 E226.33108
G1 X13.763 Y70.938 E226.41450
G1 X9.325 Y66.500 E226.99448
G1 X9.325 Y67.400 E227.07790
G1 X12.863 Y70.938 E227.53991
G1 X11.963 Y70.938 E227.62333
G1 X9.325 Y68.313 E227.96737
G1 X9.325 Y69.213 E228.05079
G1 X11.588 Y71.463 E228.34562
G1 X11.588 Y72.363 E228.42904
G1 X9.325 Y70.113 E228.72389
G1 X9.325 Y71.013 E228.80730
G1 X11.588 Y73.263 E229.10216
G1 X11.588 Y74.163 E229.18558
G1 X9.325 Y71.913 E229.48045
G1 X9.325 Y72.813 E229.56387
G1 X11.588 Y75.063 E229.85875
G1 X11.588 Y75.963 E229.94217
G1 X9.325 Y73.713 E230.23707
G1 X9.325 Y74.613 E230.32049
G1 X11.588 Y76.863 E230.61539
G1 X11.588 Y77.763 E230.69882
G1 X9.325 Y75.513 E230.99374
G1 X9.325 Y76.413 E231.07716
G1 X11.588 Y78.663 E231.37209
G1 X11.588 Y79.563 E231.45552
G1 X9.325 Y77.313 E231.75046
G1 X9.325 Y78.213 E231.83388
G1 X11.588 Y80.463 E232.12884
G1 X11.588 Y81.363 E232.21227
G1 X9.325 Y79.113 E232.50724
G1 X9.325 Y80.013 E232.59066
G1 X11.588 Y82.263 E232.88564
G1 X11.588 Y83.163
G1 X9.325 Y80.913 E233.18064
G1 X9.325 Y81.813
G1 X22.200 Y94.688 E234.86689
G1 X21.300 Y94.688 E234.95030
G1 X9.325 Y82.713 E236.51858
G1 X9.325 Y83.613 E236.60199
G1 X20.400 Y94.688 E238.05230
G1 X19.500 Y94.688 E238.13572
G1 X9.325 Y84.513 E239.46806
G1 X9.325 Y85.413 E239.55147
G1 X18.600 Y94.688 E240.76584
G1 X17.700 Y94.688 E240.84926
G1 X9.325 Y86.313 E241.94566
G1 X9.325 Y87.213 E242.02908
G1 X16.800 Y94.688 E243.00751
G1 X15.900 Y94.688 E243.09093
G1 X9.325 Y88.113 E243.95139
G1 X9.325 Y89.013 E244.03481
G1 X15.000 Y94.688 E244.77731
G1 X14.100 Y94.688 E244.86072
G1 X9.325 Y89.913 E245.48525
G1 X9.325 Y90.813 E245.56867
G1 X13.200 Y94.688 E246.07523
G1 X12.300 Y94.688 E246.15865
G1 X9.325 Y91.713 E246.54724
G1 X9.325 Y92.613 E246.63066
G1 X11.400 Y94.688 E246.90129
G1 X10.500 Y94.688 E246.98470
G1 X9.325 Y93.513 E247.13736
G1 X9.325 Y94.413 E247.22078
G1 X9.600 Y94.688 E247.25547
G1 F1800.000 E242.75547
G92 E0
G1 X19.063 Y65.438 F3600.000
G1 F1800.000 E4.50000
G1 X12.150 Y58.525 F600.000 E5.40506
G1 X13.050 Y58.525 E5.48822
G1 X19.063 Y64.525 E6.27568
G1 X19.063 Y63.625 E6.35909
G1 X13.950 Y58.513 E7.02894
G1 X14.850 Y58.513 E7.11210
G1 X19.063 Y62.725 E7.66434
G1 X19.063 Y61.825 E7.74775
G1 X15.750 Y58.513 E8.18238
G1 X16.563 Y58.425 E8.25863
G1 X19.063 Y60.925 E8.58595
G1 X19.063 Y60.025 E8.66937
G1 X17.200 Y58.163 E8.91328
G1 X18.425 Y58.500 E9.03101
G1 X19.063 Y59.125 E9.11405
G1 F1800.000 E4.61405
G92 E0
G1 X100.925 Y70.763 F3600.000
G1 F1800.000 E4.50000
G1 X101.100 Y70.938 F600.000 E4.52221
G1 X100.925 Y69.863 E4.62257
G1 X102.163 Y71.100 E4.78515
G1 X103.113 Y71.150 E4.87304
G1 X100.925 Y68.963 E5.15977
G1 X100.925 Y68.063 E5.24319
G1 X103.813 Y70.938 E5.62058
G1 X104.700 Y70.938 E5.70374
G1 X100.925 Y67.163 E6.19873
G1 X100.925 Y66.263 E6.28215
G1 X105.600 Y70.938 E6.89476
G1 X106.500 Y70.938 E6.97792
G1 X100.925 Y65.363 E7.70813
G1 X100.925 Y64.463 E7.79155
G1 X107.400 Y70.938 E8.63937
G1 X107.363 Y45.688 F3600.000
G1 X100.925 Y39.250 F600.000 E9.48340
G1 X100.925 Y40.150 E9.56682
G1 X106.475 Y45.700 E10.29324
G1 X105.575 Y45.700 E10.37640
G1 X100.925 Y41.050 E10.98522
G1 X100.925 Y41.950 E11.06864
G1 X104.675 Y45.700 E11.55984
G1 X103.775 Y45.700 E11.64300
G1 X100.925 Y42.850 E12.01660
G1 X100.925 Y43.750 E12.10002
G1 X103.100 Y45.925 E12.38406
G1 X102.125 Y45.850 E12.47357
G1 X100.925 Y44.650 E12.63129
G1 X100.925 Y45.550 E12.71471
G1 X101.063 Y45.688 E12.73312
; infill_end
; perimeter_start
G1 F1800.000 E8.23312
G92 E0
G1 X57.963 Y78.800 F3600.000
G1 F1800.000 E4.50000
G1 X57.975 Y77.538 F600.000 E4.61684
G1 X58.050 Y77.075 E4.65999
G1 X58.275 Y76.825 E4.69141
G1 X58.488 Y76.763 E4.71148
G1 X58.813 Y76.763 E4.74149
G1 X59.038 Y76.863 E4.76409
G1 X59.225 Y77.200 E4.79944
G1 X59.275 Y78.800 E4.94778
G1 X58.288 Y78.800 E5.03938
; perimeter_end
; infill_start
G1 X58.613 Y78.150
G1 X58.550 Y77.313 E5.11050
; infill_end
; perimeter_start
G1 F1800.000 E0.61050
G92 E0
G1 X60.650 Y78.800 F3600.000
G1 F1800.000 E4.50000
G1 X60.688 Y77.150 F600.000 E4.65213
G1 X60.775 Y76.863 E4.68065
G1 X61.050 Y76.588 E4.71615
G1 X61.275 Y76.513 E4.73811
G1 X61.613 Y76.525 E4.76917
G1 X62.013 Y76.725 E4.81063
G1 X62.175 Y77.125 E4.85037
G1 X62.200 Y78.800 E5.00545
G1 X60.975 Y78.800 E5.11952
; perimeter_end
; infill_start
G1 X61.438 Y78.413
G1 X61.375 Y77.113 E5.27045
; infill_end
; perimeter_start
G1 F1800.000 E0.77045
G92 E0
G1 X59.350 Y44.600 F3600.000
G1 F1800.000 E4.50000
G1 X57.963 Y44.600 F600.000 E4.62858
G1 X57.988 Y42.725 E4.80265
G1 X58.063 Y42.475 E4.82727
G1 X58.325 Y42.225 E4.85992
G1 X58.775 Y42.163 E4.90250
G1 X58.988 Y42.225 E4.92331
G1 X59.238 Y42.463 E4.95520
G1 X59.325 Y42.738 E4.98119
G1 X59.350 Y44.288 E5.12471
; perimeter_end
; infill_start
G1 X58.663 Y43.963
G1 X58.663 Y42.813 E5.23335
; infill_end
G1 F1800.000 E0.73335
G92 E0
; Layer: 2 Time: 518
G1 Z0.550 F3600.000
; Region: 0
; perimeter_start
G1 X19.875 Y46.513
G1 F1800.000 E4.50000
G1 X19.875 Y29.637 F900.000 E5.06107
G1 X100.113 Y29.637 E7.72974
G1 X100.113 Y46.512 E8.29072
G1 X101.350 Y46.512 E8.33206
G1 X101.913 Y46.638 E8.35114
G1 X102.400 Y47.063 E8.37265
G1 X102.575 Y47.488 E8.38797
G1 X103.200 Y46.750 E8.41998
G1 X103.775 Y46.513 E8.44064
G1 X107.587 Y46.500 E8.56740
G1 X107.587 Y57.712 E8.93997
G1 X103.950 Y57.712 E9.06110
G1 X103.388 Y57.575 E9.08018
G1 X102.900 Y57.150 E9.10169
G1 X102.725 Y56.725 E9.11701
G1 X102.100 Y57.463 E9.14902
G1 X101.525 Y57.700 E9.16966
G1 X100.113 Y57.700 E9.21665
G1 X100.113 Y71.750 E9.68372
G1 X101.350 Y71.750 E9.72507
G1 X101.913 Y71.875 E9.74415
G1 X102.400 Y72.300 E9.76565
G1 X102.575 Y72.725 E9.78097
G1 X103.200 Y72.000 E9.81299
G1 X103.775 Y71.763 E9.83364
G1 X107.588 Y71.750 E9.96044
G1 X107.588 Y82.950 E10.33302
G1 X103.950 Y82.950 E10.45415
G1 X103.388 Y82.813 E10.47322
G1 X102.900 Y82.388 E10.49473
G1 X102.725 Y81.963 E10.51005
G1 X102.100 Y82.700 E10.54206
G1 X101.525 Y82.938 E10.56270
G1 X100.113 Y82.950 E10.60969
G1 X100.113 Y90.350 E10.85593
G1 X19.875 Y90.350 E13.52459
G1 X19.875 Y82.950 E13.77073
G1 X18.638 Y82.950 E13.81207
G1 X18.075 Y82.813 E13.83115
G1 X17.588 Y82.388 E13.85262
G1 X17.400 Y81.963 E13.86795
G1 X16.788 Y82.700 E13.89992
G1 X16.213 Y82.938 E13.92057
G1 X12.400 Y82.950 E14.04734
G1 X12.400 Y71.750 E14.41991
G1 X16.038 Y71.750 E14.54108
G1 X16.600 Y71.875 E14.56016
G1 X17.088 Y72.300 E14.58167
G1 X17.263 Y72.725 E14.59698
G1 X17.888 Y72.000 E14.62900
G1 X18.463 Y71.763 E14.64963
G1 X19.875 Y71.750 E14.69663
G1 X19.875 Y57.712 E15.16370
G1 X18.638 Y57.712 E15.20504
G1 X18.075 Y57.575 E15.22412
G1 X17.588 Y57.150 E15.24559
G1 X17.400 Y56.725 E15.26092
G1 X16.788 Y57.463 E15.29289
G1 X16.213 Y57.700 E15.31355
G1 X12.400 Y57.713 E15.44031
G1 X12.400 Y46.512 E15.81288
G1 X16.038 Y46.512 E15.93401
G1 X16.600 Y46.638 E15.95309
G1 X17.088 Y47.063 E15.97460
G1 X17.263 Y47.488 E15.98992
G1 X17.888 Y46.750 E16.02193
G1 X18.463 Y46.513 E16.04257
G1 X19.675 Y46.513 E16.08291
G1 F1800.000 E11.58291
G92 E0
G1 X103.050 Y47.850 F3600.000
G1 F1800.000 E4.50000
G1 X103.150 Y47.438 F900.000 E4.51431
G1 X103.450 Y47.088 E4.52943
G1 X103.863 Y46.913 E4.54427
G1 X107.188 Y46.900 E4.65506
G1 X107.188 Y57.313 E5.00099
G1 X104.000 Y57.313 E5.10724
G1 X103.575 Y57.213 E5.12155
G1 X103.238 Y56.913 E5.13667
G1 X103.063 Y56.500 E5.15151
G1 X103.050 Y48.050 E5.43248
G1 X102.713 Y47.575
G1 X103.863 Y72.163 F3600.000
G1 X107.188 Y72.150 F900.000 E5.54331
G1 X107.188 Y82.550 E5.88924
G1 X104.000 Y82.550 E5.99549
G1 X103.575 Y82.450 E6.00980
G1 X103.238 Y82.150 E6.02492
G1 X103.063 Y81.738 E6.03976
G1 X103.050 Y73.088 E6.32738
G1 X103.150 Y72.675 E6.34169
G1 X103.450 Y72.325 E6.35681
G1 X103.675 Y72.238 E6.36500
G1 X104.163 Y71.413
G1 F1800.000 E1.86500
G92 E0
G1 X16.925 Y72.950 F3600.000
G1 F1800.000 E4.50000
G1 X16.938 Y81.600 F900.000 E4.78762
G1 X16.838 Y82.025 E4.80193
G1 X16.538 Y82.363 E4.81705
G1 X16.125 Y82.538 E4.83189
G1 X12.800 Y82.550 E4.94268
G1 X12.800 Y72.150 E5.28861
G1 X15.988 Y72.150 E5.39490
G1 X16.413 Y72.250 E5.40921
G1 X16.750 Y72.538 E5.42433
G1 X16.850 Y72.775 E5.43252
G1 X17.663 Y73.263
G1 X16.125 Y57.300 F3600.000
G1 X12.800 Y57.313 F900.000 E5.54331
G1 X12.800 Y46.913 E5.88924
G1 X15.988 Y46.913 E5.99549
G1 X16.413 Y47.013 E6.00980
G1 X16.750 Y47.300 E6.02492
G1 X16.925 Y47.713 E6.03976
G1 X16.938 Y56.363 E6.32738
G1 X16.838 Y56.775 E6.34169
G1 X16.538 Y57.125 E6.35681
G1 X16.313 Y57.225 E6.36500
G1 X15.825 Y58.038
G1 X17.913 Y56.913 F3600.000
G1 X17.750 Y56.513 F900.000 E6.37957
G1 X17.750 Y52.475 E6.51378
G1 X18.113 Y52.088 E6.53125
G1 X17.750 Y51.700 E6.54897
G1 X17.738 Y47.850 E6.67677
G1 X17.838 Y47.438 E6.69109
G1 X18.138 Y47.088 E6.70621
G1 X18.538 Y46.913 E6.72104
G1 X20.275 Y46.913 E6.77866
G1 X20.275 Y30.038 E7.33967
G1 X99.713 Y30.038 E9.98173
G1 X99.713 Y46.913 E10.54271
G1 X101.313 Y46.913 E10.59578
G1 X101.725 Y47.013 E10.61009
G1 X102.075 Y47.300 E10.62521
G1 X102.238 Y47.713 E10.64008
G1 X102.213 Y51.763 E10.77466
G1 X101.725 Y52.150 E10.79557
G1 X101.950 Y52.163 E10.80325
G1 X102.238 Y52.475 E10.81709
G1 X102.250 Y56.363 E10.94648
G1 X102.150 Y56.775 E10.96080
G1 X101.850 Y57.125 E10.97592
G1 X101.450 Y57.300 E10.99075
G1 X99.713 Y57.300 E11.04837
G1 X99.713 Y72.150 E11.54199
G1 X101.313 Y72.150 E11.59506
G1 X101.725 Y72.250 E11.60937
G1 X102.075 Y72.538 E11.62449
G1 X102.238 Y72.950 E11.63936
G1 X102.213 Y77.000 E11.77394
G1 X101.725 Y77.388 E11.79485
G1 X101.950 Y77.413 E11.80253
G1 X102.238 Y77.713 E11.81637
G1 X102.250 Y81.600 E11.94576
G1 X102.150 Y82.025 E11.96008
G1 X101.850 Y82.363 E11.97521
G1 X101.450 Y82.538 E11.99003
G1 X99.713 Y82.550 E12.04766
G1 X99.713 Y89.950 E12.29382
G1 X20.275 Y89.950 E14.93588
G1 X20.275 Y82.550 E15.18201
G1 X18.675 Y82.550 E15.23508
G1 X18.263 Y82.450 E15.24940
G1 X17.913 Y82.150 E15.26450
G1 X17.750 Y81.750 E15.27907
G1 X17.750 Y77.713 E15.41328
G1 X18.038 Y77.413 E15.42713
G1 X18.238 Y77.388 E15.43374
G1 X17.750 Y76.938 E15.45569
G1 X17.738 Y73.088 E15.58380
G1 X17.838 Y72.675 E15.59813
G1 X18.138 Y72.325 E15.61325
G1 X18.538 Y72.163 E15.62808
G1 X20.275 Y72.150 E15.68570
G1 X20.275 Y57.313 E16.17931
G1 X18.675 Y57.313 E16.23239
G1 X18.263 Y57.213 E16.24670
G1 X18.063 Y57.038 E16.25515
G1 F1800.000 E11.75515
G92 E0
G1 X56.238 Y57.075 F3600.000
G1 F1800.000 E4.50000
G1 X56.263 Y56.363 F900.000 E4.52366
G1 X56.525 Y55.463 E4.55461
G1 X57.038 Y54.725 E4.58444
G1 X57.763 Y54.175 E4.61506
G1 X57.675 Y53.912 E4.62423
G1 X56.313 Y53.912 E4.66967
G1 X56.313 Y51.525 E4.74904
G1 X59.875 Y50.388 E4.87338
G1 X59.875 Y50.113 E4.88272
G1 X56.313 Y48.975 E5.00714
G1 X56.325 Y42.588 E5.21945
G1 X56.513 Y41.638 E5.25203
G1 X56.813 Y41.113 E5.27193
G1 X57.300 Y40.700 E5.29291
G1 X58.038 Y40.388 E5.31967
G1 X59.025 Y40.350 E5.35247
G1 X59.925 Y40.713 E5.38478
G1 X60.400 Y41.163 E5.40657
G1 X60.525 Y41.375 E5.41490
G1 X63.862 Y39.350 E5.54455
G1 X63.862 Y41.788 E5.62559
G1 X62.238 Y42.738 E5.68811
G1 X61.188 Y43.450 E5.73042
G1 X61.038 Y43.688 E5.73962
G1 X61.025 Y44.325 E5.76083
G1 X63.862 Y44.325 E5.85517
G1 X63.862 Y48.700 E6.00068
G1 X62.863 Y48.700 E6.03370
G1 X62.813 Y49.025 E6.04465
G1 X63.862 Y49.350 E6.08102
G1 X63.862 Y51.175 E6.14145
G1 X62.850 Y51.488 E6.17676
G1 X62.900 Y51.813 E6.18773
G1 X63.862 Y51.813 E6.21977
G1 X63.862 Y53.912 E6.28946
G1 X62.175 Y53.912 E6.34574
G1 X63.163 Y54.713 E6.38840
G1 X63.675 Y55.513 E6.41988
G1 X63.925 Y56.500 E6.45374
G1 X63.913 Y57.463 E6.48583
G1 X63.650 Y58.450 E6.52002
G1 X63.150 Y59.238 E6.55091
G1 X62.288 Y59.888 E6.58688
G1 X61.625 Y60.175 E6.61067
G1 X60.938 Y60.350 E6.63439
G1 X60.050 Y60.425 E6.66416
G1 X59.338 Y60.375 E6.68772
G1 X58.163 Y60.050 E6.72817
G1 X57.275 Y59.450 E6.76403
G1 X56.675 Y58.700 E6.79598
G1 X56.313 Y57.688 E6.83167
G1 X56.250 Y57.263 E6.84582
G1 X56.713 Y46.012 F3600.000
G1 X56.725 Y42.638 F900.000 E6.95843
G1 X56.888 Y41.775 E6.98743
G1 X57.125 Y41.375 E7.00287
G1 X57.513 Y41.050 E7.01961
G1 X58.125 Y40.788 E7.04185
G1 X58.950 Y40.750 E7.06941
G1 X59.700 Y41.050 E7.09630
G1 X60.088 Y41.413 E7.11386
G1 X60.263 Y41.700 E7.12482
G1 X60.375 Y42.088 E7.13861
G1 X60.925 Y41.600 E7.16322
G1 X63.462 Y40.063 E7.26171
G1 X63.462 Y41.550 E7.31149
G1 X62.025 Y42.400 E7.36685
G1 X60.913 Y43.163 E7.41162
G1 X60.638 Y43.600 E7.42905
G1 X60.613 Y44.725 E7.46626
G1 X63.462 Y44.725 E7.56088
G1 X63.462 Y46.012 E7.60397
G1 X56.913 Y46.012 E7.82185
G1 X55.913 Y46.013
G1 X56.712 Y47.000 F3600.000
G1 X63.462 Y47.000 F900.000 E8.04636
G1 X63.462 Y48.300 E8.08945
G1 X59.725 Y48.300 E8.21359
G1 X59.700 Y48.463 E8.21907
G1 X63.462 Y49.650 E8.35011
G1 X63.462 Y50.875 E8.39101
G1 X59.713 Y52.050 E8.52160
G1 X59.738 Y52.212 E8.52708
G1 X63.462 Y52.212 E8.65086
G1 X63.462 Y53.512 E8.69395
G1 X56.712 Y53.512 E8.91846
G1 X56.712 Y51.813 E8.97478
G1 X61.413 Y50.325 E9.13898
G1 X61.413 Y50.188 E9.14365
G1 X56.712 Y48.688 E9.30795
G1 X56.712 Y47.200 E9.35724
G1 X56.712 Y46.200
G1 F1800.000 E4.85724
G92 E0
G1 X58.825 Y54.175 F3600.000
G1 F1800.000 E4.50000
G1 X59.100 Y55.463 F900.000 E4.54381
G1 X58.375 Y55.775 E4.56976
G1 X58.063 Y56.038 E4.58342
G1 X57.875 Y56.338 E4.59529
G1 X57.775 Y56.738 E4.60906
G1 X57.788 Y57.250 E4.62612
G1 X57.938 Y57.750 E4.64330
G1 X58.188 Y58.100 E4.65793
G1 X58.588 Y58.413 E4.67481
G1 X59.325 Y58.663 E4.70077
G1 X59.875 Y58.725 E4.71921
G1 X60.563 Y58.700 E4.74196
G1 X61.050 Y58.613 E4.75819
G1 X61.688 Y58.350 E4.78140
G1 X62.038 Y58.038 E4.79708
G1 X62.300 Y57.588 E4.81415
G1 X62.413 Y56.963 E4.83533
G1 X62.338 Y56.450 E4.85243
G1 X62.100 Y56.013 E4.86883
G1 X61.763 Y55.700 E4.88426
G1 X60.788 Y55.300 E4.91941
G1 X61.088 Y54.013 E4.96344
G1 X62.225 Y54.463 E5.00401
G1 X62.863 Y54.988 E5.03160
G1 X63.313 Y55.675 E5.05876
G1 X63.525 Y56.538 E5.08867
G1 X63.513 Y57.413 E5.11740
G1 X63.288 Y58.288 E5.14784
G1 X62.850 Y58.963 E5.17427
G1 X62.088 Y59.538 E5.20627
G1 X61.500 Y59.788 E5.22735
G1 X60.875 Y59.950 E5.24898
G1 X60.038 Y60.025 E5.27669
G1 X59.413 Y59.988 E5.29785
G1 X58.338 Y59.688 E5.33478
G1 X57.550 Y59.163 E5.36637
G1 X57.038 Y58.500 E5.39411
G1 X56.700 Y57.600 E5.42617
G1 X56.638 Y57.050 E5.44431
G1 X56.663 Y56.425 E5.46527
G1 X56.888 Y55.638 E5.49248
G1 X57.325 Y55.000 E5.51803
G1 X57.975 Y54.513 E5.54510
G1 X58.638 Y54.250 E5.56883
G1 X59.588 Y53.963
G1 F1800.000 E1.06883
G92 E0
G1 X61.138 Y62.825 F3600.000
G1 F1800.000 E4.50000
G1 X62.263 Y63.038 F900.000 E4.53807
G1 X62.913 Y63.400 E4.56264
G1 X63.425 Y63.938 E4.58752
G1 X63.800 Y64.700 E4.61560
G1 X63.950 Y65.825 E4.65331
G1 X63.838 Y66.863 E4.68801
G1 X63.513 Y67.650 E4.71657
G1 X63.000 Y68.250 E4.74260
G1 X62.288 Y68.650 E4.76982
G1 X61.025 Y68.875 E4.81253
G1 X58.175 Y68.888 E4.90738
G1 X58.088 Y69.163 E4.91684
G1 X60.750 Y70.938 E5.02340
G1 X63.862 Y70.938 E5.12679
G1 X63.862 Y73.025 E5.19649
G1 X60.750 Y73.025 E5.29988
G1 X58.250 Y74.700 E5.39972
G1 X58.350 Y74.975 E5.40938
G1 X58.900 Y74.950 E5.42794
G1 X59.500 Y75.163 E5.44911
G1 X59.838 Y75.388 E5.46252
G1 X60.125 Y75.113 E5.47598
G1 X60.688 Y74.813 E5.49706
G1 X61.350 Y74.688 E5.51946
G1 X62.213 Y74.800 E5.54866
G1 X62.938 Y75.175 E5.57544
G1 X63.375 Y75.625 E5.59656
G1 X63.613 Y76.075 E5.61347
G1 X63.850 Y77.113 E5.64880
G1 X63.863 Y80.612 E5.76508
G1 X56.313 Y80.612 E6.01644
G1 X56.325 Y77.163 E6.13119
G1 X56.500 Y76.338 E6.15903
G1 X56.613 Y76.150 E6.16637
G1 X56.388 Y75.938 E6.17649
G1 X56.313 Y76.000 E6.17961
G1 X56.313 Y73.488 E6.26313
G1 X58.675 Y71.988 E6.35634
G1 X56.313 Y70.488 E6.44950
G1 X56.313 Y66.800 E6.57218
G1 X60.925 Y66.775 E6.72553
G1 X61.400 Y66.713 E6.74172
G1 X61.613 Y66.625 E6.74934
G1 X61.838 Y66.350 E6.76122
G1 X61.913 Y66.063 E6.77128
G1 X61.913 Y65.688 E6.78359
G1 X61.825 Y65.300 E6.79687
G1 X61.675 Y65.088 E6.80552
G1 X61.000 Y64.925 E6.82851
G1 X56.313 Y64.900 E6.98449
G1 X56.313 Y62.800 E7.05417
G1 X60.938 Y62.825 E7.20826
G1 X61.100 Y63.225
G1 X62.125 Y63.413 E7.24298
G1 X62.663 Y63.713 E7.26335
G1 X63.088 Y64.175 E7.28413
G1 X63.413 Y64.813 E7.30805
G1 X63.550 Y65.825 E7.34198
G1 X63.438 Y66.763 E7.37319
G1 X63.163 Y67.438 E7.39772
G1 X62.738 Y67.938 E7.41927
G1 X62.150 Y68.275 E7.44190
G1 X60.988 Y68.475 E7.48118
G1 X56.712 Y68.488 E7.62334
G1 X56.712 Y67.188 E7.66643
G1 X60.950 Y67.175 E7.80740
G1 X61.513 Y67.100 E7.82613
G1 X61.825 Y66.975 E7.83758
G1 X62.050 Y66.788 E7.84737
G1 X62.213 Y66.513 E7.85807
G1 X62.313 Y66.113 E7.87177
G1 X62.313 Y65.650 E7.88719
G1 X62.200 Y65.150 E7.90404
G1 X62.063 Y64.900 E7.91360
G1 X61.875 Y64.750 E7.92150
G1 X61.488 Y64.588 E7.93558
G1 X61.038 Y64.525 E7.95085
G1 X56.712 Y64.500 E8.09461
G1 X56.712 Y63.200 E8.13769
G1 X60.900 Y63.225 E8.27717
G1 X61.588 Y62.588
G1 F1800.000 E3.77717
G92 E0
G1 X56.712 Y68.725 F3600.000
G1 F1800.000 E4.50000
G1 X60.625 Y71.338 F900.000 E4.65676
G1 X63.462 Y71.338 E4.75088
G1 X63.462 Y72.625 E4.79396
G1 X60.625 Y72.625 E4.88808
G1 X56.712 Y75.250 E5.04484
G1 X56.712 Y73.700 E5.09618
G1 X59.425 Y71.988 E5.20304
G1 X56.712 Y70.263 E5.30986
G1 X56.712 Y68.925 E5.35455
G1 X57.013 Y67.975
G1 F1800.000 E0.85455
G92 E0
G1 X58.138 Y75.388 F3600.000
G1 F1800.000 E4.50000
G1 X58.838 Y75.350 F900.000 E4.52328
G1 X59.325 Y75.525 E4.54024
G1 X59.575 Y75.700 E4.55059
G1 X59.913 Y76.075 E4.56721
G1 X60.125 Y75.663 E4.58226
G1 X60.363 Y75.438 E4.59335
G1 X60.825 Y75.188 E4.61060
G1 X61.363 Y75.088 E4.62872
G1 X62.100 Y75.188 E4.65345
G1 X62.688 Y75.500 E4.67573
G1 X63.050 Y75.863 E4.69286
G1 X63.238 Y76.213 E4.70610
G1 X63.450 Y77.163 E4.73815
G1 X63.463 Y80.212 E4.83964
G1 X56.713 Y80.212 E5.06422
G1 X56.725 Y77.200 E5.16424
G1 X56.875 Y76.488 E5.18865
G1 X57.175 Y75.975 E5.20816
G1 X57.950 Y75.450 E5.23951
G1 X58.400 Y74.738
G1 F1800.000 E0.73951
G92 E0
G1 X59.900 Y58.325 F3600.000
G1 F1800.000 E4.50000
G1 X59.413 Y58.263 F900.000 E4.51610
G1 X58.775 Y58.050 E4.53844
G1 X58.475 Y57.825 E4.55100
G1 X58.300 Y57.575 E4.56143
G1 X58.188 Y57.188 E4.57466
G1 X58.175 Y56.788 E4.58811
G1 X58.375 Y56.300 E4.60544
G1 X58.588 Y56.113 E4.61504
G1 X59.563 Y55.700 E4.65001
G1 X59.175 Y53.912 E4.71092
G1 X60.700 Y53.912 E4.76170
G1 X60.313 Y55.550 E4.81766
G1 X61.550 Y56.038 E4.86173
G1 X61.788 Y56.263 E4.87237
G1 X61.950 Y56.575 E4.88425
G1 X62.000 Y56.950 E4.89695
G1 X61.913 Y57.450 E4.91371
G1 X61.725 Y57.775 E4.92629
G1 X61.475 Y58.000 E4.93747
G1 X60.925 Y58.225 E4.95704
G1 X60.100 Y58.313 E4.98497
G1 F1800.000 E0.48497
G92 E0
G1 X54.225 Y48.188 F3600.000
G1 F1800.000 E4.50000
G1 X54.013 Y47.950 F900.000 E4.51063
G1 X54.225 Y47.725 E4.52105
G1 X54.250 Y42.350 E4.70003
G1 X49.538 Y42.313 E4.85678
G1 X48.963 Y42.125 E4.87696
G1 X48.463 Y41.763 E4.89707
G1 X48.113 Y41.275 E4.91718
G1 X47.925 Y40.700 E4.93740
G1 X47.900 Y38.462 E5.01188
G1 X72.088 Y38.462 E5.81635
G1 X72.063 Y40.700 E5.89083
G1 X71.875 Y41.275 E5.91105
G1 X71.525 Y41.763 E5.93116
G1 X71.025 Y42.125 E5.95127
G1 X70.450 Y42.313 E5.97145
G1 X65.738 Y42.350 E6.12819
G1 X65.763 Y47.725 E6.30718
G1 X65.963 Y47.938 E6.31698
G1 X65.788 Y48.088 E6.32466
G1 X65.763 Y72.963 E7.15218
G1 X65.963 Y73.188 E7.16203
G1 X65.788 Y73.325 E7.16962
G1 X65.738 Y78.763 E7.35053
G1 X70.450 Y78.800 E7.50736
G1 X71.025 Y78.988 E7.52755
G1 X71.525 Y79.338 E7.54766
G1 X71.875 Y79.825 E7.56777
G1 X72.063 Y80.413 E7.58799
G1 X72.088 Y82.650 E7.66247
G1 X47.900 Y82.650 E8.46694
G1 X47.925 Y80.413 E8.54142
G1 X48.113 Y79.825 E8.56164
G1 X48.463 Y79.338 E8.58175
G1 X48.963 Y78.988 E8.60186
G1 X49.538 Y78.800 E8.62204
G1 X54.250 Y78.763 E8.77878
G1 X54.225 Y73.425 E8.95611
G1 X54.013 Y73.200 E8.96670
G1 X54.225 Y72.963 E8.97716
G1 X54.225 Y48.388 E9.79448
G1 X53.825 Y48.350
G1 X53.463 Y47.950 E9.81222
G1 X53.825 Y47.563 E9.82968
G1 X53.850 Y42.738 E9.99020
G1 X49.475 Y42.713 E10.13574
G1 X48.775 Y42.488 E10.16009
G1 X48.175 Y42.050 E10.18441
G1 X47.750 Y41.463 E10.20874
G1 X47.525 Y40.763 E10.23310
G1 X47.500 Y38.063 E10.32306
G1 X72.488 Y38.063 E11.15442
G1 X72.463 Y40.763 E11.24438
G1 X72.238 Y41.463 E11.26874
G1 X71.813 Y42.050 E11.29307
G1 X71.213 Y42.488 E11.31739
G1 X70.513 Y42.713 E11.34174
G1 X66.138 Y42.738 E11.48728
G1 X66.163 Y47.563 E11.64780
G1 X66.450 Y47.875 E11.66165
G1 X66.675 Y47.888 E11.66932
G1 X66.188 Y48.275 E11.69026
G1 X66.163 Y72.813 E12.50609
G1 X66.450 Y73.113 E12.51996
G1 X66.675 Y73.125 E12.52763
G1 X66.188 Y73.513 E12.54854
G1 X66.138 Y78.363 E12.70976
G1 X70.513 Y78.400 E12.85533
G1 X71.213 Y78.625 E12.87968
G1 X71.813 Y79.050 E12.90400
G1 X72.238 Y79.650 E12.92833
G1 X72.463 Y80.338 E12.95269
G1 X72.488 Y83.050 E13.04265
G1 X47.500 Y83.050 E13.87401
G1 X47.525 Y80.338 E13.96397
G1 X47.750 Y79.650 E13.98833
G1 X48.175 Y79.050 E14.01266
G1 X48.775 Y78.625 E14.03698
G1 X49.475 Y78.400 E14.06133
G1 X53.850 Y78.363 E14.20687
G1 X53.825 Y73.588 E14.36583
G1 X53.463 Y73.188 E14.38355
G1 X53.825 Y72.813 E14.40103
G1 X53.825 Y48.550 E15.20796
G1 F1800.000 E10.70796
G92 E0
G1 X76.688 Y48.713 F3600.000
G1 F1800.000 E4.50000
G1 X76.925 Y48.538 F540.000 E4.50485
G1 X77.063 Y47.838 E4.51663
G1 X77.150 Y47.438 E4.53056
G1 X77.250 Y47.250 E4.53740
G1 X77.400 Y47.100 E4.54472
G1 X77.550 Y47.050 E4.54989
G1 X77.800 Y46.975 F600.000 E4.55826
G1 X78.538 Y47.113 E4.58315
G1 X79.513 Y47.288 F660.000 E4.61641
G1 X80.500 Y47.450 F720.000 E4.64967
G1 X81.488 Y47.625 F780.000 E4.68293
G1 X82.475 Y47.800 F840.000 E4.71619
G1 X91.250 Y49.350 F900.000 E5.01283
G1 X91.588 Y49.600 E5.02645
G1 X91.675 Y49.788 E5.03335
G1 X91.700 Y50.000 E5.04082
G1 X91.563 Y51.175 E5.07996
G1 X91.700 Y51.325 E5.08678
G1 X91.475 Y51.500 E5.09647
G1 X91.238 Y52.613 E5.13393
G1 X91.138 Y52.800 E5.14116
G1 X90.800 Y53.038 E5.15478
G1 X90.600 Y53.063 E5.16167
G1 X82.038 Y51.550 E5.45066
G1 X81.063 Y51.375 F840.000 E5.48392
G1 X80.075 Y51.213 F780.000 E5.51718
G1 X79.088 Y51.038 F720.000 E5.55044
G1 X78.100 Y50.863 F660.000 E5.58370
G1 X77.138 Y50.688 F600.000 E5.61625
G1 X77.125 Y50.675 E5.61696
G1 X76.963 Y50.588 F540.000 E5.62314
G1 X76.725 Y50.263 E5.63676
G1 X76.688 Y50.038 E5.64423
G1 X76.713 Y49.850 E5.65022
G1 X76.825 Y48.863 E5.66685
G1 X76.413 Y49.000
G1 X75.988 Y48.538 E5.67730
G1 X76.238 Y48.563 E5.68159
G1 X76.325 Y48.488 E5.68348
G1 X76.563 Y48.313 E5.69312
G1 X76.700 Y47.613 E5.71674
G1 X76.775 Y47.300 F600.000 E5.72762
G1 X76.925 Y47.013 E5.73839
G1 X77.175 Y46.763 E5.74995
G1 X77.175 Y46.763 E5.75000
G1 X77.475 Y46.625 F660.000 E5.76103
G1 X77.800 Y46.575 E5.77214
G1 X78.138 Y46.625 E5.78326
G1 X79.113 Y46.800 F720.000 E5.81652
G1 X80.100 Y46.975 F780.000 E5.84978
G1 X81.088 Y47.150 F840.000 E5.88304
G1 X91.388 Y48.963 F900.000 E6.23093
G1 X91.688 Y49.125 E6.24204
G1 X91.913 Y49.363 E6.25315
G1 X92.063 Y49.663 E6.26425
G1 X92.113 Y50.000 E6.27555
G1 X91.988 Y51.038 E6.31028
G1 X92.413 Y51.500 E6.33118
G1 X92.150 Y51.488 E6.33977
G1 X91.838 Y51.725 E6.35318
G1 X91.625 Y52.750 E6.38766
G1 X91.463 Y53.038 E6.39888
G1 X91.225 Y53.275 E6.40999
G1 X90.925 Y53.425 E6.42110
G1 X90.588 Y53.463 E6.43221
G1 X81.750 Y51.913 E6.73088
G1 X80.763 Y51.738 F840.000 E6.76414
G1 X79.775 Y51.563 F780.000 E6.79740
G1 X78.800 Y51.388 F720.000 E6.83066
G1 X77.813 Y51.213 F660.000 E6.86392
G1 X77.013 Y51.075 F600.000 E6.89100
G1 X76.850 Y50.988 E6.89718
G1 X76.713 Y50.913 F540.000 E6.90211
G1 X76.488 Y50.675 E6.91322
G1 X76.338 Y50.375 E6.92432
G1 X76.313 Y50.188 E6.93044
G1 X76.288 Y50.038 E6.93303
G1 X76.388 Y49.200 E6.94707
G1 F1800.000 E2.44707
G92 E0
G1 X77.800 Y72.213 F3600.000
G1 F1800.000 E4.50000
G1 X78.775 Y72.388 F540.000 E4.51663
G1 X79.763 Y72.563 E4.54989
G1 X80.750 Y72.738 F600.000 E4.58315
G1 X81.738 Y72.913 F660.000 E4.61641
G1 X82.725 Y73.088 F720.000 E4.64967
G1 X83.700 Y73.263 F780.000 E4.68293
G1 X84.688 Y73.438 F840.000 E4.71619
G1 X91.250 Y74.588 F900.000 E4.93794
G1 X91.438 Y74.688 E4.94484
G1 X91.675 Y75.025 E4.95846
G1 X91.700 Y75.250 E4.96593
G1 X91.563 Y76.413 E5.00507
G1 X91.700 Y76.563 E5.01189
G1 X91.475 Y76.750 E5.02159
G1 X91.238 Y77.850 E5.05905
G1 X90.988 Y78.188 E5.07299
G1 X90.613 Y78.300 E5.08619
G1 X79.825 Y76.400 E5.45054
G1 X78.838 Y76.225 F840.000 E5.48380
G1 X77.850 Y76.050 F780.000 E5.51706
G1 X77.138 Y75.925 F720.000 E5.54119
G1 X76.925 Y75.763 E5.55032
G1 X76.813 Y75.688 F660.000 E5.55480
G1 X76.725 Y75.500 E5.56170
G1 X76.688 Y75.275 E5.56917
G1 X76.738 Y74.838 E5.58358
G1 X76.825 Y74.100 F600.000 E5.60831
G1 X76.688 Y73.950 E5.61513
G1 X76.738 Y73.925 E5.61684
G1 X76.925 Y73.775 F540.000 E5.62483
G1 X77.075 Y73.038 E5.65010
G1 X77.150 Y72.675 E5.65619
G1 X77.400 Y72.338 E5.66317
G1 X77.600 Y72.250 E5.66673
G1 X77.800 Y71.813
G1 X78.788 Y71.988 E5.68336
G1 X79.775 Y72.163 E5.71662
G1 X80.763 Y72.338 F600.000 E5.74988
G1 X81.738 Y72.513 F660.000 E5.78314
G1 X82.725 Y72.675 F720.000 E5.81640
G1 X83.713 Y72.850 F780.000 E5.84966
G1 X84.700 Y73.025 F840.000 E5.88292
G1 X91.388 Y74.213 F900.000 E6.10889
G1 X91.688 Y74.363 E6.12000
G1 X91.913 Y74.600 E6.13110
G1 X92.063 Y74.900 E6.14221
G1 X92.113 Y75.238 E6.15351
G1 X91.988 Y76.275 E6.18824
G1 X92.413 Y76.738 E6.20914
G1 X92.150 Y76.725 E6.21772
G1 X91.838 Y76.975 E6.23114
G1 X91.625 Y77.988 E6.26562
G1 X91.463 Y78.288 E6.27684
G1 X91.225 Y78.513 E6.28795
G1 X90.925 Y78.663 E6.29907
G1 X90.613 Y78.713 E6.30971
G1 X78.150 Y76.513 E6.73060
G1 X77.163 Y76.338 F840.000 E6.76386
G1 X77.013 Y76.313 F780.000 E6.76895
G1 X76.713 Y76.150 E6.78006
G1 X76.488 Y75.913 E6.79116
G1 X76.400 Y75.750 E6.79712
G1 X76.338 Y75.613 F720.000 E6.80227
G1 X76.288 Y75.275 E6.81357
G1 X76.350 Y74.775 E6.83038
G1 X76.413 Y74.238 F660.000 E6.84830
G1 X76.100 Y73.900 E6.86364
G1 X75.988 Y73.775 F600.000 E6.86920
G1 X76.238 Y73.800 E6.87778
G1 X76.563 Y73.550 E6.89120
G1 X76.600 Y73.388 E6.89690
G1 X76.775 Y72.538 F540.000 E6.92568
G1 X76.838 Y72.413 E6.93016
G1 X76.925 Y72.238 E6.93353
G1 X77.175 Y72.000 E6.93908
G1 X77.600 Y71.838 E6.94679
G1 F1800.000 E2.44679
G92 E0
G1 X43.288 Y73.975 F3600.000
G1 F1800.000 E4.50000
G1 X43.163 Y74.100 F540.000 E4.50305
G1 X43.250 Y74.913 E4.51663
G1 X43.300 Y75.275 E4.52862
G1 X43.263 Y75.500 E4.53609
G1 X43.025 Y75.838 E4.54971
G1 X43.025 Y75.838 E4.54989
G1 X42.850 Y75.925 F600.000 E4.55660
G1 X42.063 Y76.063 E4.58315
G1 X41.075 Y76.238 F660.000 E4.61641
G1 X40.088 Y76.413 F720.000 E4.64967
G1 X39.113 Y76.588 F780.000 E4.68293
G1 X38.125 Y76.763 F840.000 E4.71619
G1 X29.388 Y78.300 F900.000 E5.01118
G1 X29.188 Y78.275 E5.01807
G1 X28.850 Y78.038 E5.03169
G1 X28.738 Y77.838 E5.03911
G1 X28.463 Y76.638 E5.08005
G1 X28.300 Y76.550 E5.08646
G1 X28.425 Y76.413 E5.09257
G1 X28.288 Y75.250 E5.13172
G1 X28.313 Y75.025 E5.13919
G1 X28.550 Y74.688 E5.15280
G1 X28.738 Y74.588 E5.15970
G1 X37.325 Y73.075 E5.45008
G1 X38.313 Y72.900 F840.000 E5.48334
G1 X39.300 Y72.725 F780.000 E5.51660
G1 X40.288 Y72.550 F720.000 E5.54986
G1 X41.275 Y72.375 F660.000 E5.58312
G1 X42.188 Y72.213 F600.000 E5.61427
G1 X42.250 Y72.238 E5.61638
G1 X42.588 Y72.338 F540.000 E5.62789
G1 X42.738 Y72.488 E5.63479
G1 X42.838 Y72.675 E5.64220
G1 X42.888 Y72.900 E5.64964
G1 X43.113 Y73.875 E5.66627
G1 X43.575 Y74.238
G1 X43.700 Y75.238 E5.68290
G1 X43.700 Y75.275 E5.68437
G1 X43.650 Y75.613 E5.69567
G1 X43.500 Y75.913 E5.70678
G1 X43.313 Y76.113 E5.71617
G1 X43.275 Y76.150 F600.000 E5.71789
G1 X42.975 Y76.313 E5.72900
G1 X42.375 Y76.413 E5.74943
G1 X41.388 Y76.588 F660.000 E5.78269
G1 X40.400 Y76.763 F720.000 E5.81595
G1 X39.425 Y76.938 F780.000 E5.84921
G1 X38.438 Y77.113 F840.000 E5.88247
G1 X29.400 Y78.713 F900.000 E6.18778
G1 X29.063 Y78.663 E6.19889
G1 X28.763 Y78.513 E6.21000
G1 X28.525 Y78.288 E6.22111
G1 X28.363 Y77.988 E6.23239
G1 X28.113 Y76.913 E6.26912
G1 X27.650 Y76.650 E6.28662
G1 X28.000 Y76.275 E6.30365
G1 X27.875 Y75.238 E6.33838
G1 X27.925 Y74.900 E6.34968
G1 X28.075 Y74.600 E6.36079
G1 X28.300 Y74.363 E6.37190
G1 X28.600 Y74.213 E6.38300
G1 X38.525 Y72.463 E6.71819
G1 X39.513 Y72.288 F840.000 E6.75145
G1 X40.500 Y72.113 F780.000 E6.78471
G1 X41.475 Y71.938 F720.000 E6.81797
G1 X42.188 Y71.813 F660.000 E6.84179
G1 X42.463 Y71.850 E6.85123
G1 X42.513 Y71.863 F600.000 E6.85290
G1 X42.813 Y72.000 E6.86401
G1 X43.063 Y72.238 E6.87512
G1 X43.188 Y72.488 E6.88449
G1 X43.213 Y72.538 F540.000 E6.88640
G1 X43.425 Y73.450 E6.91775
G1 X43.463 Y73.613 E6.92044
G1 X43.925 Y73.863 E6.92919
G1 X43.713 Y74.100 E6.93438
G1 F1800.000 E2.43438
G92 E0
G1 X42.850 Y50.688 F3600.000
G1 F1800.000 E4.50000
G1 X41.863 Y50.863 F540.000 E4.51663
G1 X40.875 Y51.038 E4.54989
G1 X39.888 Y51.213 F600.000 E4.58315
G1 X38.913 Y51.388 F660.000 E4.61641
G1 X37.925 Y51.563 F720.000 E4.64967
G1 X36.938 Y51.725 F780.000 E4.68293
G1 X35.950 Y51.900 F840.000 E4.71619
G1 X29.388 Y53.063 F900.000 E4.93794
G1 X29.000 Y52.938 E4.95156
G1 X28.738 Y52.600 E4.96570
G1 X28.463 Y51.400 E5.00664
G1 X28.300 Y51.313 E5.01305
G1 X28.425 Y51.175 E5.01916
G1 X28.288 Y50.000 E5.05830
G1 X28.400 Y49.600 E5.07249
G1 X28.738 Y49.350 E5.08611
G1 X39.500 Y47.450 E5.44971
G1 X40.488 Y47.275 F840.000 E5.48297
G1 X41.463 Y47.100 F780.000 E5.51623
G1 X42.188 Y46.975 F720.000 E5.54069
G1 X42.450 Y47.050 E5.54949
G1 X42.588 Y47.100 F660.000 E5.55430
G1 X42.738 Y47.238 E5.56120
G1 X42.838 Y47.438 E5.56861
G1 X42.938 Y47.850 E5.58275
G1 X43.113 Y48.638 F600.000 E5.60956
G1 X43.288 Y48.725 E5.61597
G1 X43.288 Y48.738 E5.61601
G1 X43.163 Y48.863 F540.000 E5.62208
G1 X43.250 Y49.675 E5.64927
G1 X43.300 Y50.038 E5.65524
G1 X43.263 Y50.263 E5.65898
G1 X43.025 Y50.600 E5.66590
G1 X42.975 Y51.075
G1 X42.000 Y51.250 E5.68253
G1 X41.013 Y51.425 E5.71579
G1 X40.025 Y51.588 F600.000 E5.74905
G1 X39.038 Y51.763 F660.000 E5.78231
G1 X38.050 Y51.938 F720.000 E5.81557
G1 X37.075 Y52.113 F780.000 E5.84883
G1 X36.088 Y52.288 F840.000 E5.88209
G1 X29.400 Y53.463 F900.000 E6.10806
G1 X29.063 Y53.425 E6.11916
G1 X28.763 Y53.275 E6.13027
G1 X28.525 Y53.038 E6.14138
G1 X28.363 Y52.738 E6.15266
G1 X28.113 Y51.663 E6.18939
G1 X27.650 Y51.413 E6.20689
G1 X28.000 Y51.038 E6.22392
G1 X27.875 Y50.000 E6.25865
G1 X27.925 Y49.663 E6.26995
G1 X28.075 Y49.363 E6.28106
G1 X28.300 Y49.125 E6.29217
G1 X28.600 Y48.963 E6.30327
G1 X40.875 Y46.800 E6.71765
G1 X41.850 Y46.625 F840.000 E6.75091
G1 X42.188 Y46.575 F780.000 E6.76206
G1 X42.513 Y46.625 E6.77317
G1 X42.813 Y46.763 E6.78417
G1 X42.813 Y46.763 F720.000 E6.78428
G1 X43.063 Y47.000 E6.79539
G1 X43.213 Y47.300 E6.80667
G1 X43.288 Y47.613 E6.81743
G1 X43.463 Y48.375 F660.000 E6.84340
G1 X43.650 Y48.475 E6.85069
G1 X43.925 Y48.625 F600.000 E6.86090
G1 X43.575 Y49.000 E6.87793
G1 X43.600 Y49.188 E6.88395
G1 X43.700 Y50.038 F540.000 E6.91266
G1 X43.675 Y50.175 E6.91721
G1 X43.650 Y50.375 E6.92059
G1 X43.500 Y50.675 E6.92614
G1 X43.150 Y50.975 E6.93384
G1 F1800.000 E2.43384
G92 E0
G1 X8.513 Y24.487 F3600.000
G1 F1800.000 E4.50000
G1 X111.475 Y24.487 F900.000 E7.92426
G1 X111.475 Y95.500 E10.28595
G1 X8.513 Y95.500 E13.71021
G1 X8.513 Y24.688 E16.06525
G1 X8.113 Y24.087
G1 X111.875 Y24.087 E19.51612
G1 X111.875 Y95.900 E21.90441
G1 X8.113 Y95.900 E25.35528
G1 X8.113 Y24.288 E27.73692
G1 X8.813 Y24.487
G1 F1800.000 E23.23692
G92 E0
G1 X27.325 Y51.275 F3600.000
G1 F1800.000 E4.50000
G1 X27.025 Y51.475 F900.000 E4.51211
G1 X18.788 Y52.050 E4.78645
G1 X18.350 Y52.238 E4.80220
G1 X27.075 Y51.463 F3600.000
G1 X27.425 Y51.638 F900.000 E4.81536
G1 X44.163 Y48.400 F3600.000
G1 X44.513 Y48.575 F900.000 E4.82852
G1 X44.250 Y48.763
G1 X44.563 Y48.563 E4.84063
G1 X52.788 Y47.988 E5.11498
G1 X53.225 Y47.800 E5.13072
G1 F1800.000 E0.63072
G92 E0
G1 X57.963 Y48.113 F3600.000
G1 F1800.000 E4.50000
G1 X59.513 Y48.350 F900.000 E4.55190
G1 F1800.000 E0.05190
G92 E0
G1 X59.525 Y52.163 F3600.000
G1 F1800.000 E4.50000
G1 X57.975 Y52.400 F900.000 E4.55215
G1 F1800.000 E0.05215
G92 E0
G1 X66.700 Y48.188 F3600.000
G1 F1800.000 E4.50000
G1 X67.288 Y48.000 F900.000 E4.52064
G1 X75.175 Y48.550 E4.78367
G1 X75.925 Y48.813 E4.81016
G1 X92.463 Y51.238 F3600.000
G1 X93.213 Y51.488 F900.000 E4.83665
G1 X101.113 Y52.038 E5.09968
G1 X101.700 Y51.863 E5.12032
G1 F1800.000 E0.62032
G92 E0
G1 X101.700 Y77.100 F3600.000
G1 F1800.000 E4.50000
G1 X101.113 Y77.275 F900.000 E4.52064
G1 X93.213 Y76.738 E4.78367
G1 X92.463 Y76.475 E4.81016
G1 X75.925 Y74.063 F3600.000
G1 X75.363 Y73.800 F900.000 E4.83056
G1 X67.288 Y73.238 E5.09997
G1 X66.700 Y73.425 E5.12061
G1 F1800.000 E0.62061
G92 E0
G1 X53.225 Y73.038 F3600.000
G1 F1800.000 E4.50000
G1 X52.788 Y73.225 F900.000 E4.51574
G1 X44.563 Y73.800 E4.79008
G1 X44.250 Y74.000 E4.80219
G1 X44.513 Y73.813
G1 X44.163 Y73.638 E4.81536
G1 X27.425 Y76.888 F3600.000
G1 X27.075 Y76.700 F900.000 E4.82839
G1 X27.325 Y76.513
G1 X27.013 Y76.713 E4.84071
G1 X18.475 Y77.375 E5.12557
; perimeter_end
; infill_start
G1 F1800.000 E0.62557
G92 E0
G1 X17.175 Y47.975 F3600.000
G1 F1800.000 E4.50000
G1 X17.325 Y48.025 F600.000 E4.50337
G1 X17.625 Y47.388 E4.51784
G1 X17.325 Y47.825
G1 X17.338 Y51.738 E4.65166
G1 X17.425 Y52.088 E4.66425
G1 X17.738 Y52.088 E4.67469
G1 X17.500 Y51.900
G1 X17.338 Y52.325 E4.68986
G1 X17.338 Y56.188 E4.81829
G1 X17.050 Y56.825 E4.84170
G1 F1800.000 E0.34170
G92 E0
G1 X29.150 Y49.575 F3600.000
G1 F1800.000 E4.50000
G1 X28.600 Y50.138 F1200.000 E4.52828
G1 X28.663 Y50.688 E4.54835
G1 X29.900 Y49.450 E4.61156
G1 X30.650 Y49.313 E4.63904
G1 X28.738 Y51.225 E4.73701
G1 X28.850 Y51.725 E4.75561
G1 X31.388 Y49.188 E4.88596
G1 X32.138 Y49.050 E4.91344
G1 X28.963 Y52.225 E5.07618
G1 X29.138 Y52.663 E5.09329
G1 X32.888 Y48.925 E5.28520
G1 X33.638 Y48.788 E5.31268
G1 X29.725 Y52.700 E5.51305
G1 X30.475 Y52.575 E5.54053
G1 X34.388 Y48.663 E5.74089
G1 X35.125 Y48.525 E5.76837
G1 X31.213 Y52.438 E5.96874
G1 X31.963 Y52.313 E5.99622
G1 X35.875 Y48.388 E6.19659
G1 X36.625 Y48.263 E6.22406
G1 X32.713 Y52.175 E6.42443
G1 X33.463 Y52.038 E6.45191
G1 X37.375 Y48.125 E6.65228
G1 X38.125 Y48.000 E6.67976
G1 X34.213 Y51.913 E6.88012
G1 X34.950 Y51.775 E6.90760
G1 X38.863 Y47.863 E7.10797
G1 X39.613 Y47.738 E7.13545
G1 X35.700 Y51.650 E7.33582
G1 X36.450 Y51.513 E7.36330
G1 X40.363 Y47.600 E7.56366
G1 X41.113 Y47.475 E7.59114
G1 X37.200 Y51.388 E7.79151
G1 X37.950 Y51.250 E7.81899
G1 X41.863 Y47.338 E8.01936
G1 X42.438 Y47.375 E8.04047
G1 X38.688 Y51.125 E8.23238
G1 X39.438 Y50.988 E8.25986
G1 X42.613 Y47.813 E8.42260
G1 X42.738 Y48.313 E8.44121
G1 X40.188 Y50.863 E8.57156
G1 X40.938 Y50.725 E8.59904
G1 X42.850 Y48.813 E8.69700
G1 X42.913 Y49.363 E8.71696
G1 X41.688 Y50.588 E8.78018
G1 X42.425 Y50.463 E8.80765
G1 X42.988 Y49.913 E8.83594
G1 F1800.000 E4.33594
G92 E0
G1 X42.988 Y75.150 F3600.000
G1 F1800.000 E4.50000
G1 X42.425 Y75.700 F1200.000 E4.52828
G1 X41.688 Y75.838 E4.55576
G1 X42.913 Y74.600 E4.61897
G1 X42.850 Y74.050 E4.63893
G1 X40.938 Y75.963 E4.73690
G1 X40.188 Y76.100 E4.76438
G1 X42.738 Y73.550 E4.89473
G1 X42.613 Y73.050 E4.91333
G1 X39.438 Y76.225 E5.07608
G1 X38.688 Y76.363 E5.10355
G1 X42.438 Y72.613 E5.29546
G1 X41.863 Y72.575 E5.31658
G1 X37.950 Y76.488 E5.51695
G1 X37.200 Y76.625 E5.54443
G1 X41.113 Y72.713 E5.74480
G1 X40.363 Y72.838 E5.77227
G1 X36.450 Y76.750 E5.97264
G1 X35.700 Y76.888 E6.00012
G1 X39.613 Y72.975 E6.20049
G1 X38.863 Y73.100 E6.22797
G1 X34.950 Y77.025 E6.42834
G1 X34.213 Y77.150 E6.45582
G1 X38.125 Y73.238 E6.65618
G1 X37.375 Y73.375 E6.68366
G1 X33.463 Y77.288 E6.88403
G1 X32.713 Y77.413 E6.91151
G1 X36.625 Y73.500 E7.11188
G1 X35.875 Y73.638 E7.13936
G1 X31.963 Y77.550 E7.33972
G1 X31.213 Y77.675 E7.36720
G1 X35.125 Y73.763 E7.56757
G1 X34.388 Y73.900 E7.59505
G1 X30.475 Y77.813 E7.79542
G1 X29.725 Y77.938 E7.82290
G1 X33.638 Y74.025 E8.02326
G1 X32.888 Y74.163 E8.05074
G1 X29.138 Y77.913 E8.24265
G1 X28.963 Y77.475 E8.25976
G1 X32.138 Y74.288 E8.42250
G1 X31.388 Y74.425 E8.44998
G1 X28.850 Y76.975 E8.58034
G1 X28.738 Y76.475 E8.59894
G1 X30.650 Y74.550 E8.69690
G1 X29.900 Y74.688 E8.72438
G1 X28.663 Y75.925 E8.78759
G1 X28.600 Y75.375 E8.80766
G1 X29.150 Y74.825 E8.83594
G1 F1800.000 E4.33594
G92 E0
G1 X17.763 Y77.313 F3600.000
G1 F1800.000 E4.50000
G1 X17.425 Y77.325 F600.000 E4.51149
G1 X17.338 Y76.975 E4.52402
G1 X17.325 Y73.063 E4.65700
G1 X17.175 Y73.213
G1 X17.325 Y73.263 E4.66037
G1 X17.625 Y72.625 E4.67484
G1 X17.500 Y77.138 F3600.000
G1 X17.338 Y77.563 F600.000 E4.68996
G1 X17.338 Y81.425 E4.81836
G1 X17.050 Y82.063 E4.84176
G1 F1800.000 E0.34176
G92 E0
G1 X56.825 Y75.825 F3600.000
G1 F1800.000 E4.50000
G1 X58.075 Y74.838 F600.000 E4.55519
G1 F1800.000 E0.05519
G92 E0
G1 X58.413 Y69.100 F3600.000
G1 F1800.000 E4.50000
G1 X59.088 Y69.313 F600.000 E4.51709
G1 X59.350 Y69.150 E4.52436
G1 X57.925 Y68.963 F3600.000
G1 X57.125 Y68.713 F600.000 E4.54692
G1 F1800.000 E0.04692
G92 E0
G1 X61.688 Y57.050 F3600.000
G1 F1800.000 E4.50000
G1 X60.788 Y57.950 F1200.000 E4.54919
G1 X60.063 Y58.013 E4.57739
G1 X61.575 Y56.500 E4.66033
G1 X61.200 Y56.213 E4.67848
G1 X59.450 Y57.963 E4.77394
G1 X58.963 Y57.800 E4.79408
G1 X60.725 Y56.025 E4.89093
G1 X60.263 Y55.838 E4.91049
G1 X58.613 Y57.500 E5.00075
G1 X58.475 Y56.963 E5.02171
G1 X59.313 Y56.125 E5.06774
G1 X59.925 Y55.738
G1 X59.925 Y54.525 F600.000 E5.11908
G1 X59.525 Y54.175 E5.14152
G1 X59.925 Y54.525
G1 X60.188 Y54.313 E5.15758
G1 X61.213 Y53.813 F3600.000
G1 X61.525 Y53.825 F600.000 E5.16307
G1 X62.250 Y54.250 E5.17805
G1 F1800.000 E0.67805
G92 E0
G1 X62.563 Y51.463 F3600.000
G1 F1800.000 E4.50000
G1 X62.388 Y51.725 F600.000 E4.50861
G1 X60.575 Y52.000 E4.55885
G1 X60.675 Y50.250 F3600.000
G1 X60.288 Y50.250 F600.000 E4.56952
G1 X59.588 Y50.250
G1 X58.725 Y50.250 E4.59305
G1 F1800.000 E0.09305
G92 E0
G1 X60.563 Y48.513 F3600.000
G1 F1800.000 E4.50000
G1 X62.363 Y48.788 F600.000 E4.54984
G1 X62.538 Y49.050 E4.55861
G1 F1800.000 E0.05861
G92 E0
G1 X58.863 Y53.738 F3600.000
G1 F1800.000 E4.50000
G1 X58.075 Y53.938 F600.000 E4.52550
G1 X58.025 Y54.075 E4.52994
G1 F1800.000 E0.02994
G92 E0
G1 X63.875 Y51.513 F3600.000
G1 F1800.000 E4.50000
G1 X63.938 Y51.463 F1200.000 E4.50501
G1 X63.875 Y49.050 F3600.000
G1 X63.938 Y49.000 F1200.000 E4.50770
G1 X63.575 Y46.513 F3600.000
G1 X56.600 Y46.513 F600.000 E4.82317
G1 F1800.000 E0.32317
G92 E0
G1 X63.700 Y38.988 F3600.000
G1 F1800.000 E4.50000
G1 X63.750 Y38.900 F600.000 E4.50351
G1 F1800.000 E0.00351
G92 E0
G1 X77.925 Y47.300 F3600.000
G1 F1800.000 E4.50000
G1 X77.363 Y47.875 F1200.000 E4.52920
G1 X77.200 Y48.650 E4.55841
G1 X78.463 Y47.400 E4.62325
G1 X78.988 Y47.488 E4.64274
G1 X77.063 Y49.413 E4.74165
G1 X77.000 Y50.088 E4.76670
G1 X79.513 Y47.588 E4.89610
G1 X80.038 Y47.675 E4.91559
G1 X77.300 Y50.413 E5.05679
G1 X77.825 Y50.513 E5.07628
G1 X80.563 Y47.763 E5.21748
G1 X81.088 Y47.863 E5.23697
G1 X78.350 Y50.600 E5.37817
G1 X78.875 Y50.700 E5.39766
G1 X81.613 Y47.950 E5.53886
G1 X82.150 Y48.050 E5.55835
G1 X79.400 Y50.788 E5.69956
G1 X79.938 Y50.875 E5.71904
G1 X82.675 Y48.138 E5.86025
G1 X83.200 Y48.238 E5.87974
G1 X80.463 Y50.975 E6.02094
G1 X80.988 Y51.063 E6.04043
G1 X83.725 Y48.325 E6.18163
G1 X84.250 Y48.413 E6.20112
G1 X81.513 Y51.163 E6.34232
G1 X82.038 Y51.250 E6.36181
G1 X84.775 Y48.513 E6.50301
G1 X85.300 Y48.600 E6.52250
G1 X82.563 Y51.350 E6.66370
G1 X83.088 Y51.438 E6.68319
G1 X85.838 Y48.700 E6.82439
G1 X86.363 Y48.788 E6.84388
G1 X83.625 Y51.525 E6.98508
G1 X84.150 Y51.625 E7.00457
G1 X86.888 Y48.888 E7.14577
G1 X87.413 Y48.975 E7.16526
G1 X84.675 Y51.713 E7.30646
G1 X85.200 Y51.813 E7.32595
G1 X87.938 Y49.063 E7.46715
G1 X88.463 Y49.163 E7.48664
G1 X85.725 Y51.900 E7.62784
G1 X86.250 Y52.000 E7.64733
G1 X88.988 Y49.250 E7.78853
G1 X89.525 Y49.350 E7.80802
G1 X86.775 Y52.088 E7.94922
G1 X87.313 Y52.175 E7.96871
G1 X90.050 Y49.438 E8.10991
G1 X90.575 Y49.538 E8.12940
G1 X87.838 Y52.275 E8.27060
G1 X88.363 Y52.363 E8.29009
G1 X91.100 Y49.625 E8.43129
G1 X91.400 Y49.950 E8.44727
G1 X88.888 Y52.463 E8.57655
G1 X89.413 Y52.550 E8.59604
G1 X91.325 Y50.638 E8.69478
G1 X91.200 Y51.388 E8.72270
G1 X89.938 Y52.650 E8.78736
G1 X90.463 Y52.738 E8.80685
G1 X91.025 Y52.175 E8.83587
G1 F1800.000 E4.33587
G92 E0
G1 X102.500 Y47.975 F3600.000
G1 F1800.000 E4.50000
G1 X102.650 Y48.025 F600.000 E4.50328
G1 X102.938 Y47.388 E4.51788
G1 X102.650 Y47.825
G1 X102.650 Y51.888 E4.65569
G1 X102.575 Y52.113 E4.66373
G1 X102.638 Y52.288 E4.67009
G1 X102.663 Y56.050 E4.79784
G1 X102.450 Y56.638 E4.81936
G1 X102.938 Y72.625 F3600.000
G1 X102.650 Y73.275 F600.000 E4.83397
G1 X102.500 Y73.213 E4.83724
G1 X102.650 Y73.075
G1 X102.650 Y77.125 E4.97506
G1 X102.575 Y77.350 E4.98309
G1 X102.638 Y77.525 E4.98945
G1 X102.663 Y81.288 E5.11720
G1 X102.450 Y81.888 E5.13873
G1 F1800.000 E0.63873
G92 E0
G1 X91.025 Y77.413 F3600.000
G1 F1800.000 E4.50000
G1 X90.475 Y77.975 F1200.000 E4.52888
G1 X89.938 Y77.888 E4.54838
G1 X91.200 Y76.625 E4.61292
G1 X91.325 Y75.875 E4.64085
G1 X89.413 Y77.788 E4.73949
G1 X88.888 Y77.700 E4.75899
G1 X91.400 Y75.188 E4.88818
G1 X91.100 Y74.863 E4.90417
G1 X88.363 Y77.600 E5.04527
G1 X87.838 Y77.513 E5.06477
G1 X90.575 Y74.775 E5.20588
G1 X90.050 Y74.675 E5.22538
G1 X87.313 Y77.413 E5.36649
G1 X86.775 Y77.325 E5.38599
G1 X89.525 Y74.588 E5.52711
G1 X88.988 Y74.488 E5.54661
G1 X86.250 Y77.238 E5.68773
G1 X85.725 Y77.138 E5.70723
G1 X88.463 Y74.400 E5.84837
G1 X87.938 Y74.313 E5.86786
G1 X85.200 Y77.050 E6.00900
G1 X84.675 Y76.950 E6.02850
G1 X87.413 Y74.213 E6.16964
G1 X86.888 Y74.125 E6.18914
G1 X84.150 Y76.863 E6.33029
G1 X83.625 Y76.763 E6.34978
G1 X86.363 Y74.025 E6.49094
G1 X85.838 Y73.938 E6.51044
G1 X83.088 Y76.675 E6.65160
G1 X82.563 Y76.588 E6.67109
G1 X85.300 Y73.838 E6.81226
G1 X84.775 Y73.750 E6.83176
G1 X82.038 Y76.488 E6.97293
G1 X81.513 Y76.400 E6.99243
G1 X84.250 Y73.663 E7.13360
G1 X83.725 Y73.563 E7.15310
G1 X80.988 Y76.300 E7.29428
G1 X80.463 Y76.213 E7.31378
G1 X83.200 Y73.475 E7.45497
G1 X82.675 Y73.375 E7.47447
G1 X79.925 Y76.113 E7.61566
G1 X79.400 Y76.025 E7.63516
G1 X82.138 Y73.288 E7.77636
G1 X81.613 Y73.188 E7.79586
G1 X78.875 Y75.938 E7.93706
G1 X78.350 Y75.838 E7.95656
G1 X81.088 Y73.100 E8.09777
G1 X80.563 Y73.013 E8.11727
G1 X77.825 Y75.750 E8.25848
G1 X77.300 Y75.650 E8.27798
G1 X80.038 Y72.913 E8.41920
G1 X79.513 Y72.825 E8.43870
G1 X77.000 Y75.325 E8.56802
G1 X77.063 Y74.650 E8.59311
G1 X78.988 Y72.725 E8.69189
G1 X78.450 Y72.638 E8.71138
G1 X77.200 Y73.888 E8.77606
G1 X77.363 Y73.100 E8.80529
G1 X77.925 Y72.538 E8.83431
G1 F1800.000 E4.33431
G92 E0
G1 X71.788 Y82.175 F3600.000
G1 F1800.000 E4.50000
G1 X71.613 Y82.350 F1200.000 E4.50904
G1 X71.000 Y82.350 E4.53114
G1 X71.775 Y81.563 E4.57110
G1 X71.775 Y80.963 E4.59297
G1 X70.388 Y82.350 E4.66385
G1 X69.763 Y82.350 E4.68594
G1 X71.738 Y80.375 E4.78649
G1 X71.575 Y79.925 E4.80376
G1 X69.150 Y82.350 E4.92728
G1 X68.538 Y82.350 E4.94938
G1 X71.325 Y79.575 E5.09100
G1 X70.975 Y79.313 E5.10678
G1 X67.925 Y82.350 E5.26181
G1 X67.313 Y82.350 E5.28391
G1 X70.538 Y79.138 E5.44778
G1 X69.963 Y79.088 E5.46834
