; filename = 1.3w
; print_time = 3237
; machine = dv1NW0A000
; facets = 4564
; total_layers = 45
; version = 20100610
; total_filament = 1615.59
; nozzle_diameter = 0.40
; nozzle_type = 57
; first_layer_height = 0.35
; layer_height = 0.20
; avoid_crossing_perimeters = 0
; bridge_detect = 0
; bridge_flow_ratio = 0.90
; support_material = 0
; extruder_filament = 1615.59:0.00
; extruder = 1
; temperature = 210
; bed_temperature = 0
; non_double_speed = 1
; preheating_time = 0,0,0
; filamentid = 50,50
; materialid = 0
; fill_density = 0.10
; infill_expand = 0.000
; raft_layers = 0
; shells = 2
; speed = 20.000
; brim_width = 0.000
; dimension = 67.24:46.23:9.15
; original_dimension = 67.24:46.23:9.09
; boundingbox_x1 = 26.43
; boundingbox_y1 = 35.80
; boundingbox_x2 = 93.67
; boundingbox_y2 = 82.03
; resolution = 0.0400
; top_solid_layers = 5
; bottom_solid_layers = 3
; fill_pattern = rectilinear
; perimeter_speed = 15.000
; external_perimeter_speed = 15.000
; small_perimeter_speed = 15.000
; top_solid_infill_speed = 20.000
; solid_infill_speed = 20.000
; bridge_speed = 10.000
; travel_speed = 60.000
; retract_speed = 30
; retract_length = 4.500
; retract_before_travel = 2.000
; retract_lift = 0.000
; retract_restart_extra = 0.000
; retract_layer_change = 1
; only_retract_when_crossing_perimeters = 1
; first_layer_speed = 10.000
; extrusion_multiplier_perimeter = 1.000
; extrusion_multiplier_infill = 1.000
; extrusion_multiplier_gapfill = 1.000
; extrusion_multiplier_solid_infill = 1.000
; extrusion_multiplier_top_infill = 1.000
; Call_From_APP = XYZprint V2.0.5_2A14512
; speed_limit_open = 0

; infill_type = 0
; Seam_Corner_Preference = 0
G21 ; set units to millimeters
M107
M104 S210 ; set temperature
M109 S210 ; wait for temperature to be reached
M191
G90 ; use absolute coordinates
G92 E0
M82 ; use absolute distances for extrusion
G1 F1800.000 E-4.50000
G92 E0
; Layer: 1 Time: 145
G1 Z0.350 F3600.000
; skirt start
G1 X3.000 Y1.000
G1 F1800.000 E4.50000
G1 X5.000 Y1.000 F600.000 E4.96245
G1 X5.000 Y101.000 E28.08519
G1 X3.000 Y101.000 E28.54765
G1 X3.000 Y1.788 E51.48667
; skirt end
; Region: 0
; perimeter_start
G1 F1800.000 E46.98667
G92 E0
G1 X29.463 Y73.075 F3600.000
G1 F1800.000 E4.50000
G1 X29.650 Y73.688 F600.000 E4.55989
G1 X30.250 Y74.300 E4.63897
G1 X33.625 Y75.025 E4.95810
G1 X34.138 Y74.975 E5.00577
G1 X34.688 Y75.588 E5.08104
G1 X35.363 Y75.763 E5.14589
G1 X66.813 Y75.600 E8.05489
G1 X67.663 Y75.250 E8.13948
G1 X68.150 Y74.750 E8.20469
G1 X68.563 Y73.950 E8.28718
G1 X70.850 Y75.525 E8.54513
G1 X71.550 Y75.663 E8.61048
G1 X72.850 Y75.675 E8.73036
G1 X72.288 Y76.875 E8.85333
G1 X72.150 Y77.988 E8.95639
G1 X72.413 Y79.763 E9.12249
G1 X70.563 Y78.963 E9.30892
G1 X69.163 Y78.238 E9.45513
G1 X67.588 Y77.263 E9.62658
G1 X30.763 Y77.250 E13.03213
G1 X30.075 Y77.150 E13.09702
G1 X29.413 Y76.900 E13.16223
G1 X28.800 Y76.525 E13.22787
G1 X28.288 Y76.050 E13.29267
G1 X27.888 Y75.513 E13.35526
G1 X27.600 Y74.900 E13.41784
G1 X27.425 Y74.213 E13.48273
G1 X27.388 Y73.513 E13.54859
G1 X27.488 Y72.825 E13.61234
G1 X27.813 Y71.950 E13.69886
G1 X28.825 Y70.463 E13.86500
G1 X29.800 Y70.700 E13.95799
G1 X30.188 Y71.200 E14.01647
G1 X29.525 Y72.488 E14.15038
G1 X29.500 Y72.763 E14.17583
G1 F1800.000 E9.67583
G92 E0
G1 X86.938 Y78.438 F3600.000
G1 F1800.000 E4.50000
G1 X87.150 Y78.213 F600.000 E4.52923
G1 X87.450 Y77.613 E4.59018
G1 X87.525 Y76.763 E4.66912
G1 X87.288 Y75.750 E4.76576
G1 X92.063 Y75.775 E5.20789
G1 X92.288 Y75.850 E5.22997
G1 X92.613 Y76.175 E5.27206
G1 X92.700 Y76.475 E5.30047
G1 X92.675 Y76.688 E5.32095
G1 X92.588 Y76.900 E5.34181
G1 X92.325 Y77.163 E5.37616
G1 X90.738 Y78.175 E5.54996
G1 X89.713 Y78.725 E5.65828
G1 X87.675 Y79.638 E5.86513
G1 X87.100 Y78.713 E5.96634
G1 X86.238 Y78.513
G1 X86.050 Y78.300 E5.99241
G1 X86.325 Y78.150 E6.02165
G1 X86.625 Y77.838 E6.06169
G1 X86.825 Y77.438 E6.10298
G1 X86.888 Y76.813 E6.16128
G1 X86.763 Y76.313 E6.20893
G1 X86.513 Y75.900 E6.25426
G1 X86.213 Y75.638 E6.29042
G1 X85.788 Y75.488 E6.33273
G1 X85.063 Y75.413 E6.39958
G1 X80.950 Y75.413 E6.77945
G1 X80.075 Y78.188 E7.04876
G1 X79.850 Y78.188 E7.06940
G1 X78.975 Y75.413 E7.33852
G1 X77.450 Y75.413 E7.47863
G1 X77.450 Y76.725 E7.59992
G1 X77.213 Y76.775 E7.62307
G1 X77.038 Y76.363 E7.66468
G1 X76.663 Y75.888 E7.72123
G1 X75.900 Y75.450 E7.80171
G1 X75.100 Y75.363 E7.87678
G1 X74.300 Y75.513 E7.95120
G1 X73.700 Y75.850 E8.01505
G1 X73.238 Y76.350 E8.07898
G1 X72.913 Y77.063 E8.15052
G1 X72.788 Y77.975 E8.23645
G1 X72.950 Y79.038 E8.33534
G1 X73.388 Y79.888 E8.42345
G1 X73.875 Y80.325 E8.48418
G1 X74.450 Y80.575 E8.54236
G1 X75.463 Y80.650 E8.63607
G1 X76.163 Y80.475 E8.70247
G1 X76.463 Y80.300 E8.73508
G1 X76.913 Y79.900 E8.79024
G1 X77.225 Y79.350 E8.84978
G1 X77.450 Y79.400 E8.87146
G1 X77.450 Y80.600 E8.98203
G1 X78.725 Y80.600 E9.10011
G1 X78.725 Y79.375 E9.21313
G1 X78.988 Y79.338 E9.23736
G1 X79.388 Y80.600 E9.35965
G1 X80.525 Y80.600 E9.46478
G1 X80.925 Y79.325 E9.58885
G1 X81.188 Y79.363 E9.61305
G1 X81.188 Y80.600 E9.72770
G1 X84.038 Y80.600 E9.99131
G1 X84.038 Y78.563 E10.17934
G1 X84.613 Y78.575 E10.23279
G1 X84.775 Y78.663 E10.25019
G1 X84.988 Y78.900 E10.27951
G1 X86.163 Y80.813 E10.48699
G1 X84.025 Y81.325 E10.68966
G1 X81.463 Y81.650 E10.92893
G1 X79.300 Y81.700 E11.12866
G1 X77.150 Y81.538 E11.32817
G1 X75.038 Y81.175 E11.52638
G1 X72.988 Y80.613 E11.72271
G1 X71.813 Y80.188 E11.83856
G1 X70.288 Y79.538 E11.99175
G1 X68.850 Y78.788 E12.14223
G1 X67.400 Y77.900 E12.29917
G1 X30.713 Y77.888 E15.69274
G1 X29.913 Y77.763 E15.76801
G1 X29.125 Y77.475 E15.84477
G1 X28.413 Y77.038 E15.92202
G1 X27.813 Y76.475 E15.99829
G1 X27.338 Y75.838 E16.07212
G1 X27.000 Y75.113 E16.14596
G1 X26.788 Y74.313 E16.22226
G1 X26.750 Y73.475 E16.29973
G1 X26.863 Y72.663 E16.37601
G1 X27.250 Y71.663 E16.47582
G1 X28.538 Y69.738 E16.68950
G1 X30.050 Y70.113 E16.83288
G1 X30.263 Y70.263 E16.85805
G1 X30.888 Y71.050 E16.95059
G1 X30.900 Y71.200 E16.96457
G1 X30.150 Y72.663 E17.11693
G1 X30.113 Y73.013 E17.14902
G1 X30.213 Y73.363 E17.18253
G1 X30.575 Y73.725 E17.22929
G1 X33.663 Y74.375 E17.52209
G1 X34.013 Y74.350 E17.55385
G1 X34.350 Y74.163 E17.58985
G1 X34.400 Y74.088 E17.59813
G1 X34.613 Y74.138 E17.61901
G1 X34.650 Y74.600 E17.66209
G1 X35.025 Y75.013 E17.71390
G1 X35.438 Y75.125 E17.75342
G1 X66.688 Y74.963 E20.64311
G1 X67.300 Y74.713 E20.70432
G1 X67.638 Y74.375 E20.74841
G1 X67.838 Y73.975 E20.78947
G1 X67.900 Y73.538 E20.83052
G1 X67.838 Y73.075 E20.87344
G1 X67.750 Y72.900 E20.89177
G1 X67.925 Y72.738 E20.91370
G1 X71.100 Y74.925 E21.27075
G1 X71.613 Y75.025 E21.31837
G1 X92.163 Y75.150 E23.21949
G1 X92.588 Y75.275 E23.26015
G1 X92.950 Y75.550 E23.30185
G1 X93.200 Y75.900 E23.34184
G1 X93.338 Y76.413 E23.39104
G1 X93.300 Y76.850 E23.43155
G1 X93.125 Y77.250 E23.47262
G1 X92.738 Y77.663 E23.52464
G1 X91.063 Y78.725 E23.70761
G1 X90.000 Y79.300 E23.82021
G1 X88.100 Y80.150 E24.01212
G1 X87.388 Y80.388 E24.08219
G1 X86.400 Y78.775 E24.25658
G1 X86.338 Y78.250
G1 F1800.000 E19.75658
G92 E0
G1 X39.313 Y63.675 F3600.000
G1 F1800.000 E4.50000
G1 X36.013 Y70.000 F600.000 E5.15912
G1 X35.725 Y69.050 E5.25043
G1 X34.450 Y67.025 E5.47239
G1 X33.938 Y66.600 E5.53354
G1 X32.300 Y65.938 E5.69621
G1 X32.700 Y65.475 E5.75244
G1 X33.300 Y65.013 E5.82241
G1 X33.988 Y64.675 E5.89383
G1 X39.000 Y63.738 E6.36529
G1 X40.475 Y62.825 F3600.000
G1 X35.525 Y72.288 F600.000 E7.35275
G1 X35.300 Y72.225 E7.37470
G1 X35.263 Y69.700 E7.60885
G1 X35.138 Y69.313 E7.64600
G1 X33.963 Y67.450 E7.85043
G1 X33.613 Y67.150 E7.89303
G1 X31.363 Y66.250 E8.11649
G1 X31.688 Y65.688 E8.17599
G1 X32.250 Y65.013 E8.25776
G1 X32.963 Y64.475 E8.34011
G1 X33.763 Y64.088 E8.42229
G1 X34.163 Y63.963 E8.46120
G1 X40.163 Y62.888 E9.02548
G1 X39.575 Y63.725
G1 F1800.000 E4.52548
G92 E0
G1 X52.813 Y55.688 F3600.000
G1 F1800.000 E4.50000
G1 X52.725 Y55.513 F600.000 E4.51786
G1 X52.725 Y55.163 E4.55135
G1 X52.963 Y54.838 E4.58796
G1 X53.275 Y54.738 E4.61863
G1 X53.713 Y54.900 E4.66194
G1 X64.238 Y68.013 E6.21666
G1 X64.663 Y69.113 E6.32541
G1 X64.300 Y69.388 E6.36757
G1 X62.900 Y68.375 E6.52691
G1 X53.013 Y55.938 E7.99660
G1 X52.263 Y56.025
G1 X52.113 Y55.700 E8.03004
G1 X52.063 Y55.338 E8.06438
G1 X52.113 Y54.963 E8.09871
G1 X52.263 Y54.650 E8.13089
G1 X52.575 Y54.325 E8.17282
G1 X52.888 Y54.163 E8.20500
G1 X53.250 Y54.088 E8.23933
G1 X53.600 Y54.125 E8.27231
G1 X54.125 Y54.400 E8.32707
G1 X64.800 Y67.688 E9.90332
G1 X66.175 Y71.250 E10.25695
G1 X65.988 Y71.400 E10.27802
G1 X62.463 Y68.838 E10.68114
G1 X52.463 Y56.275 E12.16582
G1 X52.450 Y55.725
G1 F1800.000 E7.66582
G92 E0
G1 X75.638 Y42.775 F3600.000
G1 F1800.000 E4.50000
G1 X75.363 Y42.050 F600.000 E4.57193
G1 X75.788 Y41.775 E4.61838
G1 X76.438 Y42.463 E4.70562
G1 X75.938 Y42.663 E4.75475
G1 X75.275 Y43.600 F450.000
G1 X74.413 Y41.338 F600.000 E4.97873
G1 X75.025 Y38.788 E5.22104
G1 X75.250 Y38.775 E5.24172
G1 X76.163 Y41.088 E5.47160
G1 X76.413 Y41.513 E5.51704
G1 X76.788 Y41.913 E5.56803
G1 X77.225 Y42.150 E5.61379
G1 X78.163 Y42.238 E5.70121
G1 X78.200 Y42.475 E5.72363
G1 X75.575 Y43.475 E5.98350
G1 X75.475 Y42.338
G1 F1800.000 E1.48350
G92 E0
G1 X68.175 Y45.650 F3600.000
G1 F1800.000 E4.50000
G1 X49.475 Y52.838 F600.000 E6.35342
G1 X48.850 Y53.375 E6.43015
G1 X48.400 Y54.088 E6.50765
G1 X48.188 Y55.038 E6.59747
G1 X48.325 Y55.975 E6.68469
G1 X45.063 Y56.063 E6.98718
G1 X44.388 Y56.213 E7.05139
G1 X43.725 Y56.488 E7.11733
G1 X42.675 Y57.225 E7.23588
G1 X42.313 Y56.863 E7.28320
G1 X42.613 Y56.438 E7.33168
G1 X47.463 Y51.888 E7.94684
G1 X61.863 Y45.488 E9.40455
G1 X63.025 Y44.088 E9.57232
G1 X63.825 Y43.225 E9.68095
G1 X64.988 Y42.125 E9.82905
G1 X66.400 Y41.013 E9.99596
G1 X68.063 Y45.350 E10.42607
G1 F1800.000 E5.92607
G92 E0
G1 X73.038 Y39.350 F3600.000
G1 F1800.000 E4.50000
G1 X71.513 Y38.213 F600.000 E4.67545
G1 X72.100 Y37.975 E4.73481
G1 X73.400 Y37.588 E4.85979
G1 X73.100 Y39.038 E4.99658
G1 F1800.000 E0.49658
G92 E0
G1 X79.625 Y36.738 F3600.000
G1 F1800.000 E4.50000
G1 X81.488 Y36.850 F600.000 E4.67203
G1 X83.450 Y37.138 E4.85580
G1 X85.463 Y37.650 E5.04722
G1 X85.788 Y37.963 E5.08967
G1 X85.863 Y38.175 E5.10973
G1 X85.863 Y38.475 E5.13814
G1 X85.625 Y38.875 E5.18060
G1 X85.388 Y39.025 E5.20700
G1 X80.763 Y40.800 E5.66442
G1 X80.738 Y39.875 E5.74992
G1 X80.475 Y38.950 E5.83917
G1 X79.738 Y37.038 E6.02909
G1 X79.888 Y36.113
G1 X81.550 Y36.225 E6.18316
G1 X83.575 Y36.513 E6.37241
G1 X85.725 Y37.063 E6.57703
G1 X86.075 Y37.300 E6.61713
G1 X86.350 Y37.663 E6.65884
G1 X86.500 Y38.063 E6.69883
G1 X86.488 Y38.600 E6.74803
G1 X86.338 Y39.013 E6.78854
G1 X86.050 Y39.363 E6.83017
G1 X85.663 Y39.600 E6.87180
G1 X79.338 Y42.038 E7.49922
G1 X79.213 Y41.800 E7.52395
G1 X79.650 Y41.475 E7.57515
G1 X79.975 Y41.000 E7.62751
G1 X80.125 Y40.538 E7.67286
G1 X80.113 Y39.975 E7.72501
G1 X79.875 Y39.150 E7.80420
G1 X78.825 Y36.400 E8.07609
G1 X77.675 Y36.850 E8.18978
G1 X78.863 Y40.025 E8.50399
G1 X78.888 Y40.400 E8.53775
G1 X78.838 Y40.575 E8.55542
G1 X78.450 Y40.875 E8.60054
G1 X78.063 Y41.013 E8.63903
G1 X77.788 Y41.025 E8.66339
G1 X77.488 Y40.888 E8.69422
G1 X77.313 Y40.638 E8.72211
G1 X76.063 Y37.463 E9.03777
G1 X73.900 Y38.300 E9.25198
G1 X73.450 Y40.450 E9.45570
G1 X71.688 Y39.150 E9.65855
G1 X70.300 Y39.675 E9.79693
G1 X73.263 Y41.775 E10.13243
G1 X74.125 Y44.038 E10.35680
G1 X70.075 Y45.600 E10.75857
G1 X69.963 Y45.313 E10.78667
G1 X71.200 Y44.825 E10.91014
G1 X71.563 Y44.613 E10.94840
G1 X71.938 Y44.225 E10.99858
G1 X72.138 Y43.838 E11.03865
G1 X72.200 Y43.300 E11.08949
G1 X72.088 Y42.775 E11.13900
G1 X71.900 Y42.413 E11.17643
G1 X71.463 Y42.025 E11.23067
G1 X71.138 Y41.900 E11.26374
G1 X71.225 Y41.600 E11.29287
G1 X71.213 Y41.163 E11.33315
G1 X71.088 Y40.788 E11.37014
G1 X70.838 Y40.438 E11.40931
G1 X70.550 Y40.200 E11.44370
G1 X70.038 Y40.025 E11.49362
G1 X69.550 Y40.025 E11.53856
G1 X68.938 Y40.200 E11.59753
G1 X67.050 Y40.925 E11.78494
G1 X69.000 Y46.013 E12.28865
G1 X49.813 Y53.400 E14.19084
G1 X49.325 Y53.800 E14.24848
G1 X49.000 Y54.338 E14.30676
G1 X48.838 Y55.063 E14.37545
G1 X48.950 Y55.788 E14.44415
G1 X49.363 Y56.575 E14.52611
G1 X45.138 Y56.700 E14.91703
G1 X44.575 Y56.825 E14.97052
G1 X44.038 Y57.050 E15.02482
G1 X43.313 Y57.563 E15.10659
G1 X41.538 Y60.788 E15.44690
G1 X41.300 Y60.713 E15.46991
G1 X41.675 Y56.888 E15.82495
G1 X41.838 Y56.425 E15.87055
G1 X42.125 Y56.013 E15.91689
G1 X47.100 Y51.350 E16.54818
G1 X61.475 Y44.963 E18.00198
G1 X62.538 Y43.663 E18.15769
G1 X63.375 Y42.775 E18.27005
G1 X64.575 Y41.650 E18.42249
G1 X66.213 Y40.350 E18.61635
G1 X67.988 Y39.188 E18.81290
G1 X69.888 Y38.188 E19.01145
G1 X71.888 Y37.375 E19.21111
G1 X73.963 Y36.763 E19.41095
G1 X76.075 Y36.350 E19.61005
G1 X78.200 Y36.138 E19.80764
G1 X79.575 Y36.125 E19.93432
G1 X80.488 Y37.238
G1 F1800.000 E15.43432
G92 E0
G1 X75.275 Y77.188 F3600.000
G1 F1800.000 E4.50000
G1 X75.663 Y77.963 F600.000 E4.54019
G1 X75.625 Y78.088 E4.54625
G1 X75.375 Y78.850 E4.62033
G1 X74.950 Y78.838 E4.65929
G1 X74.775 Y78.475 E4.69686
G1 X74.738 Y78.113 E4.73017
G1 X74.713 Y77.888 E4.74073
G1 X74.838 Y77.250 E4.77093
G1 X74.963 Y77.225 E4.77642
G1 X75.425 Y76.550
G1 X75.775 Y76.763 E4.81368
G1 X76.138 Y77.500 E4.89006
G1 X77.450 Y77.213 E5.01416
G1 X77.450 Y78.588 E5.14106
G1 X76.225 Y78.300 E5.25818
G1 X76.000 Y78.975 E5.32388
G1 X75.838 Y79.225 E5.35109
G1 X75.600 Y79.388 E5.37749
G1 X75.325 Y79.488 E5.40442
G1 X74.950 Y79.475 E5.43945
G1 X74.625 Y79.350 E5.47176
G1 X74.413 Y79.188 E5.49694
G1 X74.150 Y78.650 E5.55177
G1 X74.075 Y77.863 E5.62530
G1 X74.213 Y77.163 E5.69088
G1 X74.363 Y76.888 E5.72005
G1 X74.563 Y76.688 E5.74613
G1 X74.813 Y76.575 E5.77146
G1 X75.113 Y76.538 E5.79933
G1 X75.488 Y76.763
G1 F1800.000 E1.29933
G92 E0
G1 X78.125 Y75.388 F3600.000
G1 F1800.000 E4.50000
G1 X78.125 Y75.100 F600.000 E4.52691
G1 X78.388 Y75.100 E4.55136
G1 X78.388 Y75.388 E4.57827
G1 X78.188 Y75.388 E4.59712
G1 X78.438 Y76.575 F3600.000
G1 X78.850 Y79.288 F600.000 E4.85121
G1 X79.975 Y79.238 F3600.000
G1 X79.925 Y78.750 F600.000 E4.89707
G1 X81.075 Y79.275 F3600.000
G1 X81.475 Y76.575 F600.000 E5.14943
G1 X81.388 Y75.613
G1 X81.850 Y75.250 E5.20289
G1 X85.238 Y75.300 E5.51645
G1 X82.613 Y75.563 F3600.000
G1 X82.613 Y80.175 F600.000 E5.94321
G1 F1800.000 E1.44321
G92 E0
G1 X71.100 Y44.925 F3600.000
G1 F1800.000 E4.50000
G1 X69.363 Y45.738 F600.000 E4.67700
G1 X78.513 Y42.413 F3600.000
G1 X78.513 Y41.763 F600.000 E4.73689
G1 X79.163 Y41.763 E4.79728
G1 X79.163 Y42.413 E4.85716
G1 X78.825 Y42.413 E4.88816
; perimeter_end
; infill_start
G1 F1800.000 E0.38816
G92 E0
G1 X78.238 Y40.488 F3600.000
G1 F1800.000 E4.50000
G1 X76.725 Y36.800 F600.000 E5.06879
G1 X77.113 Y36.700
G1 X76.863 Y37.125 E5.10926
G1 X76.288 Y36.825 E5.16170
G1 X74.375 Y37.363 E5.32381
G1 X73.688 Y37.850 E5.39252
G1 X72.775 Y38.300 F3600.000
G1 X72.750 Y38.263 F600.000 E5.39728
G1 X72.750 Y38.263
G1 X72.775 Y38.300 E5.40203
G1 X71.638 Y38.725 F3600.000
G1 X70.838 Y38.675 F600.000 E5.47114
G1 X68.438 Y39.675 E5.69472
G1 X66.763 Y40.663 E5.86129
G1 X66.063 Y41.863 F3600.000
G1 X66.350 Y42.150 F600.000 E5.89921
G1 X65.550 Y42.263
G1 X66.913 Y43.625 E6.07748
G1 X67.475 Y45.088 F3600.000
G1 X65.063 Y42.688 F600.000 E6.39375
G1 X64.600 Y43.125 E6.45326
G1 X67.063 Y45.588 E6.77659
G1 X66.413 Y45.838 E6.84168
G1 X64.138 Y43.563 E7.14029
G1 X63.700 Y44.038 E7.19980
G1 X65.750 Y46.088 E7.46997
G1 X65.100 Y46.338 E7.53506
G1 X63.275 Y44.500 E7.77592
G1 X62.863 Y45.000 E7.83568
G1 X64.450 Y46.588 E8.04435
G1 X63.800 Y46.838 E8.10943
G1 X62.450 Y45.500 E8.28591
G1 X61.988 Y45.938 E8.34542
G1 X63.138 Y47.088 E8.49719
G1 X62.488 Y47.338 E8.56227
G1 X61.363 Y46.213 E8.71053
G1 X60.738 Y46.488 E8.77427
G1 X61.838 Y47.588 E8.91901
G1 X61.188 Y47.850 E8.98409
G1 X60.113 Y46.775 E9.12532
G1 X59.488 Y47.050 E9.18906
G1 X60.538 Y48.100 E9.32676
G1 X59.875 Y48.350 E9.39185
G1 X58.863 Y47.325 E9.52604
G1 X58.238 Y47.600 E9.58978
G1 X59.225 Y48.600 E9.72046
G1 X58.575 Y48.850 E9.78554
G1 X57.600 Y47.888 E9.91270
G1 X56.975 Y48.163 E9.97644
G1 X57.925 Y49.100 E10.10009
G1 X57.263 Y49.350 E10.16517
G1 X56.350 Y48.438 E10.28530
G1 X55.725 Y48.713 E10.34904
G1 X56.613 Y49.600 E10.46566
G1 X55.963 Y49.850 E10.53074
G1 X55.100 Y49.000 E10.64384
G1 X54.475 Y49.275 E10.70758
G1 X55.313 Y50.100 E10.81717
G1 X54.650 Y50.363 E10.88225
G1 X53.850 Y49.550 E10.98832
G1 X53.538 Y50.150 E11.05084
G1 X54.000 Y50.613 E11.11123
G1 F1800.000 E6.61123
G92 E0
G1 X71.513 Y41.038 F3600.000
G1 F1800.000 E4.50000
G1 X72.675 Y42.275 F600.000 E4.66381
G1 X73.100 Y43.838 E4.81881
G1 X73.325 Y43.325
G1 X72.250 Y44.375 E4.95232
G1 F1800.000 E0.45232
G92 E0
G1 X75.000 Y41.588 F3600.000
G1 F1800.000 E4.50000
G1 X75.300 Y41.125 F600.000 E4.54396
G1 X75.200 Y39.625 E4.66544
G1 X75.300 Y41.125 F3600.000
G1 X75.513 Y41.200 F600.000 E4.69042
G1 F1800.000 E0.19042
G92 E0
G1 X81.325 Y40.100 F3600.000
G1 F1800.000 E4.50000
G1 X81.200 Y39.975 F600.000 E4.51549
G1 X81.988 Y39.838 E4.59040
G1 X80.900 Y38.750 E4.73626
G1 X81.288 Y37.300 E4.87807
G1 X83.313 Y39.325 E5.14917
G1 X83.975 Y39.075 E5.21645
G1 X82.350 Y37.450 E5.43427
G1 X83.438 Y37.613 E5.53823
G1 X84.638 Y38.813 E5.69953
G1 X85.288 Y38.538 E5.76579
G1 X84.663 Y37.925 E5.84830
G1 X82.650 Y39.588 F3600.000
G1 X80.325 Y37.263 F600.000 E6.15956
G1 F1800.000 E1.65956
G92 E0
G1 X53.050 Y50.013 F3600.000
G1 F1800.000 E4.50000
G1 X52.850 Y50.525 F600.000 E4.57887
G1 X49.600 Y51.888 E5.09415
G1 X48.625 Y51.875 E5.23524
G1 X48.825 Y52.800
G1 X48.113 Y52.100 E5.33416
G1 X47.513 Y52.463 E5.40443
G1 X48.350 Y53.300 E5.52221
G1 X47.975 Y53.888 E5.59229
G1 X47.013 Y52.938 E5.72789
G1 X46.513 Y53.400 E5.79624
G1 X47.800 Y54.675 E5.97651
G1 X47.675 Y55.525 E6.06196
G1 X46.013 Y53.875 E6.29573
G1 X45.513 Y54.338 E6.36407
G1 X46.738 Y55.550 E6.53560
G1 X45.788 Y55.588 E6.62947
G1 X45.013 Y54.813 E6.73876
G1 X44.875 Y55.638 E6.82240
G1 X44.513 Y55.275 E6.87282
G1 X44.025 Y55.750 E6.94117
G1 X44.100 Y55.838 E6.95330
G1 X52.850 Y50.525 F3600.000
G1 X53.050 Y50.613 F600.000 E6.98618
G1 F1800.000 E2.48618
G92 E0
G1 X53.325 Y55.250 F3600.000
G1 F1800.000 E4.50000
G1 X53.350 Y55.538 F600.000 E4.52254
G1 X64.213 Y68.888 E5.92297
G1 F1800.000 E1.42297
G92 E0
G1 X44.000 Y55.875 F3600.000
G1 F1800.000 E4.50000
G1 X43.950 Y55.813 F600.000 E4.51416
G1 X42.788 Y57.725 F3600.000
G1 X42.300 Y57.888 F600.000 E4.54951
G1 X42.163 Y57.463 E4.58080
G1 X42.413 Y57.550
G1 X41.750 Y59.700 E4.73730
G1 F1800.000 E0.23730
G92 E0
G1 X38.163 Y64.888 F3600.000
G1 F1800.000 E4.50000
G1 X37.713 Y64.438 F600.000 E4.56242
G1 X36.900 Y64.588 E4.64278
G1 X37.838 Y65.513 E4.77168
G1 X37.500 Y66.138 E4.84083
G1 X36.100 Y64.725 E5.03622
G1 X35.288 Y64.875 E5.11658
G1 X37.175 Y66.763 E5.37846
G1 X36.850 Y67.388 E5.44761
G1 X34.475 Y65.025 E5.77597
G1 X33.800 Y65.288
G1 X36.525 Y68.013 E6.15417
G1 X36.200 Y68.638
G1 X35.700 Y68.150 E6.22235
G1 X33.475 Y65.913 F3600.000
G1 X33.213 Y65.663 F600.000 E6.25767
G1 F1800.000 E1.75767
G92 E0
G1 X29.138 Y71.275 F3600.000
G1 F1800.000 E4.50000
G1 X28.888 Y71.850 F600.000 E4.58514
G1 X28.888 Y71.825
G1 X28.575 Y71.950 E4.62051
G1 X28.575 Y72.413
G1 X29.025 Y72.863 E4.68204
G1 X28.000 Y72.763 F3600.000
G1 X32.025 Y76.800 F600.000 E5.22776
G1 X31.088 Y76.800 E5.31704
G1 X27.850 Y73.550 E5.75687
G1 X28.013 Y74.638 E5.86258
G1 X29.988 Y76.625 E6.13159
G1 X31.125 Y74.963 F3600.000
G1 X32.950 Y76.800 F600.000 E6.38047
G1 X33.888 Y76.800 E6.46976
G1 X32.300 Y75.213 E6.68452
G1 X33.488 Y75.463 E6.80047
G1 X34.813 Y76.800 E6.98111
G1 X34.575 Y75.913
G1 X35.675 Y76.525 E7.13521
G1 X66.350 Y76.425 E10.89778
G1 X67.113 Y76.788 E11.00140
G1 X67.200 Y76.300
G1 X67.700 Y76.800 E11.07405
G1 X67.638 Y75.750 F3600.000
G1 X70.075 Y78.188 F600.000 E11.42360
G1 X71.700 Y77.850 E11.59171
G1 X68.650 Y74.788 E12.02923
G1 X68.213 Y75.338 E12.10028
G1 X71.825 Y78.963 E12.61834
G1 X71.813 Y76.975 F3600.000
G1 X70.838 Y76.000 F600.000 E12.75864
G1 X71.950 Y76.125 E12.87251
G1 X72.075 Y76.250 E12.89001
G1 F1800.000 E8.39001
G92 E0
G1 X76.088 Y80.950 F3600.000
G1 F1800.000 E4.50000
G1 X76.825 Y80.838 F600.000 E4.54466
G1 X76.988 Y80.525 E4.56652
G1 X76.825 Y80.838
G1 X77.050 Y81.088 E4.58578
G1 X79.763 Y81.163 E4.73988
G1 X80.813 Y81.125 E4.79909
G1 X80.838 Y80.825 E4.81608
G1 X80.463 Y81.150
G1 X83.825 Y80.925 E4.98190
G1 X85.500 Y80.513 F3600.000
G1 X84.863 Y80.263 F600.000 E5.04288
G1 X84.563 Y79.200 E5.14318
G1 F1800.000 E0.64318
G92 E0
G1 X88.175 Y78.913 F3600.000
G1 F1800.000 E4.50000
G1 X87.600 Y78.338 F600.000 E4.58375
G1 X87.913 Y77.638 E4.66246
G1 X88.875 Y78.600 E4.80321
G1 X89.563 Y78.288 E4.88130
G1 X87.988 Y76.713 E5.11018
G1 X88.500 Y76.225 E5.18331
G1 X90.213 Y77.938 E5.43368
G1 X90.838 Y77.563 E5.50920
G1 X89.500 Y76.225 E5.70444
G1 X90.513 Y76.238 E5.80845
G1 X91.463 Y77.175 E5.94601
G1 X92.063 Y76.775 E6.02072
G1 X91.525 Y76.238 E6.09962
G1 F1800.000 E1.59962
G92 E0
G1 X79.963 Y77.363 F3600.000
G1 F1800.000 E4.50000
G1 X79.925 Y75.850 F600.000 E4.61373
G1 X79.475 Y75.513 E4.65675
G1 F1800.000 E0.15675
G92 E0
G1 X65.538 Y70.613 F3600.000
G1 F1800.000 E4.50000
G1 X64.875 Y69.763 F600.000 E4.56221
; infill_end
; perimeter_start
G1 F1800.000 E0.06221
G92 E0
G1 X68.875 Y42.250 F3600.000
G1 F1800.000 E4.50000
G1 X68.625 Y41.575 F600.000 E4.56645
G1 X69.438 Y41.275 E4.64686
G1 X69.863 Y41.238 E4.68632
G1 X69.988 Y41.363 E4.70332
G1 X70.025 Y41.675 E4.73236
G1 X69.875 Y41.838 E4.75254
G1 X69.175 Y42.125 E4.82337
; perimeter_end
; perimeter_start
G1 X69.300 Y43.350 F450.000
G1 X70.513 Y42.950 F600.000 E4.94139
G1 X70.700 Y42.975 E4.95857
G1 X70.913 Y43.213 E4.98821
G1 X70.913 Y43.550 E5.01964
G1 X70.688 Y43.775 E5.04831
G1 X69.625 Y44.200 E5.15410
G1 X69.413 Y43.638 E5.20900
; perimeter_end
; perimeter_start
G1 F1800.000 E0.70900
G92 E0
G1 X84.038 Y76.588 F3600.000
G1 F1800.000 E4.50000
G1 X85.263 Y76.600 F600.000 E4.61412
G1 X85.475 Y76.675 E4.63406
G1 X85.600 Y76.975 E4.66431
G1 X85.475 Y77.288 E4.69631
G1 X85.250 Y77.375 E4.71776
G1 X84.038 Y77.400 E4.83050
G1 X84.038 Y76.900 E4.87622
G1 F1800.000 E0.37622
G92 E0
G1 X41.425 Y62.175 F3600.000
G1 F1800.000 E4.50000
G1 X40.700 Y62.175 F600.000 E4.56694
G1 X40.700 Y61.100 E4.66690
G1 X41.425 Y61.100 E4.73383
G1 X41.425 Y61.863 E4.80440
G1 F1800.000 E0.30440
G92 E0
G1 X35.400 Y72.463 F3600.000
G1 F1800.000 E4.50000
G1 X35.400 Y73.750 F600.000 E4.61925
G1 X34.488 Y73.750 E4.70332
G1 X34.488 Y72.463 E4.82257
G1 X35.075 Y72.463 E4.87724
G1 F1800.000 E0.37724
G92 E0
G1 X66.225 Y72.825 F3600.000
G1 F1800.000 E4.50000
G1 X66.225 Y71.550 F600.000 E4.61745
G1 X67.175 Y71.550 E4.70550
G1 X67.175 Y72.825 E4.82295
G1 X66.550 Y72.825 E4.88160
; perimeter_end
G1 F1800.000 E0.38160
G92 E0
; Layer: 2 Time: 120
G1 Z0.550 F3600.000
; Region: 0
; perimeter_start
G1 X68.963 Y45.588
G1 F1800.000 E4.50000
G1 X67.200 Y41.000 F900.000 E4.66349
G1 X68.975 Y40.313 E4.72677
G1 X69.575 Y40.150 E4.74727
G1 X70.025 Y40.150 E4.76226
G1 X70.413 Y40.275 E4.77586
G1 X70.750 Y40.525 E4.78989
G1 X70.975 Y40.838 E4.80281
G1 X71.100 Y41.188 E4.81491
G1 X71.113 Y41.575 E4.82811
G1 X70.988 Y41.963 E4.84166
G1 X71.400 Y42.125 E4.85654
G1 X71.813 Y42.488 E4.87460
G1 X71.975 Y42.813 E4.88682
G1 X72.088 Y43.300 E4.90342
G1 X72.025 Y43.813 E4.92039
G1 X71.850 Y44.163 E4.93348
G1 X71.488 Y44.513 E4.95040
G1 X71.150 Y44.725 E4.96337
G1 X69.150 Y45.513 E5.03496
G1 X68.213 Y45.875
G1 X74.088 Y43.613 F3600.000
G1 X73.350 Y41.700 F900.000 E5.10318
G1 X70.538 Y39.713 E5.21768
G1 X71.675 Y39.275 E5.25796
G1 X73.525 Y40.663 E5.33488
G1 X74.000 Y38.388 E5.41213
G1 X76.000 Y37.613 E5.48314
G1 X77.213 Y40.700 E5.59326
G1 X77.413 Y40.975 E5.60445
G1 X77.775 Y41.150 E5.61811
G1 X78.075 Y41.138 E5.62807
G1 X78.500 Y40.988 E5.64297
G1 X78.938 Y40.638 E5.66158
G1 X79.013 Y40.413 E5.66950
G1 X78.975 Y40.000 E5.68296
G1 X77.825 Y36.913 E5.79260
G1 X78.750 Y36.563 E5.82569
G1 X79.763 Y39.188 E5.91936
G1 X79.988 Y39.988 E5.94717
G1 X80.000 Y40.525 E5.96479
G1 X79.875 Y40.950 E5.97985
G1 X79.575 Y41.388 E5.99741
G1 X79.038 Y41.775 E6.01923
G1 X78.038 Y42.100 E6.05437
G1 X77.250 Y42.038 E6.08045
G1 X76.863 Y41.813 E6.09546
G1 X76.500 Y41.438 E6.11273
G1 X76.263 Y41.038 E6.12832
G1 X75.175 Y38.250 E6.22765
G1 X75.038 Y38.263 E6.23233
G1 X74.288 Y41.338 E6.33766
G1 X75.025 Y43.250 E6.40583
G1 X74.275 Y43.538 E6.43236
G1 X73.338 Y43.900
G1 F1800.000 E1.93236
G92 E0
G1 X77.575 Y75.538 F3600.000
G1 F1800.000 E4.50000
G1 X78.888 Y75.538 F900.000 E4.54360
G1 X79.888 Y78.713 E4.65439
G1 X80.025 Y78.713 E4.65906
G1 X81.038 Y75.538 E4.76992
G1 X82.338 Y75.538 E4.81324
G1 X82.338 Y80.488 E4.97775
G1 X81.300 Y80.488 E5.01237
G1 X81.300 Y78.275 E5.08574
G1 X81.138 Y78.250 E5.09122
G1 X80.438 Y80.488 E5.16903
G1 X79.475 Y80.488 E5.20108
G1 X78.775 Y78.263 E5.27846
G1 X78.613 Y78.288 E5.28394
G1 X78.613 Y80.488 E5.35695
G1 X77.575 Y80.488 E5.39157
G1 X77.575 Y75.738 E5.54943
G1 X77.575 Y74.738
G1 X76.575 Y75.975 F3600.000
G1 X76.938 Y76.425 F900.000 E5.56846
G1 X77.238 Y77.150 E5.59443
G1 X76.213 Y77.363 E5.62935
G1 X75.863 Y76.688 E5.65456
G1 X75.688 Y76.538 E5.66225
G1 X75.175 Y76.400 E5.67991
G1 X74.775 Y76.463 E5.69328
G1 X74.500 Y76.588 E5.70362
G1 X74.263 Y76.813 E5.71423
G1 X74.100 Y77.125 E5.72594
G1 X73.950 Y77.850 E5.75071
G1 X74.038 Y78.688 E5.77842
G1 X74.313 Y79.263 E5.79972
G1 X74.563 Y79.463 E5.81029
G1 X74.925 Y79.588 E5.82321
G1 X75.350 Y79.600 E5.83712
G1 X75.663 Y79.500 E5.84813
G1 X75.925 Y79.300 E5.85894
G1 X76.100 Y79.025 E5.86991
G1 X76.300 Y78.438 E5.89050
G1 X77.325 Y78.688 E5.92569
G1 X77.150 Y79.250 E5.94538
G1 X76.813 Y79.825 E5.96772
G1 X76.400 Y80.213 E5.98648
G1 X76.113 Y80.363 E5.99725
G1 X75.450 Y80.538 E6.01997
G1 X74.475 Y80.450 E6.05237
G1 X73.938 Y80.225 E6.07200
G1 X73.475 Y79.813 E6.09248
G1 X73.063 Y79.000 E6.12280
G1 X72.913 Y77.975 E6.15716
G1 X73.025 Y77.088 E6.18692
G1 X73.325 Y76.425 E6.21143
G1 X73.775 Y75.938 E6.23316
G1 X74.350 Y75.625 E6.25488
G1 X75.100 Y75.475 E6.28042
G1 X75.863 Y75.563 E6.30600
G1 X76.400 Y75.875 E6.32673
G1 X77.125 Y75.825
G1 X77.175 Y80.038 F3600.000
G1 X77.175 Y81.075 F900.000 E6.36106
G1 X77.175 Y80.888 E6.36749
G1 X82.388 Y80.888 E6.54080
G1 X82.413 Y81.238 E6.55278
G1 X81.438 Y81.363 E6.58534
G1 X79.313 Y81.413 E6.65621
G1 X77.163 Y81.250 E6.72779
G1 X76.175 Y81.075 E6.76121
G1 X76.125 Y80.813 E6.77026
G1 X76.625 Y80.538 E6.78928
G1 X77.025 Y80.175 E6.80694
G1 X77.175 Y78.238 F3600.000
G1 X76.363 Y78.050 F900.000 E6.83445
G1 X76.375 Y77.738 E6.84468
G1 X77.175 Y77.563 E6.87199
G1 X77.175 Y78.038 E6.88754
G1 X76.050 Y77.938 F3600.000
G1 X75.738 Y78.850 F540.000 E6.90362
G1 X75.725 Y78.875 E6.90417
G1 X75.475 Y79.138 F900.000 E6.91616
G1 X75.000 Y79.188 E6.93194
G1 X74.638 Y79.000 E6.94569
G1 X74.425 Y78.575 E6.96161
G1 X74.363 Y77.875 E6.98501
G1 X74.475 Y77.263 E7.00577
G1 X74.725 Y76.925 E7.01958
G1 X75.175 Y76.813 E7.03516
G1 X75.475 Y76.875 E7.04520
G1 X75.475 Y76.875 E7.04523
G1 X75.950 Y77.750 E7.06183
G1 F1800.000 E2.56183
G92 E0
G1 X79.825 Y77.175 F3600.000
G1 F1800.000 E4.50000
G1 X79.250 Y75.350 F900.000 E4.56334
G1 X80.675 Y75.363 E4.61096
G1 X80.100 Y77.175 E4.67407
G1 X80.025 Y77.175 E4.67676
G1 F1800.000 E0.17676
G92 E0
G1 X84.313 Y78.563 F3600.000
G1 F1800.000 E4.50000
G1 X84.763 Y79.063 F900.000 E4.52234
G1 X85.713 Y80.625 E4.58315
G1 X84.313 Y80.963 E4.63105
G1 X84.313 Y78.763 E4.70398
G1 F1800.000 E0.20398
G92 E0
G1 X86.500 Y78.388 F3600.000
G1 F1800.000 E4.50000
G1 X86.863 Y78.000 F900.000 E4.51772
G1 X87.100 Y77.513 E4.53570
G1 X87.175 Y76.788 E4.55997
G1 X87.025 Y76.200 E4.58019
G1 X86.538 Y75.400 E4.61174
G1 X92.125 Y75.425 E4.79765
G1 X92.450 Y75.538 E4.80930
G1 X92.750 Y75.750 E4.82125
G1 X92.938 Y76.025 E4.83245
G1 X93.050 Y76.438 E4.84682
G1 X93.025 Y76.775 E4.85819
G1 X92.888 Y77.100 E4.86973
G1 X92.550 Y77.438 E4.88562
G1 X90.925 Y78.475 E4.94995
G1 X89.875 Y79.050 E4.98976
G1 X88.000 Y79.888 E5.05799
G1 X87.513 Y80.050 E5.07522
G1 X86.600 Y78.563 E5.13328
G1 F1800.000 E0.63328
G92 E0
G1 X65.525 Y70.375 F3600.000
G1 F1800.000 E4.50000
G1 X65.300 Y70.550 F900.000 E4.50954
G1 X62.663 Y68.638 E4.61806
G1 X52.513 Y55.875 E5.16013
G1 X52.388 Y55.625 E5.16967
G1 X52.350 Y55.338 E5.17924
G1 X52.388 Y55.050 E5.18881
G1 X52.500 Y54.813 E5.19749
G1 X52.750 Y54.550 E5.20954
G1 X53.263 Y54.375 E5.22760
G1 X53.525 Y54.400 E5.23625
G1 X53.950 Y54.625 E5.25216
G1 X64.550 Y67.825 E5.81555
G1 X65.463 Y70.188 E5.89944
G1 F1800.000 E1.39944
G92 E0
G1 X39.963 Y63.200 F3600.000
G1 F1800.000 E4.50000
G1 X35.850 Y71.063 F900.000 E4.79481
G1 X35.563 Y70.988 E4.80475
G1 X35.538 Y69.650 E4.84912
G1 X35.400 Y69.200 E4.86507
G1 X34.175 Y67.250 E4.94139
G1 X33.750 Y66.900 E4.95966
G1 X31.775 Y66.113 E5.03073
G1 X32.450 Y65.225 E5.06793
G1 X33.113 Y64.713 E5.09556
G1 X33.863 Y64.350 E5.12340
G1 X34.225 Y64.238 E5.13611
G1 X39.763 Y63.238 E5.32322
G1 F1800.000 E0.82322
G92 E0
G1 X30.075 Y70.475 F3600.000
G1 F1800.000 E4.50000
G1 X30.613 Y71.150 F900.000 E4.52895
G1 X29.875 Y72.588 E4.58246
G1 X29.825 Y73.038 E4.59764
G1 X29.963 Y73.513 E4.61390
G1 X30.425 Y73.975 E4.63587
G1 X33.650 Y74.663 E4.74537
G1 X34.088 Y74.625 E4.76013
G1 X34.363 Y74.475 E4.77036
G1 X34.388 Y74.713 E4.77827
G1 X34.875 Y75.263 E4.80286
G1 X35.413 Y75.413 E4.82111
G1 X66.738 Y75.238 E5.86334
G1 X67.463 Y74.950 E5.88908
G1 X67.863 Y74.538 E5.90831
G1 X68.100 Y74.063 E5.92600
G1 X68.225 Y73.300 E5.95181
G1 X71.000 Y75.200 E6.06338
G1 X71.588 Y75.313 E6.08333
G1 X73.800 Y75.325 E6.15713
G1 X73.000 Y76.200 E6.19670
G1 X72.638 Y76.975 E6.22534
G1 X72.500 Y77.975 E6.25898
G1 X72.675 Y79.125 E6.29741
G1 X73.363 Y80.438 E6.34676
G1 X71.913 Y79.925 E6.39765
G1 X70.413 Y79.288 E6.45209
G1 X68.988 Y78.538 E6.50552
G1 X67.488 Y77.613 E6.56427
G1 X30.738 Y77.613 E7.78653
G1 X29.975 Y77.488 E7.81194
G1 X29.250 Y77.225 E7.83770
G1 X28.588 Y76.813 E7.86363
G1 X28.025 Y76.288 E7.88922
G1 X27.588 Y75.688 E7.91398
G1 X27.263 Y75.013 E7.93873
G1 X27.075 Y74.275 E7.96435
G1 X27.025 Y73.488 E7.99035
G1 X27.138 Y72.738 E8.01578
G1 X27.500 Y71.788 E8.04955
G1 X28.663 Y70.063 E8.11880
G1 X29.900 Y70.363 E8.16120
G1 X30.100 Y70.000
G1 X30.350 Y70.188 E8.17157
G1 X31.000 Y71.013 E8.20652
G1 X31.025 Y71.225 E8.21386
G1 X30.263 Y72.700 E8.26906
G1 X30.238 Y73.000 E8.27908
G1 X30.325 Y73.300 E8.28937
G1 X30.625 Y73.613 E8.30403
G1 X33.675 Y74.263 E8.40757
G1 X33.975 Y74.238 E8.41760
G1 X34.263 Y74.075 E8.42859
G1 X35.088 Y72.600 E8.48497
G1 X35.175 Y72.125 E8.50081
G1 X35.138 Y69.713 E8.58112
G1 X35.038 Y69.363 E8.59340
G1 X33.875 Y67.525 E8.66575
G1 X33.550 Y67.250 E8.67983
G1 X31.200 Y66.313 E8.76407
G1 X31.588 Y65.625 E8.79032
G1 X32.175 Y64.938 E8.82050
G1 X32.900 Y64.375 E8.85094
G1 X33.713 Y63.975 E8.88121
G1 X34.138 Y63.850 E8.89573
G1 X40.438 Y62.713 E9.10889
G1 X40.538 Y62.600 E9.11390
G1 X40.675 Y62.688 E9.11964
G1 X34.725 Y74.063 E9.54648
G1 X34.775 Y74.550 E9.56280
G1 X35.100 Y74.913 E9.57895
G1 X35.463 Y75.013 E9.59147
G1 X66.663 Y74.838 E10.62933
G1 X67.225 Y74.613 E10.64978
G1 X67.538 Y74.300 E10.66423
G1 X67.725 Y73.938 E10.67778
G1 X67.788 Y73.538 E10.69132
G1 X67.725 Y73.113 E10.70550
G1 X67.525 Y72.738 E10.71969
G1 X67.250 Y72.450 E10.73275
G1 X62.375 Y68.925 E10.93287
G1 X52.163 Y56.088 E11.47834
G1 X52.000 Y55.738 E11.49140
G1 X51.938 Y55.338 E11.50491
G1 X52.000 Y54.938 E11.51842
G1 X52.163 Y54.588 E11.53119
G1 X52.500 Y54.225 E11.54754
G1 X52.850 Y54.050 E11.56032
G1 X53.238 Y53.975 E11.57382
G1 X53.638 Y54.013 E11.58702
G1 X54.200 Y54.300 E11.60829
G1 X64.900 Y67.625 E12.17655
G1 X66.363 Y71.413 E12.31121
G1 X66.588 Y71.675 E12.32299
G1 X71.150 Y74.825 E12.50740
G1 X71.625 Y74.913 E12.52334
G1 X92.188 Y75.025 E13.20723
G1 X92.638 Y75.175 E13.22309
G1 X93.038 Y75.463 E13.23936
G1 X93.300 Y75.850 E13.25507
G1 X93.463 Y76.400 E13.27415
G1 X93.413 Y76.875 E13.29005
G1 X93.225 Y77.325 E13.30617
G1 X92.813 Y77.750 E13.32605
G1 X91.125 Y78.825 E13.39246
G1 X90.050 Y79.400 E13.43323
G1 X88.138 Y80.263 E13.50257
G1 X87.338 Y80.538 E13.53110
G1 X86.138 Y78.575 E13.60716
G1 X85.863 Y78.263 E13.62122
G1 X86.263 Y78.063 E13.63614
G1 X86.525 Y77.775 E13.64929
G1 X86.713 Y77.413 E13.66282
G1 X86.763 Y76.825 E13.68241
G1 X86.650 Y76.363 E13.69826
G1 X86.413 Y75.975 E13.71331
G1 X86.150 Y75.750 E13.72502
G1 X85.750 Y75.600 E13.73902
G1 X85.050 Y75.538 E13.76235
G1 X82.875 Y75.538 E13.83490
G1 X82.875 Y80.488 E13.99941
G1 X83.913 Y80.488 E14.03403
G1 X83.913 Y78.450 E14.10174
G1 X84.638 Y78.463 E14.12582
G1 X84.850 Y78.563 E14.13370
G1 X85.088 Y78.825 E14.14537
G1 X86.100 Y80.488 E14.20984
G1 X86.988 Y80.488 E14.23934
G1 X87.013 Y80.638 E14.24476
G1 X86.138 Y80.938 E14.27543
G1 X84.050 Y81.438 E14.34678
G1 X81.475 Y81.763 E14.43324
G1 X79.300 Y81.813 E14.50546
G1 X77.138 Y81.650 E14.57758
G1 X75.013 Y81.288 E14.64923
G1 X72.963 Y80.725 E14.72016
G1 X71.775 Y80.300 E14.76210
G1 X70.238 Y79.650 E14.81746
G1 X68.788 Y78.888 E14.87186
G1 X67.375 Y78.013 E14.92733
G1 X30.700 Y78.013 E16.14687
G1 X29.875 Y77.875 E16.17463
G1 X29.075 Y77.588 E16.20300
G1 X28.350 Y77.138 E16.23156
G1 X27.725 Y76.563 E16.25975
G1 X27.238 Y75.900 E16.28705
G1 X26.888 Y75.150 E16.31435
G1 X26.675 Y74.338 E16.34255
G1 X26.625 Y73.475 E16.37118
G1 X26.750 Y72.638 E16.39944
G1 X27.150 Y71.600 E16.43622
G1 X28.488 Y69.613 E16.51623
G1 X29.900 Y69.950 E16.56465
G1 X30.113 Y70.313
G1 F1800.000 E12.06465
G92 E0
G1 X41.738 Y59.213 F3600.000
G1 F1800.000 E4.50000
G1 X41.950 Y56.950 F900.000 E4.57544
G1 X42.100 Y56.563 E4.58942
G1 X42.350 Y56.200 E4.60391
G1 X47.263 Y51.588 E4.82835
G1 X61.650 Y45.200 E5.35176
G1 X62.750 Y43.850 E5.40968
G1 X63.575 Y42.975 E5.44949
G1 X64.750 Y41.863 E5.50362
G1 X66.563 Y40.425 E5.58016
G1 X68.638 Y45.850 E5.77318
G1 X49.663 Y53.150 E6.44943
G1 X49.113 Y53.613 E6.47320
G1 X48.738 Y54.225 E6.49723
G1 X48.550 Y55.050 E6.52530
G1 X48.675 Y55.888 E6.55338
G1 X48.900 Y56.313 E6.56931
G1 X45.100 Y56.413 E6.69561
G1 X44.488 Y56.550 E6.71656
G1 X43.900 Y56.800 E6.73794
G1 X43.100 Y57.363 E6.77056
G1 X42.038 Y59.300 E6.84411
G1 X41.925 Y59.275 E6.84787
G1 F1800.000 E2.34787
G92 E0
G1 X72.125 Y44.513 F3600.000
G1 F1800.000 E4.50000
G1 X72.413 Y43.925 F900.000 E4.52164
G1 X72.488 Y43.288 E4.54307
G1 X72.363 Y42.675 E4.56374
G1 X72.125 Y42.238 E4.58019
G1 X71.513 Y41.738 E4.60657
G1 X71.488 Y40.875 E4.63535
G1 X73.025 Y41.950 E4.69773
G1 X73.763 Y43.875 E4.76618
G1 X72.313 Y44.438 E4.81796
G1 X75.438 Y43.225 F3600.000
G1 X74.700 Y41.313 F900.000 E4.88618
G1 X75.075 Y39.813 E4.93749
G1 X75.350 Y39.800 E4.94685
G1 X75.900 Y41.213 E4.99736
G1 X76.175 Y41.688 E5.01549
G1 X76.613 Y42.138 E5.03639
G1 X77.300 Y42.513 E5.06253
G1 X75.625 Y43.163 E5.12227
G1 F1800.000 E0.62227
G92 E0
G1 X77.688 Y40.675 F3600.000
G1 F1800.000 E4.50000
G1 X77.563 Y40.500 F900.000 E4.50724
G1 X76.225 Y37.100 E4.62889
G1 X73.650 Y38.088 E4.72034
G1 X73.263 Y39.963 E4.78404
G1 X71.738 Y38.825 E4.84746
G1 X69.700 Y39.613 E4.91995
G1 X69.788 Y39.675 E4.92372
G1 X68.850 Y39.938 E4.95616
G1 X66.763 Y40.738 E5.03083
G1 X66.600 Y40.425 E5.04231
G1 X68.138 Y39.425 E5.10324
G1 X70.013 Y38.450 E5.17374
G1 X71.988 Y37.638 E5.24463
G1 X74.025 Y37.038 E5.31559
G1 X76.113 Y36.625 E5.38628
G1 X77.250 Y36.513 E5.42414
G1 X78.575 Y40.100 E5.55120
G1 X78.613 Y40.438 E5.56270
G1 X78.325 Y40.625 E5.57405
G1 X77.875 Y40.738 E5.58944
G1 F1800.000 E1.08944
G92 E0
G1 X80.150 Y41.425 F3600.000
G1 F1800.000 E4.50000
G1 X80.413 Y40.575 F900.000 E4.52932
G1 X80.388 Y39.938 E4.55080
G1 X80.138 Y39.063 E4.58089
G1 X79.125 Y36.413 E4.67545
G1 X81.525 Y36.500 E4.75526
G1 X83.525 Y36.788 E4.82244
G1 X85.600 Y37.325 E4.89392
G1 X85.888 Y37.513 E4.90520
G1 X86.100 Y37.800 E4.91714
G1 X86.213 Y38.113 E4.92834
G1 X86.213 Y38.550 E4.94272
G1 X86.088 Y38.863 E4.95408
G1 X85.863 Y39.138 E4.96601
G1 X85.538 Y39.338 E4.97855
G1 X80.338 Y41.350 E5.16416
G1 X79.888 Y36.000 F3600.000
G1 X81.563 Y36.100 F900.000 E5.21987
G1 X83.600 Y36.400 E5.28829
G1 X85.775 Y36.950 E5.36275
G1 X86.163 Y37.213 E5.37849
G1 X86.463 Y37.600 E5.39476
G1 X86.613 Y38.050 E5.41047
G1 X86.613 Y38.625 E5.42955
G1 X86.438 Y39.063 E5.44545
G1 X86.125 Y39.450 E5.46169
G1 X85.725 Y39.700 E5.47768
G1 X49.863 Y53.500 E6.75544
G1 X49.425 Y53.875 E6.77490
G1 X49.113 Y54.375 E6.79457
G1 X48.950 Y55.063 E6.81787
G1 X49.063 Y55.750 E6.84116
G1 X49.338 Y56.275 E6.86097
G1 X49.788 Y56.675 E6.88081
G1 X45.150 Y56.813 E7.03485
G1 X44.613 Y56.938 E7.05336
G1 X44.088 Y57.150 E7.07212
G1 X43.400 Y57.638 E7.10018
G1 X41.263 Y61.588 E7.24960
G1 X41.113 Y61.538 E7.25486
G1 X41.563 Y56.863 E7.41118
G1 X41.738 Y56.375 E7.42858
G1 X42.038 Y55.938 E7.44616
G1 X47.038 Y51.250 E7.67425
G1 X61.400 Y44.875 E8.19678
G1 X62.450 Y43.588 E8.25197
G1 X63.288 Y42.700 E8.29262
G1 X64.488 Y41.563 E8.34773
G1 X66.138 Y40.250 E8.41779
G1 X67.938 Y39.088 E8.48884
G1 X69.838 Y38.088 E8.56062
G1 X71.850 Y37.263 E8.63279
G1 X73.938 Y36.650 E8.70503
G1 X76.063 Y36.225 E8.77701
G1 X78.200 Y36.013 E8.84842
G1 X79.688 Y36.000 E8.89820
G1 X80.263 Y36.700
G1 F1800.000 E4.39820
G92 E0
G1 X78.425 Y76.513 F3600.000
G1 F1800.000 E4.50000
G1 X78.663 Y78.063 F900.000 E4.55221
G1 F1800.000 E0.05221
G92 E0
G1 X81.250 Y78.063 F3600.000
G1 F1800.000 E4.50000
G1 X81.488 Y76.513 F900.000 E4.55186
; perimeter_end
; infill_start
G1 F1800.000 E0.05186
G92 E0
G1 X77.650 Y36.463 F3600.000
G1 F1800.000 E4.50000
G1 X78.550 Y36.313 F600.000 E4.52678
G1 X78.600 Y36.238 E4.52942
G1 F1800.000 E0.02942
G92 E0
G1 X75.138 Y38.800 F3600.000
G1 F1800.000 E4.50000
G1 X75.200 Y39.600 F600.000 E4.52150
G1 X75.225 Y40.113
G1 X75.300 Y41.150 E4.55553
G1 X75.038 Y41.600 E4.57267
G1 X74.713 Y43.600 F3600.000
G1 X74.750 Y43.675 F600.000 E4.57400
G1 X74.550 Y43.675 E4.57702
G1 X74.588 Y43.763 E4.57835
G1 X77.438 Y42.313 F3600.000
G1 X78.025 Y42.400 F600.000 E4.58805
G1 X79.225 Y41.963 E4.60913
G1 X79.775 Y41.638 E4.61963
G1 X79.913 Y41.300 E4.62557
G1 F1800.000 E0.12557
G92 E0
G1 X78.075 Y40.363 F3600.000
G1 F1800.000 E4.50000
G1 X76.863 Y37.138 F600.000 E4.63959
G1 X76.438 Y36.838 E4.66049
G1 X76.063 Y36.875 E4.67603
G1 X73.900 Y37.525 E4.76693
G1 X73.538 Y37.825 E4.78607
G1 X71.675 Y38.550 F3600.000
G1 X71.038 Y38.563 F600.000 E4.80857
G1 X67.163 Y40.300 E4.95821
G1 X69.813 Y39.888 F3600.000
G1 X70.163 Y39.888 F600.000 E4.96390
G1 X70.600 Y40.050 E4.97159
G1 X71.188 Y40.563 E4.98456
G1 X71.288 Y40.900 E4.99025
G1 X71.838 Y41.513
G1 X72.663 Y42.263 E5.03189
G1 X72.988 Y43.213 E5.06889
G1 X73.013 Y43.550 E5.08133
G1 X73.313 Y43.650 E5.09302
G1 X73.150 Y43.400
G1 X72.588 Y44.063 E5.12710
G1 X71.825 Y44.488
G1 X71.600 Y44.825 E5.13401
G1 X71.088 Y45.075 E5.14383
G1 X70.988 Y45.050 E5.14570
G1 X70.913 Y45.150 E5.14786
G1 X70.800 Y45.125 E5.14993
G1 X70.738 Y45.238 E5.15203
G1 X70.613 Y45.200 E5.15430
G1 X70.563 Y45.313 E5.15637
G1 X70.425 Y45.275 E5.15883
G1 X70.388 Y45.388 E5.16088
G1 X68.188 Y45.513 F3600.000
G1 X67.888 Y45.813 F1200.000 E5.17664
G1 X68.013 Y45.063
G1 X66.863 Y46.213 E5.23645
G1 X65.850 Y46.600 F3600.000
G1 X67.838 Y44.613 F1200.000 E5.34031
G1 X67.663 Y44.163
G1 X64.825 Y47.000 E5.48822
G1 X63.813 Y47.388 F3600.000
G1 X67.500 Y43.700 F1200.000 E5.68017
G1 X67.325 Y43.250
G1 X62.788 Y47.775 E5.91617
G1 X61.775 Y48.175 F3600.000
G1 X67.150 Y42.800 F1200.000 E6.19622
G1 X66.975 Y42.350
G1 X60.750 Y48.563 E6.52032
G1 X59.738 Y48.950 F3600.000
G1 X66.800 Y41.888 F1200.000 E6.88847
G1 X66.625 Y41.438
G1 X58.713 Y49.350 E7.30066
G1 X57.700 Y49.738 F3600.000
G1 X66.450 Y40.988 F1200.000 E7.75690
G1 X61.000 Y45.813 F3600.000
G1 X56.675 Y50.138 F1200.000 E7.98220
G1 X55.663 Y50.525 F3600.000
G1 X59.875 Y46.313 F1200.000 E8.20186
G1 X58.750 Y46.813 F3600.000
G1 X54.638 Y50.913 F1200.000 E8.41587
G1 X53.625 Y51.313 F3600.000
G1 X57.625 Y47.313 F1200.000 E8.62423
G1 X56.488 Y47.813 F3600.000
G1 X52.600 Y51.700 F1200.000 E8.82696
G1 X51.588 Y52.088 F3600.000
G1 X55.363 Y48.313 F1200.000 E9.02404
G1 X54.238 Y48.813 F3600.000
G1 X50.563 Y52.488 F1200.000 E9.21547
G1 X49.550 Y52.875 F3600.000
G1 X53.113 Y49.313 F1200.000 E9.40126
G1 X51.988 Y49.813 F3600.000
G1 X45.688 Y56.100 F1200.000 E9.72915
G1 X46.338 Y56.088
G1 X48.688 Y53.738 E9.85166
G1 X48.313 Y54.738 F3600.000
G1 X46.988 Y56.063 F1200.000 E9.92092
G1 X47.625 Y56.050 E9.94474
G1 X48.300 Y55.375 E9.97952
G1 X48.375 Y55.925 E9.99980
G1 X48.275 Y56.025 E10.00524
G1 X45.038 Y56.125 F3600.000
G1 X50.850 Y50.313 F1200.000 E10.30832
G1 X49.725 Y50.813 F3600.000
G1 X44.188 Y56.363 F1200.000 E10.59746
G1 X42.588 Y57.338 F3600.000
G1 X48.600 Y51.313 F1200.000 E10.91112
G1 X47.475 Y51.813 F3600.000
G1 X42.238 Y57.050 F1200.000 E11.18401
G1 F1800.000 E6.68401
G92 E0
G1 X79.638 Y36.700 F3600.000
G1 F1800.000 E4.50000
G1 X79.575 Y36.763 F1200.000 E4.50322
G1 X79.750 Y37.200 E4.52018
G1 X80.238 Y36.713 E4.54480
G1 X80.813 Y36.750 E4.56545
G1 X79.913 Y37.638 E4.61064
G1 X80.088 Y38.088 E4.62760
G1 X81.388 Y36.788 E4.69335
G1 X81.925 Y36.863 E4.71291
G1 X80.250 Y38.525 E4.79750
G1 X80.425 Y38.963 E4.81446
G1 X82.450 Y36.938 E4.91748
G1 X82.988 Y37.013 E4.93680
G1 X80.563 Y39.438 E5.05999
G1 X80.688 Y39.925 E5.07793
G1 X83.513 Y37.100 E5.22144
G1 X84.000 Y37.225 E5.23946
G1 X80.700 Y40.525 E5.40691
G1 X81.100 Y40.738 E5.42308
G1 X84.488 Y37.350 E5.59508
G1 X84.975 Y37.475
G1 X82.088 Y40.350 E5.74141
G1 X83.088 Y39.975 F3600.000
G1 X85.463 Y37.588 F1200.000 E5.86207
G1 X85.788 Y37.875
G1 X84.075 Y39.588 E5.94905
G1 X85.063 Y39.213 F3600.000
G1 X85.913 Y38.363 F1200.000 E5.99201
G1 F1800.000 E1.49201
G92 E0
G1 X64.688 Y69.025 F3600.000
G1 F1800.000 E4.50000
G1 X64.275 Y69.438 F1200.000 E4.52102
G1 X63.925 Y69.175 E4.53676
G1 X64.525 Y68.588 E4.56716
G1 X64.350 Y68.138 E4.58416
G1 X63.563 Y68.925 E4.62393
G1 X63.213 Y68.663 E4.63967
G1 X64.113 Y67.763 E4.68550
G1 X63.838 Y67.425 E4.70114
G1 X62.863 Y68.413 E4.75106
G1 X62.588 Y68.063 E4.76671
G1 X63.575 Y67.088 E4.81656
G1 X63.300 Y66.750 E4.83220
G1 X62.313 Y67.725 E4.88200
G1 X62.050 Y67.388 E4.89764
G1 X63.025 Y66.413 E4.94738
G1 X62.750 Y66.063 E4.96302
G1 X61.775 Y67.050 E5.01269
G1 X61.500 Y66.700 E5.02833
G1 X62.475 Y65.725 E5.07794
G1 X62.213 Y65.388 E5.09358
G1 X61.238 Y66.363 E5.14313
G1 X60.963 Y66.025 E5.15878
G1 X61.938 Y65.050 E5.20826
G1 X61.663 Y64.713 E5.22390
G1 X60.688 Y65.688 E5.27332
G1 X60.425 Y65.338 E5.28897
G1 X61.388 Y64.375 E5.33833
G1 X61.125 Y64.038 E5.35397
G1 X60.150 Y65.000 E5.40327
G1 X59.875 Y64.663 E5.41891
G1 X60.850 Y63.700 E5.46815
G1 X60.575 Y63.350 E5.48379
G1 X59.613 Y64.325 E5.53297
G1 X59.338 Y63.988 E5.54861
G1 X60.300 Y63.013 E5.59772
G1 X60.025 Y62.675 E5.61336
G1 X59.063 Y63.638 E5.66241
G1 X58.800 Y63.300 E5.67806
G1 X59.763 Y62.338 E5.72705
G1 X59.488 Y62.000 E5.74269
G1 X58.525 Y62.963 E5.79161
G1 X58.250 Y62.625 E5.80726
G1 X59.213 Y61.663 E5.85612
G1 X58.938 Y61.325 E5.87176
G1 X57.988 Y62.275 E5.92057
G1 X57.713 Y61.938 E5.93621
G1 X58.675 Y60.975 E5.98495
G1 X58.400 Y60.638 E6.00059
G1 X57.438 Y61.600 E6.04927
G1 X57.163 Y61.263 E6.06492
G1 X58.125 Y60.300 E6.11353
G1 X57.850 Y59.963 E6.12917
G1 X56.900 Y60.913 E6.17773
G1 X56.625 Y60.575 E6.19337
G1 X57.575 Y59.625 E6.24186
G1 X57.313 Y59.288 E6.25750
G1 X56.350 Y60.238 E6.30593
G1 X56.088 Y59.900 E6.32158
G1 X57.038 Y58.950 E6.36995
G1 X56.763 Y58.600 E6.38559
G1 X55.813 Y59.550 E6.43389
G1 X55.538 Y59.213 E6.44954
G1 X56.488 Y58.263 E6.49778
G1 X56.225 Y57.925 E6.51342
G1 X55.275 Y58.875 E6.56160
G1 X55.000 Y58.538 E6.57725
G1 X55.950 Y57.588 E6.62537
G1 X55.675 Y57.250 E6.64101
G1 X54.725 Y58.200 E6.68906
G1 X54.463 Y57.850 E6.70471
G1 X55.400 Y56.913 E6.75271
G1 X55.125 Y56.575 E6.76835
G1 X54.188 Y57.513 E6.81628
G1 X53.913 Y57.175 E6.83192
G1 X54.863 Y56.225 E6.87980
G1 X54.588 Y55.888 E6.89544
G1 X53.650 Y56.838 E6.94324
G1 X53.375 Y56.488 E6.95889
G1 X54.313 Y55.550 E7.00664
G1 X54.038 Y55.213 E7.02228
G1 X53.100 Y56.150 E7.06996
G1 X52.838 Y55.813 E7.08561
G1 X53.763 Y54.875 E7.13323
G1 X53.350 Y54.688 E7.14981
G1 X52.650 Y55.375 E7.18528
G1 F1800.000 E2.68528
G92 E0
G1 X42.438 Y57.475 F3600.000
G1 F1800.000 E4.50000
G1 X41.963 Y58.963 F600.000 E4.54622
G1 X41.800 Y59.513
G1 X41.388 Y60.888 E4.58571
G1 X41.838 Y59.650 F3600.000
G1 X41.750 Y59.700 F600.000 E4.58963
G1 X41.688 Y59.600 E4.59376
G1 F1800.000 E0.09376
G92 E0
G1 X39.200 Y63.650 F3600.000
G1 F1800.000 E4.50000
G1 X34.938 Y67.900 F1200.000 E4.72364
G1 X35.188 Y68.288
G1 X38.913 Y64.550 E4.91987
G1 X38.425 Y63.788
G1 X34.688 Y67.513 E5.11590
G1 X34.450 Y67.125 E5.13290
G1 X37.650 Y63.925 E5.30131
G1 X36.888 Y64.063 E5.33038
G1 X34.125 Y66.825 E5.47547
G1 X33.738 Y66.575 E5.49245
G1 X36.113 Y64.200 E5.61732
G1 X35.338 Y64.338 E5.64639
G1 X33.288 Y66.400 E5.75448
G1 X32.838 Y66.213 E5.77252
G1 X34.575 Y64.475 E5.86382
G1 X33.625 Y64.788 E5.90080
G1 X32.388 Y66.038 E5.96615
G1 X35.425 Y68.675 F3600.000
G1 X38.225 Y65.875 F1200.000 E6.11310
G1 X37.525 Y67.200 F3600.000
G1 X35.675 Y69.063 F1200.000 E6.21075
G1 X35.813 Y69.550
G1 X36.838 Y68.525 E6.26431
G1 X36.138 Y69.850 F3600.000
G1 X35.838 Y70.150 F1200.000 E6.28008
G1 X35.863 Y70.250
G1 X35.850 Y70.275 E6.28162
G1 X35.450 Y71.188
G1 X35.600 Y71.463 F600.000 E6.28876
G1 X35.338 Y72.438 E6.31164
G1 F1800.000 E1.81164
G92 E0
G1 X64.663 Y69.475 F3600.000
G1 F1800.000 E4.50000
G1 X65.225 Y70.213 F600.000 E4.52575
G1 X65.625 Y70.800
G1 X66.113 Y71.338 E4.54257
G1 X64.800 Y69.525 F3600.000
G1 X64.788 Y69.638 F600.000 E4.54613
G1 X64.675 Y69.625 E4.54974
G1 X68.563 Y73.888 F3600.000
G1 X68.413 Y74.025 F1200.000 E4.55720
G1 X65.738 Y77.325 F3600.000
G1 X68.925 Y74.138 F1200.000 E4.71992
G1 X69.288 Y74.388 E4.73585
G1 X66.350 Y77.325 E4.88581
G1 X66.963 Y77.325 E4.90796
G1 X69.650 Y74.638 E5.04516
G1 X70.013 Y74.888 E5.06109
G1 X67.575 Y77.325 E5.18569
G1 X67.950 Y77.563 E5.20180
G1 X70.375 Y75.138 E5.32556
G1 X70.738 Y75.388 E5.34149
G1 X68.325 Y77.788 E5.46443
G1 X68.713 Y78.025 E5.48053
G1 X71.200 Y75.538 E5.60741
G1 X71.738 Y75.613 E5.62721
G1 X69.088 Y78.263 E5.76246
G1 X69.488 Y78.475 E5.77884
G1 X72.350 Y75.613 E5.92477
G1 X72.963 Y75.613
G1 X69.900 Y78.675 E6.08123
G1 X72.613 Y79.650 F3600.000
G1 X72.450 Y79.800 F1200.000 E6.08934
G1 X72.000 Y79.650 E6.10666
G1 X72.400 Y79.238 E6.12715
G1 X72.313 Y78.713 E6.14637
G1 X71.575 Y79.463 E6.18424
G1 X71.138 Y79.275 E6.20110
G1 X72.238 Y78.188 E6.25676
G1 X72.263 Y77.538 E6.27995
G1 X70.713 Y79.088 E6.35894
G1 X70.300 Y78.888 E6.37554
G1 X72.388 Y76.800 E6.48226
G1 X65.125 Y77.325 F3600.000
G1 X66.963 Y75.475 F1200.000 E6.57655
G1 X66.288 Y75.538 E6.60139
G1 X64.500 Y77.325 E6.69206
G1 X63.888 Y77.325 E6.71421
G1 X65.663 Y75.550 E6.80471
G1 X65.050 Y75.550 E6.82698
G1 X63.275 Y77.325 E6.91731
G1 X62.663 Y77.325 E6.93945
G1 X64.425 Y75.550 E7.02961
G1 X63.813 Y75.550 E7.05188
G1 X62.050 Y77.313 E7.14186
G1 X61.438 Y77.313 E7.16401
G1 X63.200 Y75.563 E7.25382
G1 X62.575 Y75.563 E7.27609
G1 X60.825 Y77.313 E7.36572
G1 X60.213 Y77.313 E7.38787
G1 X61.963 Y75.563 E7.47733
G1 X61.350 Y75.563 E7.49960
G1 X59.600 Y77.313 E7.58889
G1 X58.988 Y77.313 E7.61104
G1 X60.725 Y75.575 E7.70016
G1 X60.113 Y75.575 E7.72243
G1 X58.363 Y77.313 E7.81137
G1 X57.750 Y77.313 E7.83352
G1 X59.500 Y75.575 E7.92229
G1 X58.875 Y75.588 E7.94456
G1 X57.138 Y77.313 E8.03316
G1 X56.525 Y77.313 E8.05531
G1 X58.263 Y75.588 E8.14373
G1 X57.638 Y75.588 E8.16600
G1 X55.913 Y77.313 E8.25426
G1 X55.300 Y77.313 E8.27640
G1 X57.025 Y75.588 E8.36448
G1 X56.413 Y75.600 E8.38675
G1 X54.688 Y77.313 E8.47466
G1 X54.075 Y77.313 E8.49681
G1 X55.788 Y75.600 E8.58454
G1 X55.175 Y75.600 E8.60681
G1 X53.463 Y77.313 E8.69437
G1 X52.850 Y77.313 E8.71652
G1 X54.563 Y75.600 E8.80391
G1 X53.938 Y75.613 E8.82618
G1 X52.238 Y77.313 E8.91340
G1 X51.613 Y77.313 E8.93554
G1 X53.325 Y75.613 E9.02259
G1 X52.713 Y75.613 E9.04486
G1 X51.000 Y77.313 E9.13173
G1 X50.388 Y77.313 E9.15387
G1 X52.088 Y75.613 E9.24057
G1 X51.475 Y75.625 E9.26284
G1 X49.775 Y77.313 E9.34937
G1 X49.163 Y77.313 E9.37151
G1 X50.850 Y75.625 E9.45786
G1 X50.238 Y75.625 E9.48014
G1 X48.550 Y77.313 E9.56631
G1 X47.938 Y77.313 E9.58846
G1 X49.625 Y75.625 E9.67447
G1 X49.000 Y75.638 E9.69674
G1 X47.325 Y77.313 E9.78257
G1 X46.713 Y77.313 E9.80472
G1 X48.388 Y75.638 E9.89038
G1 X47.775 Y75.638 E9.91265
G1 X46.100 Y77.313 E9.99813
G1 X45.488 Y77.313 E10.02028
G1 X47.150 Y75.638 E10.10560
G1 X46.538 Y75.650 E10.12787
G1 X44.863 Y77.313 E10.21301
G1 X44.250 Y77.313 E10.23516
G1 X45.925 Y75.650 E10.32012
G1 X45.300 Y75.650 E10.34239
G1 X43.638 Y77.313 E10.42719
G1 X43.025 Y77.313 E10.44934
G1 X44.688 Y75.650 E10.53396
G1 X44.063 Y75.663 E10.55623
G1 X42.413 Y77.313 E10.64068
G1 X41.800 Y77.313 E10.66283
G1 X43.450 Y75.663 E10.74710
G1 X42.838 Y75.663 E10.76937
G1 X41.188 Y77.313 E10.85348
G1 X40.575 Y77.313 E10.87563
G1 X42.213 Y75.675 E10.95956
G1 X41.600 Y75.675 E10.98183
G1 X39.963 Y77.313 E11.06559
G1 X39.350 Y77.313 E11.08773
G1 X40.988 Y75.675 E11.17132
G1 X40.363 Y75.675 E11.19359
G1 X38.725 Y77.313 E11.27700
G1 X38.113 Y77.313 E11.29915
G1 X39.750 Y75.688 E11.38239
G1 X39.125 Y75.688 E11.40466
G1 X37.500 Y77.313 E11.48773
G1 X36.888 Y77.313 E11.50987
G1 X38.513 Y75.688 E11.59277
G1 X37.900 Y75.688 E11.61504
G1 X36.275 Y77.313 E11.69776
G1 X35.663 Y77.313 E11.71991
G1 X37.275 Y75.700 E11.80245
G1 X36.663 Y75.700 E11.82472
G1 X35.050 Y77.313 E11.90710
G1 X34.438 Y77.313 E11.92925
G1 X36.050 Y75.700 E12.01145
G1 X35.425 Y75.700 E12.03372
G1 X33.825 Y77.313 E12.11575
G1 X33.213 Y77.313 E12.13790
G1 X34.925 Y75.588 E12.22582
G1 X34.550 Y75.350 E12.24189
G1 X32.600 Y77.313 E12.34189
G1 X31.975 Y77.313 E12.36403
G1 X34.263 Y75.025 E12.48052
G1 X33.725 Y74.950 E12.50021
G1 X31.363 Y77.313 E12.62041
G1 X30.750 Y77.313 E12.64254
G1 X33.188 Y74.875 E12.76705
G1 X32.688 Y74.763 E12.78573
G1 X30.225 Y77.225 E12.91143
G1 X29.750 Y77.088 E12.92928
G1 X32.175 Y74.650 E13.05339
G1 X31.675 Y74.550 E13.07206
G1 X29.313 Y76.913 E13.19261
G1 X28.938 Y76.675 E13.20872
G1 X31.175 Y74.438 E13.32288
G1 X30.663 Y74.338 E13.34155
G1 X28.588 Y76.413 E13.44752
G1 X28.263 Y76.113 E13.46320
G1 X30.200 Y74.175 E13.56211
G1 X29.900 Y73.863 E13.57777
G1 X28.000 Y75.763 E13.67459
G1 X27.763 Y75.388 E13.69066
G1 X29.650 Y73.500 E13.78690
G1 X29.525 Y73.013 E13.80517
G1 X27.575 Y74.975 E13.90522
G1 X27.438 Y74.488 E13.92319
G1 X29.750 Y72.175 E14.04133
G1 X30.200 Y71.113 F3600.000
G1 X27.350 Y73.963 F1200.000 E14.18660
G1 X27.350 Y73.350 E14.20863
G1 X29.925 Y70.775 E14.34024
G1 X29.513 Y70.575 E14.35685
G1 X27.525 Y72.563 E14.45841
G1 X28.225 Y71.238 F3600.000
G1 X29.013 Y70.450 F1200.000 E14.49863
G1 F1800.000 E9.99863
G92 E0
G1 X73.363 Y79.975 F3600.000
G1 F1800.000 E4.50000
G1 X73.863 Y80.600 F600.000 E4.52157
G1 X74.425 Y80.800 E4.53739
G1 X75.688 Y80.938 E4.57145
G1 X75.888 Y81.150 E4.57931
G1 X78.063 Y81.088 F3600.000
G1 X80.375 Y81.163 F600.000 E4.61332
G1 X80.425 Y81.100 E4.61451
G1 X80.563 Y81.163 E4.61686
G1 X80.613 Y81.100 E4.61817
G1 X80.750 Y81.163 E4.62051
G1 X80.813 Y81.088 E4.62193
G1 X80.950 Y81.175 E4.62426
G1 X81.013 Y81.088 E4.62580
G1 X80.838 Y80.500
G1 X81.075 Y79.313 E4.65562
G1 X79.963 Y77.975 F3600.000
G1 X79.963 Y77.575 F600.000 E4.66629
G1 X79.963 Y76.863
G1 X79.963 Y75.875 E4.69674
G1 X79.625 Y75.625 E4.70989
G1 X79.963 Y75.875
G1 X80.138 Y75.750 E4.71871
G1 X81.050 Y75.225 F3600.000
G1 X82.613 Y75.250 F600.000 E4.74709
G1 X82.625 Y80.775 E4.84721
G1 X82.950 Y81.025 E4.85462
G1 X82.750 Y81.275 E4.86050
G1 X82.750 Y81.038
G1 X84.038 Y80.938 E4.92406
G1 X84.613 Y80.588
G1 X84.863 Y80.275 E4.93724
G1 X84.538 Y79.163 E4.97519
G1 X84.863 Y80.275 F3600.000
G1 X85.088 Y80.363 F600.000 E4.98584
G1 F1800.000 E0.48584
G92 E0
G1 X86.275 Y75.463 F3600.000
G1 F1800.000 E4.50000
G1 X85.875 Y75.288 F600.000 E4.50813
G1 X85.113 Y75.238 E4.52267
G1 X82.413 Y75.250 E4.57330
G1 X78.088 Y75.150 F3600.000
G1 X77.988 Y75.238 F600.000 E4.57580
G1 X77.888 Y75.175 E4.57815
G1 X77.250 Y75.288 E4.59080
G1 X77.363 Y76.900 F3600.000
G1 X76.975 Y75.538 F600.000 E4.62612
G1 X75.925 Y75.238 E4.65346
G1 X75.138 Y75.175 E4.67307
G1 X74.288 Y75.275 E4.69437
G1 X73.713 Y75.738 E4.71291
G1 F1800.000 E0.21291
G92 E0
G1 X78.838 Y79.138 F3600.000
G1 F1800.000 E4.50000
G1 X79.075 Y80.500 F600.000 E4.53142
G1 F1800.000 E0.03142
G92 E0
G1 X86.900 Y78.475 F3600.000
G1 F1800.000 E4.50000
G1 X89.663 Y75.713 F1200.000 E4.64818
G1 X90.300 Y75.713 E4.67241
G1 X87.138 Y78.875 E4.84182
G1 X87.388 Y79.275 E4.85956
G1 X90.950 Y75.713 E5.05021
G1 X91.588 Y75.725 E5.07444
G1 X87.625 Y79.675 E5.28633
G1 X88.713 Y79.238 F3600.000
G1 X92.188 Y75.763 F1200.000 E5.47271
G1 X92.575 Y76.025
G1 X89.900 Y78.688 E5.61584
G1 X91.438 Y77.800 F3600.000
G1 X92.750 Y76.488 F1200.000 E5.68615
G1 X87.425 Y77.313 F3600.000
G1 X89.025 Y75.700 F1200.000 E5.77199
G1 X88.388 Y75.700 E5.79623
G1 X87.438 Y76.638 E5.84661
G1 X87.313 Y76.125 E5.86680
G1 X87.738 Y75.700 E5.88964
G1 X87.075 Y75.713 E5.91476
; infill_end
; perimeter_start
G1 F1800.000 E1.41476
G92 E0
G1 X68.463 Y41.513 F3600.000
G1 F1800.000 E4.50000
G1 X69.738 Y41.088 F900.000 E4.54458
G1 X69.925 Y41.125 E4.55073
G1 X70.088 Y41.300 E4.55895
G1 X70.175 Y41.588 E4.56852
G1 X70.138 Y41.738 E4.57380
G1 X69.950 Y41.938 E4.58296
G1 X68.813 Y42.400 E4.62384
G1 X68.538 Y41.700 E4.64904
; perimeter_end
; perimeter_start
G1 X69.150 Y43.275 F3600.000
G1 X70.000 Y42.950 F900.000 E4.67942
G1 X70.513 Y42.825 E4.69679
G1 X70.738 Y42.863 E4.70477
G1 X70.938 Y43.013 E4.71282
G1 X71.063 Y43.388 E4.72599
G1 X71.013 Y43.613 E4.73367
G1 X70.750 Y43.875 E4.74592
G1 X69.563 Y44.350 E4.78872
G1 X69.213 Y43.463 E4.82027
; perimeter_end
; perimeter_start
G1 F1800.000 E0.32027
G92 E0
G1 X83.913 Y76.463 F3600.000
G1 F1800.000 E4.50000
G1 X85.288 Y76.475 F900.000 E4.54571
G1 X85.538 Y76.575 E4.55461
G1 X85.675 Y76.738 E4.56167
G1 X85.725 Y76.975 E4.56962
G1 X85.663 Y77.238 E4.57866
G1 X85.538 Y77.388 E4.58516
G1 X85.275 Y77.488 E4.59460
G1 X83.913 Y77.513 E4.63982
G1 X83.913 Y76.663 E4.66813
G1 X84.600 Y76.875
G1 F1800.000 E0.16813
G92 E0
G1 X41.150 Y62.425 F3600.000
G1 F1800.000 E4.50000
G1 X40.700 Y62.425 F900.000 E4.51487
G1 X40.700 Y61.888 E4.53276
G1 X41.150 Y61.888 E4.54763
G1 X41.150 Y62.225 E4.55886
; perimeter_end
; infill_start
G1 F1800.000 E0.05886
G92 E0
G1 X85.350 Y76.925 F3600.000
G1 F1800.000 E4.50000
G1 X85.400 Y76.875 F1200.000 E4.50402
G1 X85.400 Y76.875
G1 X85.350 Y76.925 E4.50803
; infill_end
G1 F1800.000 E0.00803
G92 E0
; Layer: 3 Time: 125
G1 Z0.750 F3600.000
; Region: 0
; perimeter_start
G1 X67.863 Y74.538
G1 F1800.000 E4.50000
G1 X68.100 Y74.063 F900.000 E4.51768
G1 X68.225 Y73.300 E4.54350
G1 X71.000 Y75.200 E4.65507
G1 X71.588 Y75.313 E4.67502
G1 X92.125 Y75.425 E5.35810
G1 X92.450 Y75.538 E5.36975
G1 X92.750 Y75.750 E5.38170
G1 X92.938 Y76.025 E5.39290
G1 X93.050 Y76.438 E5.40727
G1 X93.025 Y76.775 E5.41864
G1 X92.888 Y77.100 E5.43018
G1 X92.550 Y77.438 E5.44607
G1 X90.925 Y78.475 E5.51040
G1 X89.875 Y79.050 E5.55021
G1 X88.000 Y79.888 E5.61844
G1 X86.025 Y80.550 E5.68766
G1 X83.975 Y81.038 E5.75767
G1 X81.438 Y81.363 E5.84272
G1 X79.313 Y81.413 E5.91360
G1 X77.188 Y81.250 E5.98444
G1 X75.100 Y80.900 E6.05482
G1 X73.075 Y80.338 E6.12462
G1 X71.913 Y79.925 E6.16562
G1 X70.413 Y79.288 E6.22006
G1 X68.988 Y78.538 E6.27349
G1 X67.488 Y77.613 E6.33224
G1 X30.738 Y77.613 E7.55450
G1 X29.975 Y77.488 E7.57991
G1 X29.250 Y77.225 E7.60567
G1 X28.588 Y76.813 E7.63159
G1 X28.025 Y76.288 E7.65719
G1 X27.588 Y75.688 E7.68194
G1 X27.263 Y75.013 E7.70670
G1 X27.075 Y74.275 E7.73231
G1 X27.025 Y73.488 E7.75832
G1 X27.138 Y72.738 E7.78375
G1 X27.500 Y71.788 E7.81752
G1 X28.663 Y70.063 E7.88677
G1 X29.925 Y70.363 E7.92991
G1 X30.613 Y71.150 E7.96460
G1 X29.875 Y72.588 E8.01811
G1 X29.825 Y73.038 E8.03328
G1 X29.963 Y73.513 E8.04954
G1 X30.425 Y73.975 E8.07151
G1 X33.650 Y74.663 E8.18101
G1 X34.088 Y74.625 E8.19577
G1 X34.363 Y74.475 E8.20601
G1 X34.388 Y74.713 E8.21392
G1 X34.875 Y75.263 E8.23850
G1 X35.413 Y75.413 E8.25676
G1 X66.738 Y75.238 E9.29899
G1 X67.463 Y74.950 E9.32473
G1 X67.725 Y74.675 E9.33730
G1 F1800.000 E4.83730
G92 E0
G1 X39.963 Y63.200 F3600.000
G1 F1800.000 E4.50000
G1 X35.850 Y71.063 F900.000 E4.79481
G1 X35.563 Y70.988 E4.80475
G1 X35.538 Y69.650 E4.84912
G1 X35.400 Y69.200 E4.86507
G1 X34.175 Y67.250 E4.94139
G1 X33.750 Y66.900 E4.95966
G1 X31.775 Y66.113 E5.03073
G1 X32.450 Y65.225 E5.06793
G1 X33.113 Y64.713 E5.09556
G1 X33.863 Y64.350 E5.12340
G1 X34.225 Y64.238 E5.13611
G1 X39.763 Y63.238 E5.32322
G1 F1800.000 E0.82322
G92 E0
G1 X52.513 Y55.875 F3600.000
G1 F1800.000 E4.50000
G1 X52.388 Y55.625 F900.000 E4.50954
G1 X52.350 Y55.338 E4.51911
G1 X52.388 Y55.050 E4.52868
G1 X52.500 Y54.813 E4.53736
G1 X52.750 Y54.550 E4.54941
G1 X53.263 Y54.375 E4.56746
G1 X53.525 Y54.400 E4.57612
G1 X53.950 Y54.625 E4.59203
G1 X64.550 Y67.825 E5.15542
G1 X65.525 Y70.375 E5.24596
G1 X65.300 Y70.550 E5.25550
G1 X62.663 Y68.638 E5.36402
G1 X52.638 Y56.038 E5.89944
G1 X52.163 Y56.088
G1 X52.000 Y55.738 E5.91251
G1 X51.938 Y55.338 E5.92601
G1 X52.000 Y54.938 E5.93952
G1 X52.163 Y54.588 E5.95230
G1 X52.500 Y54.225 E5.96864
G1 X52.850 Y54.050 E5.98142
G1 X53.238 Y53.975 E5.99492
G1 X53.638 Y54.013 E6.00812
G1 X54.200 Y54.300 E6.02939
G1 X64.900 Y67.625 E6.59765
G1 X66.363 Y71.413 E6.73231
G1 X66.588 Y71.675 E6.74409
G1 X71.150 Y74.825 E6.92850
G1 X71.625 Y74.913 E6.94444
G1 X92.188 Y75.025 E7.62833
G1 X92.638 Y75.175 E7.64419
G1 X93.038 Y75.463 E7.66046
G1 X93.300 Y75.850 E7.67617
G1 X93.463 Y76.400 E7.69525
G1 X93.413 Y76.875 E7.71115
G1 X93.225 Y77.325 E7.72727
G1 X92.813 Y77.750 E7.74716
G1 X91.125 Y78.825 E7.81356
G1 X90.050 Y79.400 E7.85434
G1 X88.138 Y80.263 E7.92368
G1 X86.138 Y80.938 E7.99415
G1 X84.050 Y81.438 E8.06550
G1 X81.475 Y81.763 E8.15195
G1 X79.300 Y81.813 E8.22418
G1 X77.138 Y81.650 E8.29630
G1 X75.013 Y81.288 E8.36795
G1 X72.963 Y80.725 E8.43888
G1 X71.775 Y80.300 E8.48082
G1 X70.238 Y79.650 E8.53618
G1 X68.788 Y78.888 E8.59058
G1 X67.375 Y78.013 E8.64604
G1 X30.700 Y78.013 E9.86559
G1 X29.875 Y77.875 E9.89335
G1 X29.075 Y77.588 E9.92172
G1 X28.350 Y77.138 E9.95027
G1 X27.725 Y76.563 E9.97847
G1 X27.238 Y75.900 E10.00577
G1 X26.888 Y75.150 E10.03307
G1 X26.675 Y74.338 E10.06127
G1 X26.625 Y73.475 E10.08990
G1 X26.750 Y72.638 E10.11816
G1 X27.150 Y71.600 E10.15494
G1 X28.488 Y69.613 E10.23495
G1 X30.100 Y70.000 E10.29002
G1 X30.350 Y70.188 E10.30039
G1 X31.000 Y71.013 E10.33535
G1 X31.025 Y71.225 E10.34269
G1 X30.263 Y72.700 E10.39789
G1 X30.238 Y73.000 E10.40791
G1 X30.325 Y73.300 E10.41820
G1 X30.625 Y73.613 E10.43286
G1 X33.675 Y74.263 E10.53640
G1 X33.975 Y74.238 E10.54643
G1 X34.263 Y74.075 E10.55741
G1 X35.088 Y72.600 E10.61379
G1 X35.175 Y72.125 E10.62964
G1 X35.138 Y69.713 E10.70995
G1 X35.038 Y69.363 E10.72223
G1 X33.875 Y67.525 E10.79458
G1 X33.550 Y67.250 E10.80866
G1 X31.200 Y66.313 E10.89289
G1 X31.588 Y65.625 E10.91915
G1 X32.175 Y64.938 E10.94933
G1 X32.900 Y64.375 E10.97976
G1 X33.713 Y63.975 E11.01003
G1 X34.138 Y63.850 E11.02456
G1 X40.438 Y62.713 E11.23772
G1 X40.538 Y62.600 E11.24272
G1 X40.675 Y62.688 E11.24847
G1 X34.725 Y74.063 E11.67531
G1 X34.775 Y74.550 E11.69163
G1 X35.100 Y74.913 E11.70778
G1 X35.463 Y75.013 E11.72030
G1 X66.663 Y74.838 E12.75816
G1 X67.225 Y74.613 E12.77861
G1 X67.538 Y74.300 E12.79306
G1 X67.725 Y73.938 E12.80660
G1 X67.788 Y73.538 E12.82015
G1 X67.725 Y73.113 E12.83433
G1 X67.525 Y72.738 E12.84851
G1 X67.250 Y72.450 E12.86157
G1 X62.375 Y68.925 E13.06170
G1 X52.288 Y56.250 E13.60052
G1 X52.363 Y55.750
G1 F1800.000 E9.10052
G92 E0
G1 X48.900 Y56.313 F3600.000
G1 F1800.000 E4.50000
G1 X45.100 Y56.413 F900.000 E4.62631
G1 X44.488 Y56.550 E4.64725
G1 X43.900 Y56.800 E4.66864
G1 X43.100 Y57.363 E4.70126
G1 X42.038 Y59.300 E4.77481
G1 X41.738 Y59.213 E4.78522
G1 X41.950 Y56.950 E4.86066
G1 X42.100 Y56.563 E4.87465
G1 X42.350 Y56.200 E4.88913
G1 X47.263 Y51.588 E5.11357
G1 X61.650 Y45.200 E5.63698
G1 X62.750 Y43.850 E5.69490
G1 X63.575 Y42.975 E5.73471
G1 X64.750 Y41.863 E5.78884
G1 X66.375 Y40.575 E5.85772
G1 X68.138 Y39.425 E5.92751
G1 X70.013 Y38.450 E5.99801
G1 X71.988 Y37.638 E6.06890
G1 X74.025 Y37.038 E6.13986
G1 X76.113 Y36.625 E6.21056
G1 X78.213 Y36.413 E6.28076
G1 X79.888 Y36.400 E6.33613
G1 X81.525 Y36.500 E6.39079
G1 X83.525 Y36.788 E6.45797
G1 X85.600 Y37.325 E6.52945
G1 X85.888 Y37.513 E6.54073
G1 X86.100 Y37.800 E6.55267
G1 X86.213 Y38.113 E6.56387
G1 X86.213 Y38.550 E6.57825
G1 X86.088 Y38.863 E6.58961
G1 X85.863 Y39.138 E6.60154
G1 X85.538 Y39.338 E6.61408
G1 X49.663 Y53.150 E7.89280
G1 X49.113 Y53.613 E7.91657
G1 X48.738 Y54.225 E7.94060
G1 X48.550 Y55.050 E7.96867
G1 X48.675 Y55.888 E7.99675
G1 X48.813 Y56.125 E8.00602
G1 X49.063 Y55.750
G1 X49.338 Y56.275 E8.02583
G1 X49.788 Y56.675 E8.04567
G1 X45.150 Y56.813 E8.19971
G1 X44.613 Y56.938 E8.21822
G1 X44.088 Y57.150 E8.23698
G1 X43.400 Y57.638 E8.26504
G1 X41.263 Y61.588 E8.41446
G1 X41.113 Y61.538 E8.41972
G1 X41.563 Y56.863 E8.57604
G1 X41.738 Y56.375 E8.59344
G1 X42.038 Y55.938 E8.61102
G1 X47.038 Y51.250 E8.83911
G1 X61.400 Y44.875 E9.36164
G1 X62.450 Y43.588 E9.41683
G1 X63.288 Y42.700 E9.45748
G1 X64.488 Y41.563 E9.51259
G1 X66.138 Y40.250 E9.58265
G1 X67.938 Y39.088 E9.65370
G1 X69.838 Y38.088 E9.72548
G1 X71.850 Y37.263 E9.79765
G1 X73.938 Y36.650 E9.86989
G1 X76.063 Y36.225 E9.94187
G1 X78.200 Y36.013 E10.01328
G1 X79.888 Y36.000 E10.06972
G1 X81.563 Y36.100 E10.12543
G1 X83.600 Y36.400 E10.19385
G1 X85.775 Y36.950 E10.26831
G1 X86.163 Y37.213 E10.28404
G1 X86.463 Y37.600 E10.30032
G1 X86.613 Y38.050 E10.31603
G1 X86.613 Y38.625 E10.33511
G1 X86.438 Y39.063 E10.35101
G1 X86.125 Y39.450 E10.36725
G1 X85.725 Y39.700 E10.38324
G1 X49.863 Y53.500 E11.66100
G1 X49.425 Y53.875 E11.68046
G1 X49.113 Y54.375 E11.70013
G1 X48.950 Y55.063 E11.72343
G1 X49.025 Y55.563 E11.74007
G1 X48.688 Y56.225
G1 F1800.000 E7.24007
G92 E0
G1 X41.150 Y61.888 F3600.000
G1 F1800.000 E4.50000
G1 X41.150 Y62.425 F900.000 E4.51789
G1 X40.700 Y62.425 E4.53276
G1 X40.700 Y61.888 E4.55065
G1 X40.950 Y61.888 E4.55886
; perimeter_end
; infill_start
G1 X41.388 Y60.888 F3600.000
G1 X41.800 Y59.513 F600.000 E4.59835
G1 X41.688 Y59.600
G1 X41.750 Y59.700 E4.60248
G1 X41.838 Y59.650 E4.60640
G1 X41.963 Y58.963
G1 X42.438 Y57.475 E4.65262
G1 X42.688 Y57.375
G1 X42.263 Y56.963 F1200.000 E4.67428
G1 X42.463 Y56.550 E4.69081
G1 X43.000 Y57.075 E4.71768
G1 X43.350 Y56.813 E4.73358
G1 X42.763 Y56.225 E4.76403
G1 X43.075 Y55.925 E4.77970
G1 X43.713 Y56.563 E4.81240
G1 X44.138 Y56.375 E4.82920
G1 X43.388 Y55.625 E4.86749
G1 X43.713 Y55.325 E4.88316
G1 X44.600 Y56.225 E4.92884
G1 X45.113 Y56.125 E4.94760
G1 X44.025 Y55.038 E5.00313
G1 X44.338 Y54.738 E5.01879
G1 X45.713 Y56.100 E5.08858
G1 X46.300 Y56.088 E5.11009
G1 X44.663 Y54.438 E5.19415
G1 X44.975 Y54.138 E5.20981
G1 X46.900 Y56.063 E5.30813
G1 X47.500 Y56.050 E5.32964
G1 X45.288 Y53.850 E5.44222
G1 X45.600 Y53.550 E5.45788
G1 X48.088 Y56.038 E5.58473
G1 X48.338 Y55.675 E5.60065
G1 X45.925 Y53.250 E5.72408
G1 X46.238 Y52.950 E5.73975
G1 X48.263 Y54.975 E5.84288
G1 X48.375 Y54.475 E5.86143
G1 X46.550 Y52.650 E5.95412
G1 X46.875 Y52.363 E5.96978
G1 X48.525 Y54.000 E6.05382
G1 X48.750 Y53.625 E6.06988
G1 X47.188 Y52.063 E6.14983
G1 X47.525 Y51.788 E6.16559
G1 X49.038 Y53.288 E6.24230
G1 X49.363 Y53.013 E6.25800
G1 X47.950 Y51.600 E6.32997
G1 X48.375 Y51.413 E6.34675
G1 X49.763 Y52.800 E6.41724
G1 X50.200 Y52.625 E6.43437
G1 X48.800 Y51.225 E6.50579
G1 X49.225 Y51.038 E6.52257
G1 X50.650 Y52.450 E6.59491
G1 X51.088 Y52.288 E6.61204
G1 X49.650 Y50.850 E6.68531
G1 X50.075 Y50.663 E6.70209
G1 X51.538 Y52.113 E6.77629
G1 X51.975 Y51.938 E6.79342
G1 X50.500 Y50.475 E6.86854
G1 X50.925 Y50.275 E6.88531
G1 X52.425 Y51.775 E6.96136
G1 X52.863 Y51.600 E6.97849
G1 X51.350 Y50.088 E7.05546
G1 X51.775 Y49.900 E7.07224
G1 X53.313 Y51.425 E7.15013
G1 X53.750 Y51.263 E7.16726
G1 X52.200 Y49.713 E7.24609
G1 X52.625 Y49.525 E7.26286
G1 X54.188 Y51.088 E7.34261
G1 X54.638 Y50.913 E7.35974
G1 X53.050 Y49.338 E7.44041
G1 X53.475 Y49.150 E7.45719
G1 X55.075 Y50.750 E7.53879
G1 X55.525 Y50.575 E7.55592
G1 X53.900 Y48.963 E7.63844
G1 X54.325 Y48.775 E7.65522
G1 X55.963 Y50.413 E7.73867
G1 X56.413 Y50.238 E7.75580
G1 X54.750 Y48.588 E7.84017
G1 X55.175 Y48.400 E7.85695
G1 X56.850 Y50.063 E7.94225
G1 X57.300 Y49.900 E7.95938
G1 X55.600 Y48.200 E8.04560
G1 X56.025 Y48.013 E8.06238
G1 X57.738 Y49.725 E8.14953
G1 X58.175 Y49.550 E8.16666
G1 X56.450 Y47.825 E8.25473
G1 X56.875 Y47.638 E8.27151
G1 X58.625 Y49.388 E8.36051
G1 X59.063 Y49.213 E8.37764
G1 X57.300 Y47.450 E8.46756
G1 X57.725 Y47.263 E8.48434
G1 X59.513 Y49.038 E8.57519
G1 X59.950 Y48.875 E8.59232
G1 X58.150 Y47.075 E8.68410
G1 X58.575 Y46.888 E8.70087
G1 X60.400 Y48.700 E8.79357
G1 X60.838 Y48.525 E8.81070
G1 X59.000 Y46.700 E8.90433
G1 X59.425 Y46.513 E8.92111
G1 X61.288 Y48.363 E9.01566
G1 X61.725 Y48.188 E9.03279
G1 X59.850 Y46.313 E9.12827
G1 X60.275 Y46.125 E9.14504
G1 X62.175 Y48.025 E9.24145
G1 X62.613 Y47.850 E9.25858
G1 X60.700 Y45.938 E9.35590
G1 X61.125 Y45.750 E9.37268
G1 X63.050 Y47.675 E9.47093
G1 X63.500 Y47.513 E9.48806
G1 X61.550 Y45.563 E9.58724
G1 X61.925 Y45.325 E9.60326
G1 X63.938 Y47.338 E9.70600
G1 X64.388 Y47.163 E9.72313
G1 X62.200 Y44.988 E9.83434
G1 X62.488 Y44.650 E9.85007
G1 X64.825 Y47.000 E9.96976
G1 X65.275 Y46.825 E9.98689
G1 X62.763 Y44.313 E10.11505
G1 X63.038 Y43.988 E10.13076
G1 X65.713 Y46.650 E10.26717
G1 X66.163 Y46.488 E10.28430
G1 X63.338 Y43.663 E10.42821
G1 X63.638 Y43.350 E10.44387
G1 X66.600 Y46.313 E10.59526
G1 X67.038 Y46.138 E10.61239
G1 X63.938 Y43.038 E10.77076
G1 X64.250 Y42.738 E10.78642
G1 X67.488 Y45.975 E10.95128
G1 X67.925 Y45.800 E10.96841
G1 X64.575 Y42.450 E11.13975
G1 X64.888 Y42.150 E11.15541
G1 X67.975 Y45.238 E11.31289
G1 X67.588 Y44.238 F3600.000
G1 X65.225 Y41.875 F1200.000 E11.43370
G1 X65.563 Y41.600
G1 X67.213 Y43.238 E11.51756
G1 X66.825 Y42.250 F3600.000
G1 X65.913 Y41.325 F1200.000 E11.56447
G1 X66.250 Y41.050
G1 X66.450 Y41.250 E11.57445
G1 X66.688 Y41.338
M106 S255.000
G1 X79.538 Y41.338 F600.000 E12.17859
M107
G1 X80.525 Y40.963 F3600.000
M106 S255.000
G1 X66.538 Y40.963 F600.000 E12.83594
G1 X66.913 Y40.575 E12.86103
G1 X80.613 Y40.575 E13.50492
G1 X80.600 Y40.200 E13.52277
G1 X67.500 Y40.200 E14.13882
G1 X68.075 Y39.813 E14.17150
G1 X80.575 Y39.813 E14.75872
G1 X80.463 Y39.438 E14.77727
G1 X68.750 Y39.438 E15.32769
G1 X69.475 Y39.063 E15.36616
G1 X80.350 Y39.063 E15.87743
G1 X80.213 Y38.675 E15.89644
G1 X70.225 Y38.675 E16.36616
M107
G1 X71.163 Y38.300 F3600.000
M106 S255.000
G1 X80.063 Y38.300 F600.000 E16.78515
G1 X79.925 Y37.925
G1 X72.088 Y37.925 E17.15330
M107
G1 X73.363 Y37.538 F3600.000
M106 S255.000
G1 X79.775 Y37.538 F600.000 E17.45477
G1 X79.638 Y37.163
G1 X74.913 Y37.163 E17.67640
M107
G1 X77.550 Y36.788 F3600.000
M106 S255.000
G1 X79.488 Y36.788 F600.000 E17.76754
M107
G1 X78.550 Y41.713 F3600.000
M106 S255.000
G1 X66.838 Y41.713 F600.000 E18.31847
G1 X66.975 Y42.100
G1 X77.563 Y42.100 E18.81619
M107
G1 X76.575 Y42.475 F3600.000
M106 S255.000
G1 X67.125 Y42.475 F600.000 E19.26069
G1 X67.275 Y42.850
G1 X75.588 Y42.850 E19.65198
M107
G1 X74.600 Y43.238 F3600.000
M106 S255.000
G1 X67.413 Y43.238 F600.000 E19.99007
G1 X67.563 Y43.613
G1 X73.613 Y43.613 E20.27494
M107
G1 X72.638 Y43.988 F3600.000
M106 S255.000
G1 X67.700 Y43.988 F600.000 E20.50660
G1 X67.850 Y44.375
G1 X71.650 Y44.375 E20.68505
M107
G1 X70.663 Y44.750 F3600.000
M106 S255.000
G1 X68.000 Y44.750 F600.000 E20.81029
G1 X68.138 Y45.125
G1 X69.675 Y45.125 E20.88231
M107
G1 X68.688 Y45.513 F3600.000
M106 S255.000
G1 X68.288 Y45.513 F600.000 E20.90113
M107
G1 X80.888 Y40.813 F3600.000
G1 X80.813 Y40.738 F1200.000 E20.90545
G1 X81.350 Y40.638 E20.92561
G1 X80.788 Y40.088 E20.95457
G1 X80.625 Y39.288 E20.98490
G1 X81.800 Y40.463 E21.04664
G1 X82.250 Y40.288
G1 X80.288 Y38.325 E21.14972
G1 X79.888 Y37.300 F3600.000
G1 X82.713 Y40.113 F1200.000 E21.29708
G1 X83.163 Y39.938 E21.31509
G1 X79.925 Y36.700 E21.48476
G1 X80.588 Y36.738 E21.50965
G1 X83.613 Y39.763 E21.66796
G1 X84.075 Y39.588 E21.68598
G1 X81.263 Y36.788 E21.83295
G1 X81.975 Y36.863 E21.85958
G1 X84.525 Y39.413 E21.99293
G1 X84.975 Y39.238 E22.01094
G1 X82.713 Y36.975 E22.12949
G1 X83.450 Y37.088 E22.15706
G1 X85.425 Y39.063 E22.26059
G1 X85.775 Y38.775 E22.27713
G1 X84.300 Y37.300 E22.35462
G1 X85.138 Y37.513 E22.38685
G1 X85.913 Y38.288 E22.42752
G1 F1800.000 E17.92752
G92 E0
G1 X57.638 Y59.700 F3600.000
G1 F1800.000 E4.50000
G1 X52.838 Y54.900 F1200.000 E4.75288
G1 X53.250 Y54.675
G1 X55.063 Y56.488 E4.84825
G1 X54.175 Y57.500 F3600.000
G1 X62.788 Y66.113 F1200.000 E5.30136
G1 X61.600 Y66.825 F3600.000
G1 X64.050 Y69.275 F1200.000 E5.43042
G1 X64.688 Y69.288
G1 X59.125 Y63.713 E5.72358
G1 X60.213 Y62.900 F3600.000
G1 X52.650 Y55.338 F1200.000 E6.12198
G1 X56.650 Y60.613 F3600.000
G1 X64.450 Y68.413 F1200.000 E6.53268
G1 X64.663 Y69.475 F3600.000
G1 X65.225 Y70.213 F600.000 E6.55843
G1 X65.625 Y70.800
G1 X66.113 Y71.338 E6.57525
G1 X64.800 Y69.525 F3600.000
G1 X64.788 Y69.638 F600.000 E6.57881
G1 X64.675 Y69.625 E6.58242
G1 F1800.000 E2.08242
G92 E0
G1 X72.863 Y75.988 F3600.000
G1 F1800.000 E4.50000
M106 S255.000
G1 X87.188 Y75.988 F600.000 E5.17354
G1 X87.275 Y76.375 E5.19190
G1 X72.688 Y76.375 E5.87792
G1 X72.513 Y76.750 E5.89753
G1 X87.375 Y76.750 E6.59604
G1 X87.338 Y77.125 E6.61393
G1 X72.413 Y77.125 E7.31606
G1 X72.363 Y77.513 E7.33406
G1 X87.300 Y77.513 E8.03677
G1 X87.150 Y77.888 E8.05616
G1 X72.313 Y77.888 E8.75363
G1 X72.338 Y78.275 E8.77154
G1 X86.963 Y78.275 E9.45880
G1 X86.888 Y78.650 E9.47692
G1 X72.400 Y78.650 E10.15834
G1 X72.450 Y79.025 E10.17638
G1 X87.125 Y79.025 E10.86599
G1 X87.350 Y79.413 E10.88687
G1 X72.513 Y79.413 E11.58466
G1 X72.563 Y79.788 E11.60270
G1 X87.363 Y79.788 E12.29829
M107
G1 X86.250 Y80.163 F3600.000
M106 S255.000
G1 X73.563 Y80.163 F600.000 E12.89469
M107
G1 X74.950 Y80.550 F3600.000
M106 S255.000
G1 X84.775 Y80.550 F600.000 E13.35650
M107
G1 X82.538 Y80.925 F3600.000
M106 S255.000
G1 X77.038 Y80.925 F600.000 E13.61550
M107
G1 X87.925 Y79.588 F3600.000
G1 X87.338 Y79.000 F1200.000 E13.64533
G1 X87.188 Y78.250 E13.67314
G1 X88.350 Y79.400 E13.73198
G1 X88.763 Y79.213 E13.74858
G1 X87.388 Y77.838 E13.81862
G1 X87.513 Y77.350 E13.83654
G1 X89.188 Y79.025 E13.92145
G1 X89.613 Y78.838 E13.93806
G1 X87.575 Y76.800 E14.04161
G1 X87.388 Y76.013 E14.07076
G1 X90.013 Y78.625 E14.20402
G1 X90.413 Y78.413 E14.22022
G1 X87.688 Y75.700 E14.35832
G1 X88.313 Y75.700 E14.38039
G1 X90.800 Y78.200 E14.50734
G1 X91.175 Y77.963 E14.52324
G1 X88.925 Y75.700 E14.63794
G1 X89.538 Y75.713 E14.66001
G1 X91.550 Y77.725 E14.76248
G1 X91.925 Y77.488 E14.77838
G1 X90.150 Y75.713 E14.86860
G1 X90.763 Y75.713 E14.89067
G1 X92.300 Y77.250 E14.96866
G1 X92.613 Y76.950 E14.98418
G1 X91.375 Y75.725 E15.04682
G1 X91.988 Y75.725 E15.06889
G1 X92.750 Y76.475 E15.10735
G1 F1800.000 E10.60735
G92 E0
G1 X38.913 Y63.700 F3600.000
G1 F1800.000 E4.50000
G1 X39.213 Y63.988 F1200.000 E4.51564
G1 X39.000 Y64.413 E4.53328
G1 X38.375 Y63.788 E4.56588
G1 X37.838 Y63.888 E4.58637
G1 X38.775 Y64.825 E4.63593
G1 X38.563 Y65.238 E4.65357
G1 X37.300 Y63.988 E4.72009
G1 X36.763 Y64.088 E4.74059
G1 X38.338 Y65.663 E4.82407
G1 X38.125 Y66.075 E4.84171
G1 X36.225 Y64.175 E4.94215
G1 X35.688 Y64.275 E4.96265
G1 X37.900 Y66.500 E5.08005
G1 X37.688 Y66.913 E5.09769
G1 X35.138 Y64.375 E5.23205
G1 X34.600 Y64.475 E5.25255
G1 X37.463 Y67.338 E5.40386
G1 X37.250 Y67.750 E5.42151
G1 X34.088 Y64.588 E5.58863
G1 X33.638 Y64.788 E5.60673
G1 X37.025 Y68.163 E5.78576
G1 X36.813 Y68.588 E5.80340
G1 X33.225 Y65.000 E5.99313
G1 X32.863 Y65.275
G1 X36.588 Y69.000 E6.19026
G1 X36.375 Y69.425
G1 X35.088 Y68.125 E6.25847
G1 X35.800 Y69.488 F3600.000
G1 X36.150 Y69.838 F1200.000 E6.27725
G1 X35.838 Y70.163 E6.29409
G1 X35.938 Y70.250 E6.29888
G1 X33.388 Y66.438 F3600.000
G1 X32.538 Y65.588 F1200.000 E6.34405
G1 X32.250 Y65.938
G1 X32.325 Y66.013 E6.34829
G1 X35.850 Y70.263 F3600.000
G1 X35.900 Y70.313 F1200.000 E6.35342
G1 X35.450 Y71.188
G1 X35.600 Y71.463 F600.000 E6.36056
G1 X35.338 Y72.438 E6.38344
G1 X34.113 Y74.925 F3600.000
G1 X34.625 Y75.438 F1200.000 E6.40969
G1 X34.725 Y75.538
G1 X36.500 Y77.313 E6.50015
G1 X37.113 Y77.313 E6.52219
G1 X35.513 Y75.700 E6.60405
G1 X36.113 Y75.700 E6.62597
G1 X37.725 Y77.313 E6.70801
G1 X38.338 Y77.313 E6.73004
G1 X36.725 Y75.700 E6.81225
G1 X37.338 Y75.700 E6.83417
G1 X38.950 Y77.313 E6.91655
G1 X39.563 Y77.313 E6.93858
G1 X37.950 Y75.688 E7.02113
G1 X38.550 Y75.688 E7.04305
G1 X40.175 Y77.313 E7.12577
G1 X40.788 Y77.313 E7.14780
G1 X39.163 Y75.688 E7.23069
G1 X39.775 Y75.688 E7.25261
G1 X41.400 Y77.313 E7.33567
G1 X42.013 Y77.313 E7.35771
G1 X40.375 Y75.675 E7.44093
G1 X40.988 Y75.675 E7.46285
G1 X42.625 Y77.313 E7.54625
G1 X43.238 Y77.313 E7.56829
G1 X41.600 Y75.675 E7.65186
G1 X42.213 Y75.675 E7.67377
G1 X43.850 Y77.313 E7.75751
G1 X44.463 Y77.313 E7.77955
G1 X42.813 Y75.663 E7.86346
G1 X43.425 Y75.663 E7.88538
G1 X45.075 Y77.313 E7.96946
G1 X45.688 Y77.313 E7.99150
G1 X44.038 Y75.663 E8.07574
G1 X44.638 Y75.663 E8.09766
G1 X46.300 Y77.313 E8.18208
G1 X46.913 Y77.313 E8.20412
G1 X45.250 Y75.650 E8.28871
G1 X45.863 Y75.650 E8.31063
G1 X47.525 Y77.313 E8.39539
G1 X48.138 Y77.313 E8.41743
G1 X46.475 Y75.650 E8.50236
G1 X47.075 Y75.638 E8.52427
G1 X48.750 Y77.313 E8.60937
G1 X49.363 Y77.313 E8.63141
G1 X47.688 Y75.638 E8.71668
G1 X48.300 Y75.638 E8.73860
G1 X49.975 Y77.313 E8.82404
G1 X50.588 Y77.313 E8.84608
G1 X48.900 Y75.638 E8.93169
G1 X49.513 Y75.625 E8.95361
G1 X51.200 Y77.313 E9.03939
G1 X51.813 Y77.313 E9.06143
G1 X50.125 Y75.625 E9.14738
G1 X50.738 Y75.625 E9.16930
G1 X52.425 Y77.313 E9.25542
G1 X53.038 Y77.313 E9.27746
G1 X51.338 Y75.625 E9.36375
G1 X51.950 Y75.613 E9.38567
G1 X53.650 Y77.313 E9.47213
G1 X54.263 Y77.313 E9.49417
G1 X52.563 Y75.613 E9.58080
G1 X53.163 Y75.613 E9.60272
G1 X54.875 Y77.313 E9.68952
G1 X55.488 Y77.313 E9.71156
G1 X53.775 Y75.613 E9.79853
G1 X54.388 Y75.600 E9.82045
G1 X56.100 Y77.313 E9.90759
G1 X56.713 Y77.313 E9.92963
G1 X55.000 Y75.600 E10.01694
G1 X55.600 Y75.600 E10.03886
G1 X57.325 Y77.313 E10.12634
G1 X57.938 Y77.313 E10.14838
G1 X56.213 Y75.600 E10.23604
G1 X56.825 Y75.588 E10.25795
G1 X58.550 Y77.313 E10.34578
G1 X59.163 Y77.313 E10.36781
G1 X57.425 Y75.588 E10.45581
G1 X58.038 Y75.588 E10.47773
G1 X59.775 Y77.313 E10.56589
G1 X60.388 Y77.313 E10.58793
G1 X58.650 Y75.588 E10.67626
G1 X59.263 Y75.575 E10.69818
G1 X61.000 Y77.313 E10.78669
G1 X61.613 Y77.313 E10.80872
G1 X59.863 Y75.575 E10.89740
G1 X60.475 Y75.575 E10.91932
G1 X62.225 Y77.313 E11.00816
G1 X62.838 Y77.325 E11.03020
G1 X61.088 Y75.575 E11.11921
G1 X61.688 Y75.563 E11.14113
G1 X63.450 Y77.325 E11.23032
G1 X64.063 Y77.325 E11.25236
G1 X62.300 Y75.563 E11.34171
G1 X62.913 Y75.563 E11.36363
G1 X64.675 Y77.325 E11.45316
G1 X65.288 Y77.325 E11.47519
G1 X63.525 Y75.563 E11.56489
G1 X64.125 Y75.550 E11.58681
G1 X65.900 Y77.325 E11.67667
G1 X66.513 Y77.325 E11.69871
G1 X64.738 Y75.550 E11.78875
G1 X65.350 Y75.550 E11.81067
G1 X67.125 Y77.325 E11.90087
G1 X68.000 Y77.588 E11.93383
G1 X65.950 Y75.550 E12.03767
G1 X66.563 Y75.538
G1 X69.500 Y78.475 E12.18687
G1 X70.738 Y79.100 F3600.000
G1 X67.063 Y75.425 F1200.000 E12.37359
G1 X67.500 Y75.250
G1 X71.813 Y79.563 E12.59295
G1 X72.325 Y79.463 E12.61180
G1 X67.838 Y74.988 E12.83994
G1 X68.138 Y74.663 E12.85554
G1 X72.213 Y78.750 E13.06333
G1 X72.113 Y78.025 E13.08952
G1 X68.338 Y74.250 E13.28138
G1 X68.625 Y73.925 E13.29699
G1 X72.175 Y77.475 E13.47747
G1 X72.238 Y76.938
G1 X70.588 Y75.275 E13.56188
G1 X71.525 Y75.600
G1 X72.425 Y76.500 E13.60755
G1 X72.613 Y76.075 E13.62418
G1 X72.138 Y75.613 E13.64797
G1 X72.763 Y75.613 E13.67013
G1 X72.800 Y75.663 E13.67236
G1 X33.525 Y74.938 F3600.000
G1 X35.888 Y77.313 F1200.000 E13.79308
G1 X35.275 Y77.313 E13.81511
G1 X32.738 Y74.775 E13.94425
G1 X31.963 Y74.613 E13.97287
G1 X34.663 Y77.313 E14.11043
G1 X34.050 Y77.313 E14.13246
G1 X31.188 Y74.450 E14.27844
G1 X30.413 Y74.275 E14.30706
G1 X33.438 Y77.313 E14.46146
G1 X32.825 Y77.313
G1 X27.675 Y72.163 E14.72375
G1 X27.513 Y72.600 E14.74079
G1 X32.213 Y77.313 E14.98058
G1 X31.613 Y77.313 E15.00262
G1 X27.388 Y73.088 E15.21744
G1 X27.338 Y73.650 E15.23770
G1 X31.000 Y77.313 E15.42396
G1 X30.313 Y77.238 E15.44869
G1 X27.388 Y74.325 E15.59731
G1 X27.700 Y75.238 E15.63209
G1 X29.425 Y76.963 E15.72021
G1 X27.888 Y71.750 F3600.000
G1 X29.663 Y73.525 F1200.000 E15.81063
G1 X29.550 Y72.813 E15.83693
G1 X28.125 Y71.388 E15.90920
G1 X28.375 Y71.025 E15.92507
G1 X29.675 Y72.325 E15.99113
G1 X29.888 Y71.913 E16.00749
G1 X28.625 Y70.663 E16.07160
G1 X29.038 Y70.463 E16.08810
G1 X30.088 Y71.513 E16.14180
; infill_end
G1 F1800.000 E11.64180
G92 E0
; Layer: 4 Time: 76
G1 Z0.950 F3600.000
; Region: 0
; perimeter_start
G1 X29.825 Y73.038
G1 F1800.000 E4.50000
G1 X29.963 Y73.513 F900.000 E4.51626
G1 X30.425 Y73.975 E4.53824
G1 X33.650 Y74.663 E4.64773
G1 X34.088 Y74.625 E4.66249
G1 X34.363 Y74.475 E4.67273
G1 X34.388 Y74.713 E4.68064
G1 X34.875 Y75.263 E4.70522
G1 X35.413 Y75.413 E4.72348
G1 X66.738 Y75.238 E5.76571
G1 X67.463 Y74.950 E5.79145
G1 X67.863 Y74.538 E5.81068
G1 X68.100 Y74.063 E5.82836
G1 X68.225 Y73.300 E5.85417
G1 X71.000 Y75.200 E5.96574
G1 X71.588 Y75.313 E5.98570
G1 X92.125 Y75.425 E6.66878
G1 X92.450 Y75.538 E6.68043
G1 X92.750 Y75.750 E6.69237
G1 X92.938 Y76.025 E6.70357
G1 X93.050 Y76.438 E6.71795
G1 X93.025 Y76.775 E6.72932
G1 X92.888 Y77.100 E6.74086
G1 X92.550 Y77.438 E6.75674
G1 X90.925 Y78.475 E6.82108
G1 X89.875 Y79.050 E6.86088
G1 X88.000 Y79.888 E6.92911
G1 X86.025 Y80.550 E6.99833
G1 X83.975 Y81.038 E7.06835
G1 X81.438 Y81.363 E7.15340
G1 X79.313 Y81.413 E7.22428
G1 X77.188 Y81.250 E7.29511
G1 X75.100 Y80.900 E7.36550
G1 X73.075 Y80.338 E7.43529
G1 X71.913 Y79.925 E7.47630
G1 X70.413 Y79.288 E7.53074
G1 X68.988 Y78.538 E7.58417
G1 X67.488 Y77.613 E7.64292
G1 X30.738 Y77.613 E8.86517
G1 X29.975 Y77.488 E8.89058
G1 X29.250 Y77.225 E8.91634
G1 X28.588 Y76.813 E8.94227
G1 X28.025 Y76.288 E8.96787
G1 X27.588 Y75.688 E8.99262
G1 X27.263 Y75.013 E9.01738
G1 X27.075 Y74.275 E9.04299
G1 X27.025 Y73.488 E9.06900
G1 X27.138 Y72.738 E9.09443
G1 X27.500 Y71.788 E9.12820
G1 X28.663 Y70.063 E9.19745
G1 X29.925 Y70.363 E9.24059
G1 X30.613 Y71.150 E9.27527
G1 X29.875 Y72.588 E9.32878
G1 X29.850 Y72.838 E9.33730
G1 F1800.000 E4.83730
G92 E0
G1 X35.563 Y70.988 F3600.000
G1 F1800.000 E4.50000
G1 X35.538 Y69.650 F900.000 E4.54437
G1 X35.400 Y69.200 E4.56033
G1 X34.175 Y67.250 E4.63664
G1 X33.750 Y66.900 E4.65492
G1 X31.775 Y66.113 E4.72598
G1 X32.450 Y65.225 E4.76318
G1 X33.113 Y64.713 E4.79082
G1 X33.863 Y64.350 E4.81865
G1 X34.225 Y64.238 E4.83137
G1 X39.963 Y63.200 E5.02513
G1 X35.850 Y71.063 E5.31994
G1 X35.750 Y71.038 E5.32322
G1 F1800.000 E0.82322
G92 E0
G1 X52.513 Y55.875 F3600.000
G1 F1800.000 E4.50000
G1 X52.388 Y55.625 F900.000 E4.50954
G1 X52.350 Y55.338 E4.51911
G1 X52.388 Y55.050 E4.52868
G1 X52.500 Y54.813 E4.53736
G1 X52.750 Y54.550 E4.54941
G1 X53.263 Y54.375 E4.56746
G1 X53.525 Y54.400 E4.57612
G1 X53.950 Y54.625 E4.59203
G1 X64.550 Y67.825 E5.15542
G1 X65.525 Y70.375 E5.24596
G1 X65.300 Y70.550 E5.25550
G1 X62.663 Y68.638 E5.36402
G1 X52.638 Y56.038 E5.89944
G1 X52.163 Y56.088
G1 X52.000 Y55.738 E5.91251
G1 X51.938 Y55.338 E5.92601
G1 X52.000 Y54.938 E5.93952
G1 X52.163 Y54.588 E5.95230
G1 X52.500 Y54.225 E5.96864
G1 X52.850 Y54.050 E5.98142
G1 X53.238 Y53.975 E5.99492
G1 X53.638 Y54.013 E6.00812
G1 X54.200 Y54.300 E6.02939
G1 X64.900 Y67.625 E6.59765
G1 X66.363 Y71.413 E6.73231
G1 X66.588 Y71.675 E6.74409
G1 X71.150 Y74.825 E6.92850
G1 X71.625 Y74.913 E6.94444
G1 X92.188 Y75.025 E7.62833
G1 X92.638 Y75.175 E7.64419
G1 X93.038 Y75.463 E7.66046
G1 X93.300 Y75.850 E7.67617
G1 X93.463 Y76.400 E7.69525
G1 X93.413 Y76.875 E7.71115
G1 X93.225 Y77.325 E7.72727
G1 X92.813 Y77.750 E7.74716
G1 X91.125 Y78.825 E7.81356
G1 X90.050 Y79.400 E7.85434
G1 X88.138 Y80.263 E7.92368
G1 X86.138 Y80.938 E7.99415
G1 X84.050 Y81.438 E8.06550
G1 X81.475 Y81.763 E8.15195
G1 X79.300 Y81.813 E8.22418
G1 X77.138 Y81.650 E8.29630
G1 X75.013 Y81.288 E8.36795
G1 X72.963 Y80.725 E8.43888
G1 X71.775 Y80.300 E8.48082
G1 X70.238 Y79.650 E8.53618
G1 X68.788 Y78.888 E8.59058
G1 X67.375 Y78.013 E8.64604
G1 X30.700 Y78.013 E9.86559
G1 X29.875 Y77.875 E9.89335
G1 X29.075 Y77.588 E9.92172
G1 X28.350 Y77.138 E9.95027
G1 X27.725 Y76.563 E9.97847
G1 X27.238 Y75.900 E10.00577
G1 X26.888 Y75.150 E10.03307
G1 X26.675 Y74.338 E10.06127
G1 X26.625 Y73.475 E10.08990
G1 X26.750 Y72.638 E10.11816
G1 X27.150 Y71.600 E10.15494
G1 X28.488 Y69.613 E10.23495
G1 X30.100 Y70.000 E10.29002
G1 X30.350 Y70.188 E10.30039
G1 X31.000 Y71.013 E10.33535
G1 X31.025 Y71.225 E10.34269
G1 X30.263 Y72.700 E10.39789
G1 X30.238 Y73.000 E10.40791
G1 X30.325 Y73.300 E10.41820
G1 X30.625 Y73.613 E10.43286
G1 X33.675 Y74.263 E10.53640
G1 X33.975 Y74.238 E10.54643
G1 X34.263 Y74.075 E10.55741
G1 X35.088 Y72.600 E10.61379
G1 X35.175 Y72.125 E10.62964
G1 X35.138 Y69.713 E10.70995
G1 X35.038 Y69.363 E10.72223
G1 X33.875 Y67.525 E10.79458
G1 X33.550 Y67.250 E10.80866
G1 X31.200 Y66.313 E10.89289
G1 X31.588 Y65.625 E10.91915
G1 X32.175 Y64.938 E10.94933
G1 X32.900 Y64.375 E10.97976
G1 X33.713 Y63.975 E11.01003
G1 X34.138 Y63.850 E11.02456
G1 X40.438 Y62.713 E11.23772
G1 X40.538 Y62.600 E11.24272
G1 X40.675 Y62.688 E11.24847
G1 X34.725 Y74.063 E11.67531
G1 X34.775 Y74.550 E11.69163
G1 X35.100 Y74.913 E11.70778
G1 X35.463 Y75.013 E11.72030
G1 X66.663 Y74.838 E12.75816
G1 X67.225 Y74.613 E12.77861
G1 X67.538 Y74.300 E12.79306
G1 X67.725 Y73.938 E12.80660
G1 X67.788 Y73.538 E12.82015
G1 X67.725 Y73.113 E12.83433
G1 X67.525 Y72.738 E12.84851
G1 X67.250 Y72.450 E12.86157
G1 X62.375 Y68.925 E13.06170
G1 X52.288 Y56.250 E13.60052
G1 X52.363 Y55.750
G1 F1800.000 E9.10052
G92 E0
G1 X48.900 Y56.313 F3600.000
G1 F1800.000 E4.50000
G1 X45.100 Y56.413 F900.000 E4.62631
G1 X44.488 Y56.550 E4.64725
G1 X43.900 Y56.800 E4.66864
G1 X43.100 Y57.363 E4.70126
G1 X42.038 Y59.300 E4.77481
G1 X41.738 Y59.213 E4.78522
G1 X41.950 Y56.950 E4.86066
G1 X42.100 Y56.563 E4.87465
G1 X42.350 Y56.200 E4.88913
G1 X47.263 Y51.588 E5.11357
G1 X61.650 Y45.200 E5.63698
G1 X62.750 Y43.850 E5.69490
G1 X63.575 Y42.975 E5.73471
G1 X64.750 Y41.863 E5.78884
G1 X66.375 Y40.575 E5.85772
G1 X68.138 Y39.425 E5.92751
G1 X70.013 Y38.450 E5.99801
G1 X71.988 Y37.638 E6.06890
G1 X74.025 Y37.038 E6.13986
G1 X76.113 Y36.625 E6.21056
G1 X78.213 Y36.413 E6.28076
G1 X79.888 Y36.400 E6.33613
G1 X81.525 Y36.500 E6.39079
G1 X83.525 Y36.788 E6.45797
G1 X85.600 Y37.325 E6.52945
G1 X85.888 Y37.513 E6.54073
G1 X86.100 Y37.800 E6.55267
G1 X86.213 Y38.113 E6.56387
G1 X86.213 Y38.550 E6.57825
G1 X86.088 Y38.863 E6.58961
G1 X85.863 Y39.138 E6.60154
G1 X85.538 Y39.338 E6.61408
G1 X49.663 Y53.150 E7.89280
G1 X49.113 Y53.613 E7.91657
G1 X48.738 Y54.225 E7.94060
G1 X48.550 Y55.050 E7.96867
G1 X48.675 Y55.888 E7.99675
G1 X48.813 Y56.125 E8.00602
G1 X49.063 Y55.750
G1 X49.338 Y56.275 E8.02583
G1 X49.788 Y56.675 E8.04567
G1 X45.150 Y56.813 E8.19971
G1 X44.613 Y56.938 E8.21822
G1 X44.088 Y57.150 E8.23698
G1 X43.400 Y57.638 E8.26504
G1 X41.263 Y61.588 E8.41446
G1 X41.113 Y61.538 E8.41972
G1 X41.563 Y56.863 E8.57604
G1 X41.738 Y56.375 E8.59344
G1 X42.038 Y55.938 E8.61102
G1 X47.038 Y51.250 E8.83911
G1 X61.400 Y44.875 E9.36164
G1 X62.450 Y43.588 E9.41683
G1 X63.288 Y42.700 E9.45748
G1 X64.488 Y41.563 E9.51259
G1 X66.138 Y40.250 E9.58265
G1 X67.938 Y39.088 E9.65370
G1 X69.838 Y38.088 E9.72548
G1 X71.850 Y37.263 E9.79765
G1 X73.938 Y36.650 E9.86989
G1 X76.063 Y36.225 E9.94187
G1 X78.200 Y36.013 E10.01328
G1 X79.888 Y36.000 E10.06972
G1 X81.563 Y36.100 E10.12543
G1 X83.600 Y36.400 E10.19385
G1 X85.775 Y36.950 E10.26831
G1 X86.163 Y37.213 E10.28404
G1 X86.463 Y37.600 E10.30032
G1 X86.613 Y38.050 E10.31603
G1 X86.613 Y38.625 E10.33511
G1 X86.438 Y39.063 E10.35101
G1 X86.125 Y39.450 E10.36725
G1 X85.725 Y39.700 E10.38324
G1 X49.863 Y53.500 E11.66100
G1 X49.425 Y53.875 E11.68046
G1 X49.113 Y54.375 E11.70013
G1 X48.950 Y55.063 E11.72343
G1 X49.025 Y55.563 E11.74007
G1 X48.688 Y56.225
G1 F1800.000 E7.24007
G92 E0
G1 X41.150 Y61.888 F3600.000
G1 F1800.000 E4.50000
G1 X41.150 Y62.425 F900.000 E4.51789
G1 X40.700 Y62.425 E4.53276
G1 X40.700 Y61.888 E4.55065
G1 X40.950 Y61.888 E4.55886
; perimeter_end
; infill_start
G1 X41.388 Y60.888 F3600.000
G1 X41.800 Y59.513 F600.000 E4.59835
G1 X41.688 Y59.600
G1 X41.750 Y59.700 E4.60248
G1 X41.838 Y59.650 E4.60640
G1 X41.963 Y58.963
G1 X42.438 Y57.475 E4.65262
G1 F1800.000 E0.15262
G92 E0
G1 X36.888 Y64.063 F3600.000
G1 F1800.000 E4.50000
G1 X34.125 Y66.825 F1200.000 E4.62999
G1 X35.863 Y70.250 F3600.000
G1 X35.850 Y70.275 F1200.000 E4.63153
G1 X35.450 Y71.188
G1 X35.600 Y71.463 F600.000 E4.63867
G1 X35.338 Y72.438 E4.66155
G1 F1800.000 E0.16155
G92 E0
G1 X29.900 Y71.875 F3600.000
G1 F1800.000 E4.50000
G1 X27.400 Y74.375 F1200.000 E4.61744
G1 X30.213 Y77.225 E4.75049
G1 X32.675 Y74.763 E4.86635
G1 X35.788 Y77.313 E5.00003
G1 X37.400 Y75.700 E5.07614
G1 X41.438 Y77.313 E5.22082
G1 X43.088 Y75.663 E5.29840
G1 X47.100 Y77.313 E5.44251
G1 X48.775 Y75.638 E5.52155
G1 X52.750 Y77.313 E5.66511
G1 X54.463 Y75.600 E5.74562
G1 X58.400 Y77.313 E5.88863
G1 X60.150 Y75.575 E5.97061
G1 X64.063 Y77.325 E6.11309
G1 X65.838 Y75.550 E6.19654
G1 X68.900 Y78.138 E6.33004
G1 X71.450 Y75.588 E6.45009
G1 F1800.000 E1.95009
G92 E0
G1 X62.675 Y65.975 F3600.000
G1 F1800.000 E4.50000
G1 X61.700 Y66.950 F1200.000 E4.54593
G1 X59.188 Y63.800 E4.67983
G1 X60.150 Y62.838 E4.72523
G1 X57.638 Y59.688 E4.85907
G1 X56.688 Y60.650 E4.90394
G1 X54.175 Y57.500 E5.03784
G1 X55.113 Y56.550 E5.08218
G1 F1800.000 E0.58218
G92 E0
G1 X50.375 Y52.563 F3600.000
G1 F1800.000 E4.50000
G1 X54.025 Y48.900 F1200.000 E4.67181
G1 X59.575 Y49.025 F3600.000
G1 X66.688 Y41.900 F1200.000 E5.00689
G1 X48.350 Y54.588 F3600.000
G1 X46.863 Y56.075 F1200.000 E5.07669
G1 F1800.000 E0.57669
G92 E0
G1 X64.663 Y69.475 F3600.000
G1 F1800.000 E4.50000
G1 X65.225 Y70.213 F600.000 E4.52575
G1 X65.625 Y70.800
G1 X66.113 Y71.338 E4.54257
G1 X64.800 Y69.525 F3600.000
G1 X64.788 Y69.638 F600.000 E4.54613
G1 X64.675 Y69.625 E4.54974
G1 F1800.000 E0.04974
G92 E0
G1 X87.550 Y76.650 F3600.000
G1 F1800.000 E4.50000
G1 X88.500 Y75.700 F1200.000 E4.54471
G1 X87.263 Y77.650 F3600.000
G1 X84.238 Y80.675 F1200.000 E4.69912
G1 X83.500 Y80.800 E4.72653
G1 X87.363 Y76.938 E4.92437
G1 X87.288 Y76.400 E4.94408
G1 X82.788 Y80.888 E5.17415
G1 X82.088 Y80.988 E5.19992
G1 X87.163 Y75.900 E5.45998
G1 X86.763 Y75.688 E5.47651
G1 X81.388 Y81.075 E5.75174
G1 X80.750 Y81.088 E5.77451
G1 X86.150 Y75.688 E6.05061
G1 X85.538 Y75.688 E6.07277
G1 X80.125 Y81.100 E6.34974
G1 X79.500 Y81.113 E6.37252
G1 X84.925 Y75.688 E6.65037
G1 X84.313 Y75.675 E6.67252
G1 X78.913 Y81.088 E6.94917
G1 X78.338 Y81.038 E6.96995
G1 X83.700 Y75.675 E7.24458
G1 X83.088 Y75.675 E7.26674
G1 X77.763 Y81.000 E7.53935
G1 X77.188 Y80.950 E7.56004
G1 X82.475 Y75.663 E7.83048
G1 X81.863 Y75.663 E7.85264
G1 X76.663 Y80.863 E8.11863
G1 X76.138 Y80.775 E8.13791
G1 X81.250 Y75.663 E8.39945
G1 X80.638 Y75.663 E8.42160
G1 X75.613 Y80.688 E8.67869
G1 X75.100 Y80.588 E8.69780
G1 X80.025 Y75.650 E8.95013
G1 X79.413 Y75.650 E8.97228
G1 X74.613 Y80.450 E9.21804
G1 X74.125 Y80.325 E9.23619
G1 X78.800 Y75.650 E9.47539
G1 X78.188 Y75.650 E9.49754
G1 X73.650 Y80.188 E9.73017
G1 X73.163 Y80.063 E9.74831
G1 X77.575 Y75.638 E9.97437
G1 X76.963 Y75.638 E9.99652
G1 X72.713 Y79.900 E10.21450
G1 X72.525 Y79.463 E10.23141
G1 X76.350 Y75.638 E10.42767
G1 X75.738 Y75.625 E10.44982
G1 X72.438 Y78.938 E10.61884
G1 X72.363 Y78.400 E10.63844
G1 X75.138 Y75.625 E10.78024
G1 X74.525 Y75.625 E10.80239
G1 X72.325 Y77.825 E10.91495
G1 X72.413 Y77.113 E10.94082
G1 X73.913 Y75.625 E11.01728
G1 X73.300 Y75.613
G1 X72.813 Y76.100 E11.04179
G1 X86.888 Y78.650 F3600.000
G1 X85.050 Y80.475 F1200.000 E11.13583
G1 X85.863 Y80.288 E11.16584
G1 X87.675 Y78.475 E11.25904
G1 X88.738 Y78.025 F3600.000
G1 X86.775 Y79.988 F1200.000 E11.35957
G1 X87.713 Y79.675
G1 X88.925 Y78.450 E11.42212
G1 X89.125 Y78.875
G1 X88.788 Y79.200 E11.43916
G1 F1800.000 E6.93916
G92 E0
G1 X75.163 Y43.013 F3600.000
G1 F1800.000 E4.50000
G1 X80.013 Y38.163 F1200.000 E4.74994
G1 X79.850 Y37.725
G1 X74.163 Y43.400 E5.04296
G1 X73.150 Y43.788 F3600.000
G1 X79.675 Y37.275 F1200.000 E5.37905
G1 X79.500 Y36.825
G1 X72.150 Y44.175 E5.75821
G1 X71.138 Y44.563 F3600.000
G1 X79.000 Y36.700 F1200.000 E6.16344
G1 X78.375 Y36.713
G1 X70.125 Y44.950 E6.58825
G1 X69.125 Y45.338 F3600.000
G1 X77.700 Y36.763 F1200.000 E7.03025
G1 X77.013 Y36.838 E7.05542
G1 X68.300 Y45.550 E7.50429
G1 X68.125 Y45.100 E7.52178
G1 X76.325 Y36.900 E7.94409
G1 X75.575 Y37.038 E7.97188
G1 X67.963 Y44.650 E8.36434
G1 X67.788 Y44.200 E8.38183
G1 X74.800 Y37.188 E8.74342
G1 X74.025 Y37.350 E8.77250
G1 X67.613 Y43.750 E9.10268
G1 X67.438 Y43.300 E9.12017
G1 X73.138 Y37.613 E9.41369
G1 X72.250 Y37.875 E9.44728
G1 X67.275 Y42.863 E9.70414
G1 X67.100 Y42.413
G1 X71.238 Y38.263 E9.91761
G1 X70.200 Y38.688 F3600.000
G1 X66.925 Y41.963 F1200.000 E10.08610
G1 X66.750 Y41.513
G1 X68.913 Y39.363 E10.19714
G1 X67.363 Y40.288 F3600.000
G1 X66.588 Y41.063 F1200.000 E10.23714
G1 X76.175 Y42.625 F3600.000
G1 X80.188 Y38.613 F1200.000 E10.44401
G1 X80.350 Y39.063
G1 X77.188 Y42.238 E10.60754
G1 X78.188 Y41.850 F3600.000
G1 X80.488 Y39.550 F1200.000 E10.72621
G1 X80.600 Y40.063
G1 X79.200 Y41.463 E10.79828
G1 X80.200 Y41.075 F3600.000
G1 X80.613 Y40.675 F1200.000 E10.81921
G1 X80.450 Y38.750 F3600.000
G1 X82.288 Y36.913 F1200.000 E10.90585
; infill_end
G1 F1800.000 E6.40585
G92 E0
; Layer: 5 Time: 78
G1 Z1.150 F3600.000
; Region: 0
; perimeter_start
G1 X67.863 Y74.538
G1 F1800.000 E4.50000
G1 X68.100 Y74.063 F900.000 E4.51768
G1 X68.225 Y73.300 E4.54350
G1 X71.000 Y75.200 E4.65507
G1 X71.588 Y75.313 E4.67502
G1 X92.125 Y75.425 E5.35810
G1 X92.450 Y75.538 E5.36975
G1 X92.750 Y75.750 E5.38170
G1 X92.938 Y76.025 E5.39290
G1 X93.050 Y76.438 E5.40727
G1 X93.025 Y76.775 E5.41864
G1 X92.888 Y77.100 E5.43018
G1 X92.550 Y77.438 E5.44607
G1 X90.925 Y78.475 E5.51040
G1 X89.875 Y79.050 E5.55021
G1 X88.000 Y79.888 E5.61844
G1 X86.025 Y80.550 E5.68766
G1 X83.975 Y81.038 E5.75767
G1 X81.438 Y81.363 E5.84272
G1 X79.313 Y81.413 E5.91360
G1 X77.188 Y81.250 E5.98444
G1 X75.100 Y80.900 E6.05482
G1 X73.075 Y80.338 E6.12462
G1 X71.913 Y79.925 E6.16562
G1 X70.413 Y79.288 E6.22006
G1 X68.988 Y78.538 E6.27349
G1 X67.488 Y77.613 E6.33224
G1 X30.738 Y77.613 E7.55450
G1 X29.975 Y77.488 E7.57991
G1 X29.250 Y77.225 E7.60567
G1 X28.588 Y76.813 E7.63159
G1 X28.025 Y76.288 E7.65719
G1 X27.588 Y75.688 E7.68194
G1 X27.263 Y75.013 E7.70670
G1 X27.075 Y74.275 E7.73231
G1 X27.025 Y73.488 E7.75832
G1 X27.138 Y72.738 E7.78375
G1 X27.500 Y71.788 E7.81752
G1 X28.663 Y70.063 E7.88677
G1 X29.925 Y70.363 E7.92991
G1 X30.613 Y71.150 E7.96460
G1 X29.875 Y72.588 E8.01811
G1 X29.825 Y73.038 E8.03328
G1 X29.963 Y73.513 E8.04954
G1 X30.425 Y73.975 E8.07151
G1 X33.650 Y74.663 E8.18101
G1 X34.088 Y74.625 E8.19577
G1 X34.363 Y74.475 E8.20601
G1 X34.388 Y74.713 E8.21392
G1 X34.875 Y75.263 E8.23850
G1 X35.413 Y75.413 E8.25676
G1 X66.738 Y75.238 E9.29899
G1 X67.463 Y74.950 E9.32473
G1 X67.725 Y74.675 E9.33730
G1 F1800.000 E4.83730
G92 E0
G1 X39.963 Y63.200 F3600.000
G1 F1800.000 E4.50000
G1 X35.850 Y71.063 F900.000 E4.79481
G1 X35.563 Y70.988 E4.80475
G1 X35.538 Y69.650 E4.84912
G1 X35.400 Y69.200 E4.86507
G1 X34.175 Y67.250 E4.94139
G1 X33.750 Y66.900 E4.95966
G1 X31.775 Y66.113 E5.03073
G1 X32.450 Y65.225 E5.06793
G1 X33.113 Y64.713 E5.09556
G1 X33.863 Y64.350 E5.12340
G1 X34.225 Y64.238 E5.13611
G1 X39.763 Y63.238 E5.32322
G1 F1800.000 E0.82322
G92 E0
G1 X52.513 Y55.875 F3600.000
G1 F1800.000 E4.50000
G1 X52.388 Y55.625 F900.000 E4.50954
G1 X52.350 Y55.338 E4.51911
G1 X52.388 Y55.050 E4.52868
G1 X52.500 Y54.813 E4.53736
G1 X52.750 Y54.550 E4.54941
G1 X53.263 Y54.375 E4.56746
G1 X53.525 Y54.400 E4.57612
G1 X53.950 Y54.625 E4.59203
G1 X64.550 Y67.825 E5.15542
G1 X65.525 Y70.375 E5.24596
G1 X65.300 Y70.550 E5.25550
G1 X62.663 Y68.638 E5.36402
G1 X52.638 Y56.038 E5.89944
G1 X52.163 Y56.088
G1 X52.000 Y55.738 E5.91251
G1 X51.938 Y55.338 E5.92601
G1 X52.000 Y54.938 E5.93952
G1 X52.163 Y54.588 E5.95230
G1 X52.500 Y54.225 E5.96864
G1 X52.850 Y54.050 E5.98142
G1 X53.238 Y53.975 E5.99492
G1 X53.638 Y54.013 E6.00812
G1 X54.200 Y54.300 E6.02939
G1 X64.900 Y67.625 E6.59765
G1 X66.363 Y71.413 E6.73231
G1 X66.588 Y71.675 E6.74409
G1 X71.150 Y74.825 E6.92850
G1 X71.625 Y74.913 E6.94444
G1 X92.188 Y75.025 E7.62833
G1 X92.638 Y75.175 E7.64419
G1 X93.038 Y75.463 E7.66046
G1 X93.300 Y75.850 E7.67617
G1 X93.463 Y76.400 E7.69525
G1 X93.413 Y76.875 E7.71115
G1 X93.225 Y77.325 E7.72727
G1 X92.813 Y77.750 E7.74716
G1 X91.125 Y78.825 E7.81356
G1 X90.050 Y79.400 E7.85434
G1 X88.138 Y80.263 E7.92368
G1 X86.138 Y80.938 E7.99415
G1 X84.050 Y81.438 E8.06550
G1 X81.475 Y81.763 E8.15195
G1 X79.300 Y81.813 E8.22418
G1 X77.138 Y81.650 E8.29630
G1 X75.013 Y81.288 E8.36795
G1 X72.963 Y80.725 E8.43888
G1 X71.775 Y80.300 E8.48082
G1 X70.238 Y79.650 E8.53618
G1 X68.788 Y78.888 E8.59058
G1 X67.375 Y78.013 E8.64604
G1 X30.700 Y78.013 E9.86559
G1 X29.875 Y77.875 E9.89335
G1 X29.075 Y77.588 E9.92172
G1 X28.350 Y77.138 E9.95027
G1 X27.725 Y76.563 E9.97847
G1 X27.238 Y75.900 E10.00577
G1 X26.888 Y75.150 E10.03307
G1 X26.675 Y74.338 E10.06127
G1 X26.625 Y73.475 E10.08990
G1 X26.750 Y72.638 E10.11816
G1 X27.150 Y71.600 E10.15494
G1 X28.488 Y69.613 E10.23495
G1 X30.100 Y70.000 E10.29002
G1 X30.350 Y70.188 E10.30039
G1 X31.000 Y71.013 E10.33535
G1 X31.025 Y71.225 E10.34269
G1 X30.263 Y72.700 E10.39789
G1 X30.238 Y73.000 E10.40791
G1 X30.325 Y73.300 E10.41820
G1 X30.625 Y73.613 E10.43286
G1 X33.675 Y74.263 E10.53640
G1 X33.975 Y74.238 E10.54643
G1 X34.263 Y74.075 E10.55741
G1 X35.088 Y72.600 E10.61379
G1 X35.175 Y72.125 E10.62964
G1 X35.138 Y69.713 E10.70995
G1 X35.038 Y69.363 E10.72223
G1 X33.875 Y67.525 E10.79458
G1 X33.550 Y67.250 E10.80866
G1 X31.200 Y66.313 E10.89289
G1 X31.588 Y65.625 E10.91915
G1 X32.175 Y64.938 E10.94933
G1 X32.900 Y64.375 E10.97976
G1 X33.713 Y63.975 E11.01003
G1 X34.138 Y63.850 E11.02456
G1 X40.438 Y62.713 E11.23772
G1 X40.538 Y62.600 E11.24272
G1 X40.675 Y62.688 E11.24847
G1 X34.725 Y74.063 E11.67531
G1 X34.775 Y74.550 E11.69163
G1 X35.100 Y74.913 E11.70778
G1 X35.463 Y75.013 E11.72030
G1 X66.663 Y74.838 E12.75816
G1 X67.225 Y74.613 E12.77861
G1 X67.538 Y74.300 E12.79306
G1 X67.725 Y73.938 E12.80660
G1 X67.788 Y73.538 E12.82015
G1 X67.725 Y73.113 E12.83433
G1 X67.525 Y72.738 E12.84851
G1 X67.250 Y72.450 E12.86157
G1 X62.375 Y68.925 E13.06170
G1 X52.288 Y56.250 E13.60052
G1 X52.363 Y55.750
G1 F1800.000 E9.10052
G92 E0
G1 X48.900 Y56.313 F3600.000
G1 F1800.000 E4.50000
G1 X45.100 Y56.413 F900.000 E4.62631
G1 X44.488 Y56.550 E4.64725
G1 X43.900 Y56.800 E4.66864
G1 X43.100 Y57.363 E4.70126
G1 X42.038 Y59.300 E4.77481
G1 X41.738 Y59.213 E4.78522
G1 X41.950 Y56.950 E4.86066
G1 X42.100 Y56.563 E4.87465
G1 X42.350 Y56.200 E4.88913
G1 X47.263 Y51.588 E5.11357
G1 X61.650 Y45.200 E5.63698
G1 X62.750 Y43.850 E5.69490
G1 X63.575 Y42.975 E5.73471
G1 X64.750 Y41.863 E5.78884
G1 X66.375 Y40.575 E5.85772
G1 X68.138 Y39.425 E5.92751
G1 X70.013 Y38.450 E5.99801
G1 X71.988 Y37.638 E6.06890
G1 X74.025 Y37.038 E6.13986
G1 X76.113 Y36.625 E6.21056
G1 X78.213 Y36.413 E6.28076
G1 X79.888 Y36.400 E6.33613
G1 X81.525 Y36.500 E6.39079
G1 X83.525 Y36.788 E6.45797
G1 X85.600 Y37.325 E6.52945
G1 X85.888 Y37.513 E6.54073
G1 X86.100 Y37.800 E6.55267
G1 X86.213 Y38.113 E6.56387
G1 X86.213 Y38.550 E6.57825
G1 X86.088 Y38.863 E6.58961
G1 X85.863 Y39.138 E6.60154
G1 X85.538 Y39.338 E6.61408
G1 X49.663 Y53.150 E7.89280
G1 X49.113 Y53.613 E7.91657
G1 X48.738 Y54.225 E7.94060
G1 X48.550 Y55.050 E7.96867
G1 X48.675 Y55.888 E7.99675
G1 X48.813 Y56.125 E8.00602
G1 X49.063 Y55.750
G1 X49.338 Y56.275 E8.02583
G1 X49.788 Y56.675 E8.04567
G1 X45.150 Y56.813 E8.19971
G1 X44.613 Y56.938 E8.21822
G1 X44.088 Y57.150 E8.23698
G1 X43.400 Y57.638 E8.26504
G1 X41.263 Y61.588 E8.41446
G1 X41.113 Y61.538 E8.41972
G1 X41.563 Y56.863 E8.57604
G1 X41.738 Y56.375 E8.59344
G1 X42.038 Y55.938 E8.61102
G1 X47.038 Y51.250 E8.83911
G1 X61.400 Y44.875 E9.36164
G1 X62.450 Y43.588 E9.41683
G1 X63.288 Y42.700 E9.45748
G1 X64.488 Y41.563 E9.51259
G1 X66.138 Y40.250 E9.58265
G1 X67.938 Y39.088 E9.65370
G1 X69.838 Y38.088 E9.72548
G1 X71.850 Y37.263 E9.79765
G1 X73.938 Y36.650 E9.86989
G1 X76.063 Y36.225 E9.94187
G1 X78.200 Y36.013 E10.01328
G1 X79.888 Y36.000 E10.06972
G1 X81.563 Y36.100 E10.12543
G1 X83.600 Y36.400 E10.19385
G1 X85.775 Y36.950 E10.26831
G1 X86.163 Y37.213 E10.28404
G1 X86.463 Y37.600 E10.30032
G1 X86.613 Y38.050 E10.31603
G1 X86.613 Y38.625 E10.33511
G1 X86.438 Y39.063 E10.35101
G1 X86.125 Y39.450 E10.36725
G1 X85.725 Y39.700 E10.38324
G1 X49.863 Y53.500 E11.66100
G1 X49.425 Y53.875 E11.68046
G1 X49.113 Y54.375 E11.70013
G1 X48.950 Y55.063 E11.72343
G1 X49.025 Y55.563 E11.74007
G1 X48.688 Y56.225
G1 F1800.000 E7.24007
G92 E0
G1 X41.150 Y61.888 F3600.000
G1 F1800.000 E4.50000
G1 X41.150 Y62.425 F900.000 E4.51789
G1 X40.700 Y62.425 E4.53276
G1 X40.700 Y61.888 E4.55065
G1 X40.950 Y61.888 E4.55886
; perimeter_end
; infill_start
G1 X41.388 Y60.888 F3600.000
G1 X41.800 Y59.513 F600.000 E4.59835
G1 X41.688 Y59.600
