; filename = 1.3w
; print_time = 1841
; machine = dv1NW0A000
; facets = 5018
; total_layers = 39
; version = 20100610
; total_filament = 974.40
; nozzle_diameter = 0.40
; nozzle_type = 57
; first_layer_height = 0.35
; layer_height = 0.20
; avoid_crossing_perimeters = 0
; bridge_detect = 0
; bridge_flow_ratio = 0.90
; support_material = 0
; extruder_filament = 974.40:0.00
; extruder = 1
; temperature = 210
; bed_temperature = 0
; non_double_speed = 1
; preheating_time = 0,0,0
; filamentid = 50,50
; materialid = 0
; fill_density = 0.10
; infill_expand = 0.000
; raft_layers = 0
; shells = 2
; speed = 20.000
; brim_width = 0.000
; dimension = 55.04:52.58:7.95
; original_dimension = 55.04:52.58:7.94
; boundingbox_x1 = 32.48
; boundingbox_y1 = 33.71
; boundingbox_x2 = 87.52
; boundingbox_y2 = 86.29
; resolution = 0.0400
; top_solid_layers = 5
; bottom_solid_layers = 3
; fill_pattern = rectilinear
; perimeter_speed = 15.000
; external_perimeter_speed = 15.000
; small_perimeter_speed = 15.000
; top_solid_infill_speed = 20.000
; solid_infill_speed = 20.000
; bridge_speed = 10.000
; travel_speed = 60.000
; retract_speed = 30
; retract_length = 4.500
; retract_before_travel = 2.000
; retract_lift = 0.000
; retract_restart_extra = 0.000
; retract_layer_change = 1
; only_retract_when_crossing_perimeters = 1
; first_layer_speed = 10.000
; extrusion_multiplier_perimeter = 1.000
; extrusion_multiplier_infill = 1.000
; extrusion_multiplier_gapfill = 1.000
; extrusion_multiplier_solid_infill = 1.000
; extrusion_multiplier_top_infill = 1.000
; Call_From_APP = XYZprint V2.0.5_2A14512
; speed_limit_open = 0

; infill_type = 0
; Seam_Corner_Preference = 0
G21 ; set units to millimeters
M107
M104 S210 ; set temperature
M109 S210 ; wait for temperature to be reached
M191
G90 ; use absolute coordinates
G92 E0
M82 ; use absolute distances for extrusion
G1 F1800.000 E-4.50000
G92 E0
; Layer: 1 Time: 127
G1 Z0.350 F3600.000
; skirt start
G1 X3.000 Y1.000
G1 F1800.000 E4.50000
G1 X5.000 Y1.000 F600.000 E4.96245
G1 X5.000 Y101.000 E28.08519
G1 X3.000 Y101.000 E28.54765
G1 X3.000 Y1.788 E51.48667
; skirt end
; Region: 0
; perimeter_start
G1 F1800.000 E46.98667
G92 E0
G1 X85.350 Y65.788 F3600.000
G1 F1800.000 E4.50000
G1 X85.325 Y81.688 F600.000 E5.97115
G1 X85.100 Y82.500 E6.04912
G1 X84.625 Y83.213 E6.12780
G1 X84.163 Y83.613 E6.18465
G1 X83.513 Y83.950 E6.25213
G1 X82.913 Y84.100 E6.30917
G1 X50.188 Y84.125 E9.33623
G1 X49.738 Y84.063 E9.37829
G1 X49.238 Y83.850 E9.42822
G1 X48.925 Y83.588 E9.46625
G1 X48.563 Y83.075 E9.52343
G1 X48.413 Y82.488 E9.58027
G1 X48.400 Y75.513 E10.22549
G1 X50.163 Y74.188 E10.42884
G1 X51.838 Y73.025 E10.61817
G1 X53.575 Y71.938 E10.80751
G1 X55.350 Y70.925 E10.99684
G1 X57.175 Y69.988 E11.18617
G1 X59.038 Y69.138 E11.37550
G1 X60.925 Y68.363 E11.56483
G1 X62.863 Y67.663 E11.75416
G1 X64.813 Y67.063 E11.94348
G1 X66.688 Y66.563 E12.12331
G1 X68.788 Y66.100 E12.32210
G1 X70.813 Y65.750 E12.51145
G1 X72.838 Y65.488 E12.70078
G1 X74.875 Y65.300 E12.89010
G1 X76.925 Y65.213 E13.07943
G1 X78.963 Y65.225 E13.26875
G1 X81.013 Y65.313 E13.45807
G1 X83.050 Y65.488 E13.64740
G1 X85.038 Y65.750 E13.83253
G1 X86.625 Y65.838
G1 X86.025 Y81.575 F3600.000
G1 X86.550 Y81.650 F600.000 E13.88152
G1 X86.550 Y83.925 E14.09236
G1 X86.488 Y84.250 E14.12302
G1 X86.313 Y84.625 E14.16164
G1 X86.113 Y84.875 E14.19032
G1 X85.788 Y85.113 E14.22795
G1 X85.425 Y85.275 E14.26460
G1 X84.975 Y85.325 E14.30707
G1 X82.825 Y85.325 E14.50560
G1 X82.763 Y84.788 E14.55563
G1 X83.738 Y84.550 E14.64904
G1 X84.525 Y84.150 E14.73071
G1 X85.113 Y83.638 E14.80240
G1 X85.675 Y82.775 E14.89786
G1 X85.938 Y81.875 E14.98423
G1 F1800.000 E10.48423
G92 E0
G1 X50.100 Y84.750 F3600.000
G1 F1800.000 E4.50000
G1 X50.063 Y85.325 F600.000 E4.55287
G1 X36.800 Y85.313 E5.78003
G1 X36.463 Y85.138 E5.81540
G1 X36.350 Y84.738 E5.85310
G1 X36.513 Y84.400 E5.88798
G1 X41.350 Y79.563 E6.52102
G1 X41.825 Y80.638 E6.63034
G1 X42.275 Y81.150 E6.69312
G1 X42.788 Y81.525 E6.75279
G1 X43.388 Y81.788 E6.81361
G1 X44.263 Y81.925 E6.89508
G1 X45.125 Y81.788 E6.97607
G1 X45.750 Y81.513 E7.03874
G1 X46.425 Y80.975 E7.11873
G1 X46.875 Y80.338 E7.19083
G1 X47.150 Y79.588 E7.26514
G1 X47.163 Y78.375 E7.37663
G1 X47.775 Y78.388 E7.43258
G1 X47.775 Y82.575 E7.82003
G1 X47.988 Y83.350 E7.89495
G1 X48.450 Y84.025 E7.97088
G1 X48.913 Y84.388 E8.02505
G1 X49.563 Y84.675 E8.09112
G1 X49.788 Y84.713 E8.11161
G1 X45.950 Y80.538 F3600.000
G1 X46.300 Y80.038 F600.000 E8.16758
G1 X46.513 Y79.463 E8.22429
G1 X46.575 Y75.400 E8.60088
G1 X46.725 Y74.850 E8.65249
G1 X47.000 Y74.375 E8.70384
G1 X47.400 Y73.963 E8.75678
G1 X49.075 Y72.688 E8.95189
G1 X50.825 Y71.488 E9.14857
G1 X52.625 Y70.350 E9.34525
G1 X54.475 Y69.300 E9.54193
G1 X56.375 Y68.325 E9.73861
G1 X58.300 Y67.438 E9.93528
G1 X60.275 Y66.638 E10.13196
G1 X62.275 Y65.913 E10.32864
G1 X64.300 Y65.288 E10.52531
G1 X66.363 Y64.738 E10.72198
G1 X68.438 Y64.288 E10.91865
G1 X70.525 Y63.925 E11.11533
G1 X72.638 Y63.650 E11.31200
G1 X74.750 Y63.463 E11.50867
G1 X76.875 Y63.375 E11.70534
G1 X79.013 Y63.375 E11.90201
G1 X81.125 Y63.463 E12.09868
G1 X83.250 Y63.650 E12.29535
G1 X85.363 Y63.925 E12.49202
G1 X87.200 Y64.250 E12.66461
G1 X87.188 Y83.988 E14.49033
G1 X87.100 Y84.450 E14.53384
G1 X86.850 Y84.963 E14.58664
G1 X86.563 Y85.325 E14.62949
G1 X86.113 Y85.675 E14.68196
G1 X85.588 Y85.888 E14.73409
G1 X85.013 Y85.963 E14.78816
G1 X36.713 Y85.950 E19.25578
G1 X36.150 Y85.725 E19.31167
G1 X35.938 Y85.513 E19.33920
G1 X35.750 Y85.150 E19.37696
G1 X35.700 Y84.688 E19.41965
G1 X35.813 Y84.300 E19.45684
G1 X36.013 Y83.988 E19.49122
G1 X41.888 Y78.113 E20.25952
G1 X42.088 Y78.225 E20.28045
G1 X41.950 Y78.875 E20.34166
G1 X42.013 Y79.488 E20.39863
G1 X42.363 Y80.288 E20.48002
G1 X42.700 Y80.675 E20.52732
G1 X43.113 Y80.975 E20.57411
G1 X43.575 Y81.175 E20.62075
G1 X44.263 Y81.288 E20.68538
G1 X44.950 Y81.175 E20.74959
G1 X45.413 Y80.975 E20.79685
G1 X45.713 Y80.738 E20.83134
G1 X46.550 Y80.650
G1 F1800.000 E16.33134
G92 E0
G1 X72.225 Y40.963 F3600.000
G1 F1800.000 E4.50000
G1 X72.213 Y37.488 F600.000 E4.82066
G1 X72.013 Y36.638 E4.90252
G1 X71.450 Y35.863 E4.99030
G1 X70.713 Y35.400 E5.07019
G1 X69.825 Y35.200 E5.15452
G1 X69.888 Y34.663 E5.20512
G1 X83.175 Y34.675 E6.43372
G1 X83.475 Y34.800 E6.46425
G1 X83.613 Y35.000 E6.48647
G1 X83.663 Y35.175 E6.50357
G1 X83.575 Y35.450 E6.53000
G1 X83.450 Y35.625 E6.54925
G1 X78.675 Y40.413 E7.17502
G1 X78.213 Y39.425 E7.27507
G1 X77.725 Y38.838 E7.34625
G1 X77.100 Y38.413 E7.41585
G1 X76.600 Y38.200 E7.46670
G1 X75.863 Y38.063 E7.53583
G1 X75.088 Y38.138 E7.60695
G1 X74.363 Y38.400 E7.67905
G1 X73.675 Y38.913 E7.75810
G1 X73.300 Y39.350 E7.81135
G1 X72.913 Y40.125 E7.89139
G1 X72.788 Y41.000 E7.97360
G1 X72.538 Y40.988 E7.99649
G1 F1800.000 E3.49649
G92 E0
G1 X37.113 Y35.238 F3600.000
G1 F1800.000 E4.50000
G1 X36.400 Y35.388 F600.000 E4.56762
G1 X35.713 Y35.688 E4.63742
G1 X35.113 Y36.125 E4.70611
G1 X34.613 Y36.688 E4.77533
G1 X34.238 Y37.375 E4.84752
G1 X33.988 Y38.513 E4.95486
G1 X33.450 Y38.450 E5.00548
G1 X33.450 Y36.000 E5.23229
G1 X33.588 Y35.538 E5.27696
G1 X33.788 Y35.213 E5.31264
G1 X34.088 Y34.938 E5.35027
G1 X34.663 Y34.700 E5.40734
G1 X37.063 Y34.688 E5.62942
G1 X37.088 Y34.925 E5.65121
G1 X37.188 Y35.875
G1 X36.588 Y36.000 E5.70728
G1 X36.025 Y36.238 E5.76417
G1 X35.538 Y36.600 E5.82003
G1 X35.138 Y37.063 E5.87640
G1 X34.838 Y37.600 E5.93376
G1 X34.638 Y38.525 E6.02084
G1 X34.638 Y54.200 E7.47113
G1 X37.038 Y54.513 E7.69511
G1 X38.975 Y54.675 E7.87493
G1 X41.025 Y54.763 E8.06426
G1 X43.063 Y54.775 E8.25358
G1 X45.113 Y54.688 E8.44290
G1 X47.150 Y54.500 E8.63223
G1 X49.175 Y54.238 E8.82155
G1 X51.200 Y53.888 E9.01091
G1 X53.300 Y53.425 E9.20970
G1 X55.175 Y52.925 E9.38952
G1 X57.125 Y52.325 E9.57885
G1 X59.063 Y51.625 E9.76818
G1 X60.950 Y50.850 E9.95751
G1 X62.813 Y50.000 E10.14687
G1 X64.725 Y49.013 E10.34566
G1 X66.413 Y48.050 E10.52549
G1 X68.150 Y46.963 E10.71483
G1 X69.825 Y45.800 E10.90416
G1 X71.588 Y44.475 E11.10750
G1 X71.588 Y37.563 E11.74639
G1 X71.425 Y36.900 E11.80948
G1 X71.000 Y36.338 E11.87454
G1 X70.475 Y36.000 E11.93304
G1 X69.875 Y35.863 E11.98923
G1 X62.788 Y35.863 E12.64471
G1 X62.788 Y34.025 E12.81531
G1 X83.263 Y34.038 E14.70920
G1 X83.663 Y34.150 E14.74693
G1 X83.938 Y34.350 E14.77820
G1 X84.200 Y34.725 E14.82076
G1 X84.288 Y35.063 E14.85300
G1 X84.288 Y35.300 E14.87418
G1 X84.150 Y35.738 E14.91740
G1 X83.938 Y36.038 E14.95123
G1 X78.088 Y41.900 E15.71699
G1 X77.875 Y41.763 E15.73937
G1 X78.000 Y41.413 E15.77396
G1 X78.038 Y40.900 E15.82090
G1 X77.925 Y40.313 E15.87620
G1 X77.675 Y39.775 E15.93185
G1 X77.288 Y39.313 E15.98751
G1 X76.800 Y38.963 E16.04291
G1 X76.413 Y38.813 E16.08091
G1 X75.825 Y38.713 E16.13589
G1 X75.225 Y38.763 E16.19153
G1 X74.663 Y38.963 E16.24750
G1 X74.113 Y39.375 E16.31106
G1 X73.838 Y39.700 E16.35014
G1 X73.525 Y40.313 E16.41404
G1 X73.425 Y40.988 E16.47656
G1 X73.413 Y44.600 E16.81046
G1 X73.263 Y45.138 E16.86190
G1 X72.988 Y45.613 E16.91325
G1 X72.588 Y46.025 E16.96619
G1 X70.913 Y47.300 E17.16129
G1 X69.163 Y48.500 E17.35798
G1 X67.363 Y49.638 E17.55466
G1 X65.513 Y50.688 E17.75134
G1 X63.613 Y51.663 E17.94802
G1 X61.688 Y52.550 E18.14469
G1 X59.713 Y53.350 E18.34137
G1 X57.713 Y54.075 E18.53804
G1 X55.688 Y54.700 E18.73472
G1 X53.625 Y55.250 E18.93139
G1 X51.550 Y55.700 E19.12806
G1 X49.463 Y56.063 E19.32474
G1 X47.350 Y56.338 E19.52141
G1 X45.238 Y56.525 E19.71808
G1 X43.113 Y56.613 E19.91475
G1 X40.975 Y56.613 E20.11142
G1 X38.863 Y56.525 E20.30809
G1 X36.738 Y56.338 E20.50476
G1 X34.625 Y56.063 E20.70143
G1 X32.788 Y55.738 E20.87401
G1 X32.813 Y35.900 E22.70837
G1 X33.000 Y35.263 E22.76978
G1 X33.300 Y34.800 E22.82160
G1 X33.713 Y34.413 E22.87406
G1 X34.125 Y34.188 E22.91724
G1 X34.563 Y34.063 E22.95978
G1 X57.200 Y34.025 E25.05265
G1 X57.200 Y35.863 E25.22322
G1 X37.500 Y35.875 E27.04462
G1 X36.813 Y35.400
G1 X62.475 Y34.975 F3600.000
G1 X57.863 Y34.975 F600.000 E27.47095
G1 F1800.000 E22.97095
G92 E0
G1 X77.900 Y41.963 F3600.000
G1 F1800.000 E4.50000
G1 X42.188 Y77.825 F600.000 E9.18130
G1 X42.388 Y78.300 E9.22894
; perimeter_end
; infill_start
G1 F1800.000 E4.72894
G92 E0
G1 X37.675 Y35.138 F3600.000
G1 F1800.000 E4.50000
G1 X37.863 Y34.950 F600.000 E4.54245
G1 X56.313 Y34.888 E7.50308
G1 X56.763 Y34.538 E7.59412
G1 X56.488 Y35.025
G1 X56.313 Y34.888 E7.62655
G1 F1800.000 E3.12655
G92 E0
G1 X63.438 Y34.563 F3600.000
G1 F1800.000 E4.50000
G1 X63.788 Y34.950 F600.000 E4.57858
G1 X68.938 Y34.950 E5.37537
G1 X69.275 Y35.438 E5.46647
G1 X68.938 Y34.950
G1 X69.200 Y34.725 E5.51095
G1 X73.688 Y38.325 F3600.000
G1 X72.638 Y37.288 F600.000 E5.65274
G1 X72.675 Y38.263 E5.74672
G1 X73.188 Y38.763 E5.81580
G1 X72.675 Y39.200 E5.87989
G1 X72.800 Y39.325 E5.89643
G1 X74.250 Y37.950 F3600.000
G1 X71.413 Y35.125 F600.000 E6.28217
G1 X72.350 Y35.125 E6.37257
G1 X74.938 Y37.700 E6.72413
G1 X75.775 Y37.613 E6.80622
G1 X73.288 Y35.125 E7.14536
G1 X74.225 Y35.125 E7.23576
G1 X76.950 Y37.850 E7.60667
G1 X79.238 Y39.188 F3600.000
G1 X75.163 Y35.125 F600.000 E8.16122
G1 X76.100 Y35.125 E8.25162
G1 X79.700 Y38.725 E8.74217
G1 X80.175 Y38.250 E8.80606
G1 X77.038 Y35.125 E9.23260
G1 X77.975 Y35.125 E9.32300
G1 X80.638 Y37.788 E9.68555
G1 X81.113 Y37.313 E9.74944
G1 X78.913 Y35.125 E10.04798
G1 X79.850 Y35.125 E10.13839
G1 X81.575 Y36.850 E10.37293
G1 X82.038 Y36.375 E10.43682
G1 X80.788 Y35.125 E10.60736
G1 X81.725 Y35.125 E10.69776
G1 X82.513 Y35.913 E10.80431
G1 X82.975 Y35.438 E10.86819
G1 X82.663 Y35.125 E10.91073
G1 F1800.000 E6.41073
G92 E0
G1 X72.075 Y41.400 F3600.000
G1 F1800.000 E4.50000
G1 X72.500 Y41.900 F600.000 E4.60541
G1 X72.500 Y44.388 E5.00314
G1 X72.238 Y45.113 E5.12595
G1 X69.763 Y46.975 E5.61976
G1 X66.775 Y48.913 E6.18910
G1 X63.338 Y50.763 E6.81081
G1 X60.638 Y51.988 E7.28389
G1 X55.300 Y53.850 E8.18582
G1 X49.763 Y55.088 E9.09190
G1 X44.438 Y55.638 E9.94580
G1 X38.788 Y55.588 E10.84786
G1 X34.913 Y55.175 E11.46965
G1 X33.775 Y54.900 E11.65553
G1 X33.725 Y39.400 E14.12933
G1 X33.275 Y38.863 E14.24147
G1 X33.775 Y37.213 F3600.000
G1 X33.925 Y37.088 F600.000 E14.25538
G1 X34.113 Y36.213 E14.31963
G1 X34.525 Y35.600 E14.37138
G1 X36.213 Y35.025 E14.49811
G1 F1800.000 E9.99811
G92 E0
G1 X72.500 Y41.900 F3600.000
G1 F1800.000 E4.50000
G1 X72.663 Y41.775 F600.000 E4.52890
G1 F1800.000 E0.02890
G92 E0
G1 X47.475 Y77.450 F3600.000
G1 F1800.000 E4.50000
G1 X47.600 Y77.563 F600.000 E4.52563
G1 X47.088 Y77.800
G1 X47.475 Y77.450 E4.61118
G1 X47.525 Y75.225 E4.97028
G1 X47.938 Y74.700 E5.07805
G1 X52.988 Y71.213 E6.06983
G1 X57.988 Y68.588 E6.98416
G1 X62.138 Y66.938 E7.70769
G1 X66.438 Y65.663 E8.43134
G1 X71.400 Y64.725 E9.24833
G1 X76.750 Y64.300 E10.11825
G1 X81.800 Y64.438 E10.93525
G1 X85.363 Y64.850 E11.51405
G1 X86.213 Y65.088 E11.65658
G1 X86.263 Y80.675 E14.17834
G1 X86.738 Y81.263 E14.30068
G1 F1800.000 E9.80068
G92 E0
G1 X47.188 Y80.700 F3600.000
G1 F1800.000 E4.50000
G1 X47.313 Y80.825 F600.000 E4.51762
G1 X46.800 Y81.250 E4.58160
G1 X47.313 Y81.763 E4.65176
G1 X47.338 Y82.725 E4.74421
G1 X46.288 Y81.675 E4.88680
G1 X45.713 Y82.038
G1 X48.538 Y84.863 E5.27119
G1 X47.600 Y84.863 E5.36124
G1 X45.013 Y82.275 E5.71310
G1 X44.188 Y82.375 E5.79355
G1 X46.663 Y84.863 E6.13091
G1 X45.738 Y84.863 E6.22096
G1 X43.000 Y82.125 E6.59358
G1 X40.750 Y80.813 F3600.000
G1 X44.800 Y84.863 F600.000 E7.14497
G1 X43.863 Y84.863 E7.23502
G1 X40.275 Y81.275 E7.72270
G1 X39.813 Y81.738 E7.78636
G1 X42.925 Y84.863 E8.21033
G1 X41.988 Y84.863 E8.30038
G1 X39.338 Y82.213 E8.66064
G1 X38.875 Y82.675 E8.72430
G1 X41.050 Y84.863 E9.02085
G1 X40.113 Y84.863 E9.11090
G1 X38.413 Y83.150 E9.34374
G1 X37.938 Y83.613 E9.40740
G1 X39.188 Y84.863 E9.57653
G1 X38.250 Y84.863 E9.66658
G1 X37.475 Y84.088 E9.77200
G1 X37.000 Y84.550 E9.83566
G1 X37.313 Y84.863 E9.87736
G1 X47.263 Y80.575 F3600.000
G1 X47.313 Y80.625 F600.000 E9.88780
G1 F1800.000 E5.38780
G92 E0
G1 X50.600 Y85.000 F3600.000
G1 F1800.000 E4.50000
G1 X81.675 Y85.038 F600.000 E9.59857
G1 X81.863 Y85.038 E9.62958
G1 X82.288 Y84.475 E9.74514
G1 X81.863 Y85.038
G1 X82.150 Y85.275 E9.79433
G1 X83.725 Y84.975 F3600.000
G1 X84.775 Y84.725 F600.000 E9.87725
G1 X85.625 Y84.225 E9.95295
G1 X86.163 Y82.475 E10.09360
G1 X86.000 Y80.875 F3600.000
G1 X86.263 Y80.675 F600.000 E10.13591
G1 F1800.000 E5.63591
G92 E0
G1 X50.988 Y85.050 F3600.000
G1 F1800.000 E4.50000
G1 X50.788 Y85.225 F600.000 E4.53645
; infill_end
G1 F1800.000 E0.03645
G92 E0
; Layer: 2 Time: 112
G1 Z0.550 F3600.000
; Region: 0
; perimeter_start
G1 X50.175 Y84.400
G1 F1800.000 E4.50000
G1 X49.663 Y84.338 F540.000 E4.50854
G1 X49.213 Y84.138 E4.51663
G1 X49.088 Y84.088 E4.52143
G1 X48.600 Y83.663 E4.54263
G1 X48.488 Y83.475 E4.54989
G1 X48.275 Y83.113 F600.000 E4.56383
G1 X48.138 Y82.550 E4.58315
G1 X48.125 Y82.513 F660.000 E4.58435
G1 X48.125 Y81.550 E4.61641
G1 X48.125 Y80.550 F720.000 E4.64967
G1 X48.125 Y79.550 F780.000 E4.68293
G1 X48.125 Y78.550 F840.000 E4.71619
G1 X48.125 Y75.375 F900.000 E4.82206
G1 X49.988 Y73.963 E4.90007
G1 X51.688 Y72.788 E4.96856
G1 X53.425 Y71.688 E5.03705
G1 X55.225 Y70.675 E5.10554
G1 X57.050 Y69.738 E5.17403
G1 X58.925 Y68.875 E5.24252
G1 X60.825 Y68.088 E5.31101
G1 X62.763 Y67.400 E5.37950
G1 X64.738 Y66.788 E5.44798
G1 X66.725 Y66.263 E5.51647
G1 X68.738 Y65.825 E5.58496
G1 X70.763 Y65.463 E5.65345
G1 X72.813 Y65.200 E5.72193
G1 X74.863 Y65.025 E5.79042
G1 X76.913 Y64.938 E5.85891
G1 X78.975 Y64.938 E5.92739
G1 X81.038 Y65.025 E5.99588
G1 X83.088 Y65.200 E6.06437
G1 X85.638 Y65.538 E6.14997
G1 X85.613 Y81.713 E6.68790
G1 X85.500 Y82.250 E6.70636
G1 X85.088 Y83.088 E6.73697
G1 X84.638 Y83.600 E6.75978
G1 X84.100 Y84.000 E6.78211
G1 X83.488 Y84.263 E6.80444
G1 X82.825 Y84.400 E6.82654
G1 X57.375 Y84.400 E7.67334
G1 X56.375 Y84.400 F840.000 E7.70660
G1 X55.375 Y84.400 F780.000 E7.73986
G1 X54.375 Y84.400 F720.000 E7.77312
G1 X53.375 Y84.400 F660.000 E7.80638
G1 X52.375 Y84.400 F600.000 E7.83964
G1 X51.375 Y84.400 F540.000 E7.87290
G1 X50.375 Y84.400 E7.88953
G1 X50.200 Y84.000
G1 X49.775 Y83.950 F900.000 E7.90384
G1 X49.300 Y83.738 E7.92087
G1 X48.913 Y83.400 E7.93797
G1 X48.650 Y82.963 E7.95508
G1 X48.525 Y82.475 E7.97196
G1 X48.525 Y75.575 E8.20144
G1 X50.225 Y74.288 E8.27253
G1 X51.913 Y73.125 E8.34045
G1 X53.638 Y72.038 E8.40836
G1 X55.413 Y71.025 E8.47628
G1 X57.225 Y70.088 E8.54420
G1 X59.088 Y69.238 E8.61211
G1 X60.975 Y68.463 E8.68002
G1 X62.900 Y67.775 E8.74794
G1 X64.850 Y67.175 E8.81585
G1 X66.813 Y66.650 E8.88377
G1 X68.813 Y66.213 E8.95168
G1 X70.825 Y65.863 E9.01959
G1 X72.850 Y65.600 E9.08750
G1 X74.888 Y65.425 E9.15542
G1 X76.925 Y65.338 E9.22333
G1 X78.963 Y65.338 E9.29124
G1 X81.000 Y65.425 E9.35915
G1 X83.038 Y65.600 E9.42707
G1 X85.238 Y65.888 E9.50068
G1 X85.213 Y81.675 E10.02549
G1 X85.113 Y82.125 E10.04092
G1 X84.750 Y82.863 E10.06816
G1 X84.363 Y83.300 E10.08774
G1 X83.900 Y83.650 E10.10715
G1 X83.363 Y83.875 E10.12657
G1 X82.788 Y84.000 E10.14591
G1 X50.400 Y84.000 E11.22335
G1 X49.950 Y84.350
G1 X46.000 Y80.888 F3600.000
G1 X46.438 Y80.363 F900.000 E11.24605
G1 X46.725 Y79.763 E11.26809
G1 X46.825 Y79.300 E11.28386
G1 X46.863 Y75.425 E11.41271
G1 X46.988 Y74.963 E11.42885
G1 X47.225 Y74.538 E11.44488
G1 X47.588 Y74.175 E11.46199
G1 X49.238 Y72.925 E11.53124
G1 X50.988 Y71.725 E11.60157
G1 X52.775 Y70.600 E11.67189
G1 X54.613 Y69.550 E11.74221
G1 X56.488 Y68.588 E11.81253
G1 X58.413 Y67.700 E11.88285
G1 X60.375 Y66.900 E11.95317
G1 X62.363 Y66.188 E12.02349
G1 X64.375 Y65.550 E12.09381
G1 X66.425 Y65.013 E12.16413
G1 X68.488 Y64.563 E12.23445
G1 X70.575 Y64.200 E12.30477
G1 X72.663 Y63.925 E12.37509
G1 X74.775 Y63.750 E12.44541
G1 X76.888 Y63.663 E12.51573
G1 X79.000 Y63.663 E12.58604
G1 X81.113 Y63.750 E12.65636
G1 X83.213 Y63.938 E12.72668
G1 X86.913 Y64.488 E12.85094
G1 X86.900 Y83.963 E13.49866
G1 X86.825 Y84.363 E13.51228
G1 X86.613 Y84.813 E13.52863
G1 X86.363 Y85.125 E13.54216
G1 X85.975 Y85.425 E13.55863
G1 X85.525 Y85.613 E13.57490
G1 X85.000 Y85.688 E13.59249
G1 X36.750 Y85.675 E15.19722
G1 X36.325 Y85.500 E15.21241
G1 X36.025 Y85.063 E15.22981
G1 X35.988 Y84.713 E15.24166
G1 X36.063 Y84.425 E15.25160
G1 X36.238 Y84.175 E15.26162
G1 X41.663 Y78.750 E15.51682
G1 X41.750 Y79.638 E15.54680
G1 X42.013 Y80.263 E15.56928
G1 X42.363 Y80.738 E15.58868
G1 X42.950 Y81.213 E15.61401
G1 X43.488 Y81.450 E15.63363
G1 X44.250 Y81.563 E15.65896
G1 X44.813 Y81.500 E15.67814
G1 X45.363 Y81.313 E15.69732
G1 X45.838 Y81.000 E15.71622
G1 F1800.000 E11.21622
G92 E0
G1 X45.213 Y56.238 F3600.000
G1 F1800.000 E4.50000
G1 X43.100 Y56.325 F900.000 E4.57032
G1 X40.988 Y56.325 E4.64064
G1 X38.875 Y56.238 E4.71096
G1 X36.775 Y56.050 E4.78127
G1 X33.075 Y55.500 E4.90553
G1 X33.100 Y35.950 E5.55594
G1 X33.250 Y35.388 E5.57513
G1 X33.575 Y34.913 E5.59452
G1 X33.875 Y34.650 E5.60767
G1 X34.238 Y34.450 E5.62126
G1 X34.613 Y34.338 E5.63420
G1 X56.913 Y34.300 E6.37607
G1 X56.913 Y35.588 E6.41863
G1 X37.025 Y35.600 E7.07997
G1 X36.263 Y35.813 E7.10653
G1 X35.663 Y36.138 E7.12908
G1 X35.150 Y36.588 E7.15163
G1 X34.700 Y37.238 E7.17797
G1 X34.450 Y37.863 E7.20053
G1 X34.350 Y38.513 E7.22220
G1 X34.350 Y54.463 E7.75270
G1 X38.950 Y54.963 E7.90647
G1 X41.013 Y55.050 E7.97517
G1 X43.075 Y55.050 E8.04366
G1 X45.125 Y54.963 E8.11215
G1 X47.175 Y54.788 E8.18064
G1 X49.225 Y54.525 E8.24912
G1 X51.250 Y54.163 E8.31761
G1 X53.263 Y53.725 E8.38610
G1 X55.263 Y53.200 E8.45480
G1 X59.150 Y51.900 E8.59131
G1 X61.063 Y51.113 E8.66002
G1 X62.938 Y50.250 E8.72851
G1 X64.763 Y49.313 E8.79700
G1 X66.563 Y48.300 E8.86549
G1 X68.300 Y47.200 E8.93398
G1 X70.000 Y46.025 E9.00247
G1 X71.863 Y44.613 E9.08050
G1 X71.838 Y37.313 E9.32361
G1 X71.600 Y36.625 E9.34761
G1 X71.188 Y36.125 E9.36912
G1 X70.725 Y35.800 E9.38809
G1 X69.925 Y35.588 E9.41563
G1 X63.075 Y35.588 E9.64343
G1 X63.075 Y34.300 E9.68601
G1 X83.213 Y34.313 E10.35604
G1 X83.525 Y34.413 E10.36691
G1 X83.725 Y34.550 E10.37498
G1 X83.938 Y34.850 E10.38704
G1 X84.000 Y35.088 E10.39516
G1 X83.988 Y35.400 E10.40558
G1 X83.725 Y35.850 E10.42297
G1 X78.375 Y41.213 E10.67477
G1 X78.200 Y40.238 E10.70777
G1 X77.913 Y39.625 E10.73025
G1 X77.475 Y39.100 E10.75276
G1 X76.925 Y38.713 E10.77519
G1 X76.500 Y38.538 E10.79066
G1 X75.838 Y38.425 E10.81268
G1 X75.175 Y38.488 E10.83516
G1 X74.525 Y38.713 E10.85786
G1 X73.913 Y39.163 E10.88319
G1 X73.600 Y39.538 E10.89950
G1 X73.263 Y40.225 E10.92506
G1 X73.150 Y40.963 E10.94968
G1 X73.125 Y44.563 E11.06925
G1 X73.000 Y45.025 E11.08534
G1 X72.763 Y45.450 E11.10138
G1 X72.400 Y45.813 E11.11849
G1 X70.750 Y47.063 E11.18774
G1 X69.000 Y48.263 E11.25806
G1 X67.213 Y49.388 E11.32839
G1 X65.375 Y50.438 E11.39871
G1 X63.500 Y51.400 E11.46903
G1 X61.575 Y52.288 E11.53935
G1 X59.613 Y53.088 E11.60967
G1 X57.625 Y53.800 E11.67999
G1 X55.613 Y54.438 E11.75031
G1 X53.563 Y54.975 E11.82063
G1 X51.500 Y55.425 E11.89095
G1 X49.413 Y55.788 E11.96127
G1 X47.325 Y56.063 E12.03158
G1 X45.413 Y56.225 E12.09525
G1 X45.238 Y56.638
G1 X43.113 Y56.725 E12.16614
G1 X40.975 Y56.725 E12.23704
G1 X38.850 Y56.638 E12.30793
G1 X36.725 Y56.450 E12.37882
G1 X34.613 Y56.175 E12.44971
G1 X32.675 Y55.838 E12.51516
G1 X32.700 Y35.888 E13.17865
G1 X32.888 Y35.225 E13.20178
G1 X33.275 Y34.638 E13.22498
G1 X33.650 Y34.313 E13.24133
G1 X34.088 Y34.075 E13.25783
G1 X34.550 Y33.938 E13.27412
G1 X57.313 Y33.900 E14.03120
G1 X57.313 Y35.988 E14.10038
G1 X37.088 Y36.000 E14.77327
G1 X36.413 Y36.188 E14.79647
G1 X35.900 Y36.463 E14.81596
G1 X35.450 Y36.850 E14.83545
G1 X35.050 Y37.425 E14.85859
G1 X34.838 Y37.975 E14.87808
G1 X34.750 Y38.538 E14.89728
G1 X34.750 Y54.100 E15.41483
G1 X38.975 Y54.563 E15.55623
G1 X41.025 Y54.650 E15.62422
G1 X43.063 Y54.650 E15.69213
G1 X45.100 Y54.563 E15.76004
G1 X47.138 Y54.388 E15.82796
G1 X49.163 Y54.125 E15.89587
G1 X51.175 Y53.775 E15.96378
G1 X53.175 Y53.338 E16.03170
G1 X55.150 Y52.813 E16.09968
G1 X59.013 Y51.525 E16.23533
G1 X60.900 Y50.750 E16.30332
G1 X62.763 Y49.900 E16.37123
G1 X64.575 Y48.963 E16.43915
G1 X66.350 Y47.950 E16.50706
G1 X68.075 Y46.863 E16.57498
G1 X69.763 Y45.700 E16.64290
G1 X71.463 Y44.413 E16.71400
G1 X71.438 Y37.375 E16.94813
G1 X71.238 Y36.825 E16.96759
G1 X70.913 Y36.425 E16.98498
G1 X70.550 Y36.163 E16.99973
G1 X69.875 Y35.988 E17.02320
G1 X62.675 Y35.988 E17.26255
G1 X62.675 Y33.900 E17.33173
G1 X83.275 Y33.913 E18.01706
G1 X83.713 Y34.050 E18.03210
G1 X84.013 Y34.263 E18.04464
G1 X84.300 Y34.675 E18.06130
G1 X84.400 Y35.038 E18.07387
G1 X84.375 Y35.475 E18.08844
G1 X84.263 Y35.788 E18.09942
G1 X84.025 Y36.113 E18.11277
G1 X42.463 Y77.725 E20.06907
G1 X42.175 Y78.325 E20.09120
G1 X42.075 Y78.888 E20.10994
G1 X42.150 Y79.538 E20.13191
G1 X42.363 Y80.063 E20.15089
G1 X42.650 Y80.463 E20.16693
G1 X43.163 Y80.863 E20.18876
G1 X43.600 Y81.063 E20.20488
G1 X44.250 Y81.163 E20.22670
G1 X44.725 Y81.113 E20.24267
G1 X45.188 Y80.963 E20.25864
G1 X45.738 Y80.588 E20.28055
G1 X46.100 Y80.150 E20.29960
G1 X46.338 Y79.638 E20.31843
G1 X46.425 Y79.263 E20.33136
G1 X46.463 Y75.375 E20.46047
G1 X46.613 Y74.813 E20.47999
G1 X46.900 Y74.300 E20.49947
G1 X47.313 Y73.875 E20.51931
G1 X49.013 Y72.600 E20.58985
G1 X50.763 Y71.388 E20.66075
G1 X52.575 Y70.250 E20.73165
G1 X54.425 Y69.200 E20.80254
G1 X56.313 Y68.225 E20.87344
G1 X58.250 Y67.338 E20.94433
G1 X60.225 Y66.525 E21.01523
G1 X62.238 Y65.800 E21.08612
G1 X64.263 Y65.175 E21.15701
G1 X66.325 Y64.625 E21.22791
G1 X68.413 Y64.175 E21.29880
G1 X70.513 Y63.800 E21.36969
G1 X72.625 Y63.525 E21.44059
G1 X74.750 Y63.350 E21.51148
G1 X76.875 Y63.263 E21.58237
G1 X79.013 Y63.263 E21.65327
G1 X81.138 Y63.350 E21.72416
G1 X83.263 Y63.538 E21.79505
G1 X85.375 Y63.813 E21.86594
G1 X87.313 Y64.150 E21.93139
G1 X87.300 Y84.000 E22.59160
G1 X87.213 Y84.488 E22.60811
G1 X86.963 Y85.025 E22.62765
G1 X86.650 Y85.413 E22.64440
G1 X86.175 Y85.775 E22.66425
G1 X85.625 Y86.000 E22.68403
G1 X85.025 Y86.088 E22.70424
G1 X36.700 Y86.075 E24.31159
G1 X36.375 Y85.988 E24.32276
G1 X36.075 Y85.813 E24.33392
G1 X35.850 Y85.588 E24.34494
G1 X35.638 Y85.188 E24.35986
G1 X35.588 Y84.688 E24.37669
G1 X35.700 Y84.263 E24.39130
G1 X35.925 Y83.913 E24.40484
G1 X77.400 Y42.413 E26.35660
G1 X77.663 Y42.025 E26.37235
G1 X77.838 Y41.575 E26.38832
G1 X77.913 Y40.913 E26.41022
G1 X77.813 Y40.350 E26.42928
G1 X77.575 Y39.838 E26.44826
G1 X77.200 Y39.400 E26.46724
G1 X76.738 Y39.063 E26.48645
G1 X76.388 Y38.925 E26.49903
G1 X75.825 Y38.825 E26.51785
G1 X75.263 Y38.875 E26.53682
G1 X74.713 Y39.075 E26.55587
G1 X74.188 Y39.463 E26.57770
G1 X73.938 Y39.763 E26.59081
G1 X73.650 Y40.350 E26.61271
G1 X73.550 Y41.000 E26.63430
G1 X73.525 Y44.613 E26.75458
G1 X73.375 Y45.175 E26.77408
G1 X73.088 Y45.688 E26.79357
G1 X72.675 Y46.113 E26.81341
G1 X70.975 Y47.388 E26.88395
G1 X69.225 Y48.600 E26.95484
G1 X67.413 Y49.738 E27.02574
G1 X65.563 Y50.788 E27.09664
G1 X63.675 Y51.763 E27.16753
G1 X61.738 Y52.650 E27.23843
G1 X59.763 Y53.463 E27.30932
G1 X57.750 Y54.188 E27.38022
G1 X55.725 Y54.813 E27.45111
G1 X53.663 Y55.363 E27.52200
G1 X51.575 Y55.813 E27.59290
G1 X49.475 Y56.188 E27.66379
G1 X47.363 Y56.463 E27.73468
G1 X45.438 Y56.625 E27.79892
G1 X44.800 Y55.975
G1 F1800.000 E23.29892
G92 E0
G1 X62.475 Y34.975 F3600.000
G1 F1800.000 E4.50000
G1 X57.513 Y34.975 F900.000 E4.66493
; perimeter_end
; infill_start
G1 X56.613 Y35.275
G1 X56.600 Y35.288 F1200.000 E4.66572
G1 X56.613 Y34.663
G1 X55.988 Y35.288 E4.69777
G1 X55.375 Y35.288 E4.71987
G1 X56.063 Y34.600 E4.75482
G1 X55.450 Y34.600 E4.77694
G1 X54.763 Y35.288 E4.81187
G1 X54.150 Y35.288 E4.83397
G1 X54.838 Y34.600 E4.86888
G1 X54.225 Y34.600 E4.89099
G1 X53.538 Y35.288 E4.92589
G1 X52.925 Y35.288 E4.94799
G1 X53.600 Y34.613 E4.98286
G1 X52.988 Y34.613 E5.00498
G1 X52.313 Y35.288 E5.03983
G1 X51.700 Y35.288 E5.06193
G1 X52.375 Y34.613 E5.09677
G1 X51.763 Y34.613 E5.11888
G1 X51.075 Y35.288 E5.15370
G1 X50.463 Y35.300 E5.17580
G1 X51.150 Y34.613 E5.21060
G1 X50.538 Y34.613 E5.23272
G1 X49.850 Y35.300 E5.26750
G1 X49.238 Y35.300 E5.28960
G1 X49.925 Y34.613 E5.32436
G1 X49.313 Y34.613 E5.34647
G1 X48.625 Y35.300 E5.38122
G1 X48.013 Y35.300 E5.40332
G1 X48.700 Y34.613 E5.43804
G1 X48.075 Y34.613 E5.46016
G1 X47.400 Y35.300 E5.49486
G1 X46.788 Y35.300 E5.51696
G1 X47.463 Y34.613 E5.55165
G1 X46.850 Y34.613 E5.57376
G1 X46.175 Y35.300 E5.60843
G1 X45.563 Y35.300 E5.63053
G1 X46.238 Y34.625 E5.66518
G1 X45.625 Y34.625 E5.68730
G1 X44.950 Y35.300 E5.72193
G1 X44.338 Y35.300 E5.74403
G1 X45.013 Y34.625 E5.77864
G1 X44.400 Y34.625 E5.80076
G1 X43.725 Y35.300 E5.83535
G1 X43.100 Y35.300 E5.85745
G1 X43.788 Y34.625 E5.89202
G1 X43.175 Y34.625 E5.91414
G1 X42.488 Y35.300 E5.94869
G1 X41.875 Y35.300 E5.97080
G1 X42.563 Y34.625 E6.00533
G1 X41.938 Y34.625 E6.02745
G1 X41.263 Y35.300 E6.06196
G1 X40.650 Y35.300 E6.08407
G1 X41.325 Y34.625 E6.11857
G1 X40.713 Y34.625 E6.14068
G1 X40.038 Y35.300 E6.17516
G1 X39.425 Y35.300 E6.19726
G1 X40.100 Y34.625 E6.23172
G1 X39.488 Y34.625 E6.25384
G1 X38.813 Y35.313 E6.28828
G1 X38.200 Y35.313 E6.31038
G1 X38.875 Y34.638 E6.34481
G1 X38.263 Y34.638 E6.36692
G1 X37.588 Y35.313 E6.40133
G1 X36.963 Y35.313 E6.42368
G1 X37.650 Y34.638 E6.45842
G1 X37.038 Y34.638 E6.48054
G1 X36.113 Y35.550 E6.52728
G1 X36.425 Y34.638
G1 X33.388 Y37.663 E6.68162
G1 X33.388 Y38.275
G1 X34.350 Y37.313 E6.73053
G1 X34.113 Y38.175 E6.76254
G1 X33.388 Y38.888 E6.79914
G1 X33.388 Y39.500 E6.82124
G1 X34.063 Y38.838 E6.85541
G1 X34.063 Y39.450 E6.87749
G1 X33.388 Y40.113 E6.91168
G1 X33.388 Y40.738 E6.93378
G1 X34.063 Y40.063 E6.96800
G1 X34.063 Y40.675 E6.99009
G1 X33.388 Y41.350 E7.02434
G1 X33.388 Y41.963 E7.04644
G1 X34.063 Y41.288 E7.08072
G1 X34.063 Y41.900 E7.10280
G1 X33.388 Y42.575 E7.13710
G1 X33.388 Y43.188 E7.15920
G1 X34.063 Y42.513 E7.19354
G1 X34.063 Y43.125 E7.21562
G1 X33.388 Y43.800 E7.24998
G1 X33.388 Y44.413 E7.27208
G1 X34.063 Y43.738 E7.30648
G1 X34.063 Y44.350 E7.32856
G1 X33.388 Y45.025 E7.36298
G1 X33.388 Y45.638 E7.38508
G1 X34.063 Y44.963 E7.41952
G1 X34.063 Y45.575 E7.44161
G1 X33.375 Y46.250 E7.47608
G1 X33.375 Y46.863 E7.49818
G1 X34.063 Y46.188 E7.53268
G1 X34.063 Y46.800 E7.55477
G1 X33.375 Y47.475 E7.58930
G1 X33.375 Y48.088 E7.61140
G1 X34.063 Y47.413 E7.64596
G1 X34.063 Y48.025 E7.66804
G1 X33.375 Y48.700 E7.70263
G1 X33.375 Y49.325 E7.72473
G1 X34.063 Y48.638 E7.75934
G1 X34.063 Y49.250 E7.78142
G1 X33.375 Y49.938 E7.81607
G1 X33.375 Y50.550 E7.83817
G1 X34.063 Y49.863 E7.87284
G1 X34.063 Y50.475 E7.89492
G1 X33.375 Y51.163 E7.92962
G1 X33.375 Y51.775 E7.95172
G1 X34.063 Y51.088 E7.98645
G1 X34.063 Y51.700 E8.00853
G1 X33.375 Y52.388 E8.04329
G1 X33.375 Y53.000 E8.06539
G1 X34.063 Y52.313 E8.10017
G1 X34.063 Y52.925 E8.12226
G1 X33.375 Y53.613 E8.15707
G1 X33.375 Y54.225 E8.17917
G1 X34.063 Y53.538 E8.21401
G1 X34.063 Y54.150 E8.23609
G1 X33.375 Y54.838 E8.27096
G1 X33.538 Y55.288 E8.28802
G1 X34.100 Y54.725 E8.31610
G1 X34.650 Y54.788 E8.33613
G1 X34.063 Y55.375 E8.36579
G1 X34.588 Y55.463 E8.38487
G1 X35.200 Y54.850 E8.41611
G1 X35.750 Y54.913 E8.43614
G1 X35.125 Y55.538 E8.46819
G1 X35.663 Y55.613 E8.48788
G1 X36.300 Y54.975 E8.52048
G1 X36.863 Y55.038 E8.54051
G1 X36.213 Y55.688 E8.57364
G1 X36.750 Y55.750 E8.59333
G1 X37.413 Y55.088 E8.62701
G1 X37.963 Y55.150 E8.64704
G1 X37.313 Y55.800 E8.68026
G1 X37.875 Y55.850 E8.70065
G1 X38.513 Y55.213 E8.73331
G1 X39.075 Y55.263 E8.75362
G1 X38.438 Y55.900 E8.78616
G1 X39.013 Y55.950 E8.80670
G1 X39.663 Y55.288 E8.84020
G1 X40.250 Y55.313 E8.86137
G1 X39.600 Y55.975 E8.89487
G1 X40.188 Y56.000 E8.91605
G1 X40.838 Y55.338 E8.94955
G1 X41.450 Y55.350 E8.97136
G1 X40.763 Y56.025 E9.00578
G1 X41.375 Y56.038 E9.02750
G1 X42.063 Y55.350 E9.06241
G1 X42.675 Y55.350 E9.08448
G1 X41.988 Y56.038 E9.11939
G1 X42.600 Y56.038 E9.14146
G1 X43.288 Y55.338 E9.17684
G1 X43.925 Y55.313 E9.19992
G1 X43.213 Y56.025 E9.23645
G1 X43.850 Y56.000 E9.25953
G1 X44.575 Y55.288 E9.29605
G1 X45.213 Y55.250 E9.31925
G1 X44.500 Y55.975 E9.35592
G1 X45.138 Y55.950 E9.37901
G1 X45.888 Y55.200 E9.41722
G1 X46.550 Y55.138 E9.44147
G1 X45.800 Y55.888 E9.47983
G1 X46.475 Y55.838 E9.50408
G1 X47.225 Y55.075 E9.54247
G1 X47.138 Y55.775
G1 X47.925 Y54.988 E9.58258
G1 X47.838 Y55.688
G1 X48.638 Y54.900 E9.62305
G1 X48.550 Y55.600
G1 X49.338 Y54.800 E9.66372
G1 X49.250 Y55.513
G1 X50.088 Y54.675 E9.70630
G1 X49.988 Y55.388
G1 X50.825 Y54.550 E9.74922
G1 X50.725 Y55.263
G1 X51.588 Y54.400 E9.79289
G1 X51.475 Y55.125
G1 X52.363 Y54.225 E9.83866
G1 X52.250 Y54.950
G1 X53.150 Y54.063 E9.88442
G1 X53.038 Y54.788
G1 X53.975 Y53.850 E9.93210
G1 X53.838 Y54.588
G1 X54.813 Y53.625 E9.98121
G1 X54.675 Y54.375
G1 X55.675 Y53.375 E10.03192
G1 X55.513 Y54.150
G1 X56.588 Y53.063 E10.08713
G1 X56.400 Y53.875
G1 X57.513 Y52.763 E10.14403
G1 X57.288 Y53.600
G1 X58.438 Y52.450 E10.20255
G1 X58.225 Y53.275
G1 X59.375 Y52.125 E10.26088
G1 X59.188 Y52.925
G1 X60.413 Y51.700 E10.32329
G1 X60.188 Y52.538
G1 X61.463 Y51.263 E10.38837
G1 X61.225 Y52.113
G1 X62.600 Y50.738 E10.45846
G1 X62.338 Y51.613
G1 X63.813 Y50.138 E10.53342
G1 X64.750 Y50.425
G1 X66.513 Y48.663 E10.62351
G1 X67.600 Y48.800 F3600.000
G1 X70.038 Y46.363 F1200.000 E10.74769
G1 X71.500 Y46.125 F3600.000
G1 X72.725 Y44.900 F1200.000 E10.81007
G1 X72.825 Y44.188
G1 X69.338 Y47.688 E10.98838
G1 X68.125 Y47.663 F3600.000
G1 X66.113 Y49.688 F1200.000 E11.09154
G1 X65.088 Y49.475 F3600.000
G1 X63.488 Y51.075 F1200.000 E11.17331
G1 X72.163 Y44.238 F3600.000
G1 X72.838 Y43.563 F1200.000 E11.20752
G1 X72.838 Y42.950 E11.22972
G1 X72.163 Y43.625 E11.26421
G1 X72.163 Y43.013 E11.28621
G1 X72.838 Y42.338 E11.32098
G1 X72.850 Y41.713 E11.34319
G1 X72.163 Y42.400 E11.37823
G1 X72.150 Y41.800 E11.40024
G1 X72.850 Y41.100 E11.43557
G1 X72.150 Y41.188
G1 X72.938 Y40.400 E11.47523
G1 X72.150 Y40.575
G1 X73.363 Y39.363 E11.53690
G1 X73.963 Y38.763
G1 X78.113 Y34.613 E11.74860
G1 X78.725 Y34.613
G1 X75.150 Y38.188 E11.93080
G1 X75.825 Y38.125 E11.95509
G1 X79.338 Y34.613 E12.13428
G1 X79.950 Y34.613 E12.15635
G1 X76.350 Y38.213 E12.33983
G1 X76.825 Y38.350 E12.35757
G1 X80.563 Y34.613 E12.54821
G1 X81.175 Y34.613 E12.57027
G1 X77.225 Y38.563 E12.77161
G1 X77.588 Y38.813 E12.78747
G1 X81.788 Y34.613 E13.00160
G1 X82.400 Y34.613 E13.02367
G1 X77.888 Y39.125 E13.25368
G1 X78.163 Y39.463 E13.26935
G1 X83.013 Y34.613 E13.51634
G1 X83.488 Y34.750 E13.53422
G1 X78.363 Y39.875 E13.79559
G1 X78.513 Y40.338 E13.81296
G1 X83.700 Y35.150 E14.07685
G1 X72.150 Y39.963 F3600.000
G1 X77.500 Y34.613 F1200.000 E14.34960
G1 X76.888 Y34.613 E14.37166
G1 X72.150 Y39.350 E14.61331
G1 X72.150 Y38.738 E14.63531
G1 X76.275 Y34.613 E14.84585
G1 X75.663 Y34.613 E14.86792
G1 X72.138 Y38.125 E15.04735
G1 X72.138 Y37.525 E15.06936
G1 X75.050 Y34.613 E15.21769
G1 X74.438 Y34.613 E15.23975
G1 X72.050 Y37.000 E15.36164
G1 X71.888 Y36.550 E15.37886
G1 X73.825 Y34.613 E15.47788
G1 X73.213 Y34.613 E15.49994
G1 X71.625 Y36.200 E15.58083
G1 X71.338 Y35.863 E15.59647
G1 X72.600 Y34.613 E15.66077
G1 X71.988 Y34.600 E15.68284
G1 X70.975 Y35.613 E15.73434
G1 X70.538 Y35.438 E15.75135
G1 X71.375 Y34.600 E15.79403
G1 X70.763 Y34.600 E15.81610
G1 X70.063 Y35.313 E15.85219
G1 X69.475 Y35.288 E15.87337
G1 X70.150 Y34.600 E15.90818
G1 X69.538 Y34.600 E15.93025
G1 X68.863 Y35.288 E15.96507
G1 X68.250 Y35.288 E15.98714
G1 X68.925 Y34.600 E16.02197
G1 X68.313 Y34.600 E16.04404
G1 X67.638 Y35.288 E16.07888
G1 X67.025 Y35.288 E16.10096
G1 X67.700 Y34.600 E16.13581
G1 X67.088 Y34.600 E16.15788
G1 X66.400 Y35.288 E16.19275
G1 X65.788 Y35.288 E16.21482
G1 X66.475 Y34.600 E16.24970
G1 X65.863 Y34.600 E16.27176
G1 X65.175 Y35.288 E16.30665
G1 X64.563 Y35.288 E16.32873
G1 X65.250 Y34.600 E16.36363
G1 X64.638 Y34.600 E16.38569
G1 X63.950 Y35.288 E16.42060
G1 X63.375 Y35.263 E16.44170
G1 X64.025 Y34.600 E16.47521
G1 X63.413 Y34.600 E16.49728
G1 X63.375 Y34.650 E16.49958
G1 F1800.000 E11.99958
G92 E0
G1 X35.800 Y34.638 F3600.000
G1 F1800.000 E4.50000
G1 X33.388 Y37.050 F1200.000 E4.62303
G1 X33.388 Y36.438 E4.64513
G1 X35.188 Y34.638 E4.73686
G1 X34.550 Y34.663 E4.76009
G1 X33.463 Y35.763 E4.81553
G1 F1800.000 E0.31553
G92 E0
G1 X53.900 Y70.300 F3600.000
G1 F1800.000 E4.50000
G1 X51.875 Y72.325 F1200.000 E4.60304
G1 X50.675 Y72.288 F3600.000
G1 X47.150 Y75.813 F1200.000 E4.78242
G1 X47.825 Y75.750
G1 X47.150 Y76.438 E4.81684
G1 X47.138 Y77.050 E4.83913
G1 X47.825 Y76.363 E4.87387
G1 X47.825 Y76.975 E4.89593
G1 X47.138 Y77.675 E4.93101
G1 X47.125 Y78.288 E4.95330
G1 X47.825 Y77.588 E4.98871
G1 X47.825 Y78.200 E5.01076
G1 X47.125 Y78.913 E5.04650
G1 X47.063 Y79.575 E5.07071
G1 X47.825 Y78.813 E5.10937
G1 X47.825 Y79.425
G1 X46.525 Y80.738 E5.17597
G1 X46.025 Y81.238
G1 X41.888 Y85.375 E5.38679
G1 X42.500 Y85.375
G1 X47.825 Y80.038 E5.65854
G1 X47.825 Y80.650 E5.68060
G1 X43.113 Y85.375 E5.92116
G1 X43.725 Y85.375 E5.94323
G1 X47.825 Y81.263 E6.15262
G1 X47.825 Y81.875 E6.17467
G1 X44.338 Y85.375 E6.35287
G1 X44.950 Y85.375 E6.37494
G1 X47.825 Y82.488 E6.52195
G1 X47.938 Y83.000 E6.54054
G1 X45.563 Y85.375 E6.66185
G1 X46.175 Y85.375 E6.68392
G1 X48.113 Y83.425 E6.78309
G1 X48.350 Y83.813 E6.79916
G1 X46.788 Y85.375 E6.87891
G1 X47.400 Y85.375 E6.90098
G1 X48.663 Y84.113 E6.96559
G1 X49.013 Y84.375 E6.98133
G1 X48.013 Y85.375 E7.03240
G1 X48.625 Y85.375 E7.05447
G1 X49.438 Y84.563 E7.09601
G1 X49.938 Y84.675 E7.11453
G1 X49.238 Y85.375 E7.15043
G1 X49.850 Y85.375 E7.17250
G1 X50.525 Y84.700 E7.20699
G1 X51.138 Y84.700 E7.22907
G1 X50.463 Y85.375 E7.26358
G1 X51.075 Y85.375 E7.28565
G1 X51.750 Y84.700 E7.32017
G1 X52.363 Y84.700 E7.34225
G1 X51.688 Y85.375 E7.37679
G1 X52.300 Y85.375 E7.39886
G1 X52.975 Y84.700 E7.43341
G1 X53.588 Y84.700 E7.45550
G1 X52.913 Y85.375 E7.49007
G1 X53.525 Y85.375 E7.51214
G1 X54.200 Y84.700 E7.54673
G1 X54.813 Y84.700 E7.56881
G1 X54.138 Y85.375 E7.60342
G1 X54.750 Y85.375 E7.62549
G1 X55.425 Y84.700 E7.66011
G1 X56.038 Y84.700 E7.68220
G1 X55.363 Y85.375 E7.71684
G1 X55.975 Y85.375 E7.73891
G1 X56.650 Y84.700 E7.77357
G1 X57.263 Y84.700 E7.79565
G1 X56.588 Y85.375 E7.83033
G1 X57.200 Y85.375 E7.85240
G1 X57.875 Y84.700 E7.88709
G1 X58.488 Y84.700 E7.90917
G1 X57.813 Y85.375 E7.94388
G1 X58.425 Y85.375 E7.96595
G1 X59.100 Y84.700 E8.00068
G1 X59.713 Y84.700 E8.02276
G1 X59.038 Y85.375 E8.05751
G1 X59.650 Y85.375 E8.07958
G1 X60.325 Y84.700 E8.11434
G1 X60.938 Y84.700 E8.13642
G1 X60.263 Y85.375 E8.17121
G1 X60.875 Y85.375 E8.19327
G1 X61.550 Y84.700 E8.22807
G1 X62.163 Y84.700 E8.25015
G1 X61.488 Y85.375 E8.28497
G1 X62.100 Y85.375 E8.30704
G1 X62.775 Y84.700 E8.34187
G1 X63.388 Y84.700 E8.36395
G1 X62.713 Y85.375 E8.39880
G1 X63.325 Y85.375 E8.42087
G1 X64.000 Y84.700 E8.45574
G1 X64.625 Y84.700 E8.47782
G1 X63.938 Y85.375 E8.51271
G1 X64.550 Y85.388 E8.53478
G1 X65.238 Y84.700 E8.56968
G1 X65.850 Y84.700 E8.59176
G1 X65.163 Y85.388 E8.62668
G1 X65.775 Y85.388 E8.64875
G1 X66.463 Y84.700 E8.68368
G1 X67.075 Y84.700 E8.70576
G1 X66.388 Y85.388 E8.74072
G1 X67.000 Y85.388 E8.76279
G1 X67.688 Y84.700 E8.79776
G1 X68.300 Y84.700 E8.81984
G1 X67.613 Y85.388 E8.85483
G1 X68.225 Y85.388 E8.87690
G1 X68.913 Y84.700 E8.91190
G1 X69.525 Y84.700 E8.93398
G1 X68.838 Y85.388 E8.96901
G1 X69.450 Y85.388 E8.99108
G1 X70.138 Y84.700 E9.02612
G1 X70.750 Y84.700 E9.04820
G1 X70.063 Y85.388 E9.08325
G1 X70.675 Y85.388 E9.10532
G1 X71.363 Y84.700 E9.14040
G1 X71.975 Y84.700 E9.16248
G1 X71.288 Y85.388 E9.19757
G1 X71.900 Y85.388 E9.21964
G1 X72.588 Y84.700 E9.25475
G1 X73.200 Y84.700 E9.27683
G1 X72.513 Y85.388 E9.31196
G1 X73.125 Y85.388 E9.33403
G1 X73.813 Y84.700 E9.36917
G1 X74.425 Y84.688 E9.39125
G1 X73.738 Y85.388 E9.42641
G1 X74.350 Y85.388 E9.44848
G1 X75.038 Y84.688 E9.48366
G1 X75.650 Y84.688 E9.50574
G1 X74.963 Y85.388 E9.54094
G1 X75.575 Y85.388 E9.56301
G1 X76.263 Y84.688 E9.59822
G1 X76.875 Y84.688 E9.62030
G1 X76.188 Y85.388 E9.65553
G1 X76.800 Y85.388 E9.67760
G1 X77.488 Y84.688 E9.71285
G1 X78.100 Y84.688 E9.73493
G1 X77.413 Y85.388 E9.77019
G1 X78.025 Y85.388 E9.79226
G1 X78.713 Y84.688 E9.82754
G1 X79.325 Y84.688 E9.84962
G1 X78.638 Y85.388 E9.88492
G1 X79.250 Y85.388 E9.90699
G1 X79.938 Y84.688 E9.94231
G1 X80.550 Y84.688 E9.96439
G1 X79.863 Y85.388 E9.99972
G1 X80.475 Y85.388 E10.02179
G1 X81.163 Y84.688 E10.05714
G1 X81.775 Y84.688 E10.07923
G1 X81.088 Y85.388 E10.11459
G1 X81.700 Y85.388 E10.13666
G1 X82.388 Y84.688 E10.17205
G1 X83.038 Y84.650 E10.19549
G1 X82.313 Y85.388 E10.23275
G1 X82.925 Y85.388 E10.25482
G1 X83.913 Y84.400 E10.30504
G1 X86.538 Y84.225 F3600.000
G1 X85.438 Y85.325 F1200.000 E10.36142
G1 X84.763 Y85.388 E10.38577
G1 X86.613 Y83.538 E10.47979
G1 X86.613 Y82.925 E10.50188
G1 X84.150 Y85.388 E10.62713
G1 X83.538 Y85.388 E10.64920
G1 X86.613 Y82.313 E10.80568
G1 X86.613 Y81.700
G1 X85.600 Y82.713 E10.85689
G1 X85.900 Y81.800 E10.89126
G1 X86.613 Y81.088 E10.92748
G1 X86.613 Y80.475 E10.94957
G1 X85.913 Y81.175 E10.98515
G1 X85.913 Y80.563 E11.00726
G1 X86.613 Y79.863 E11.04281
G1 X86.613 Y79.250 E11.06490
G1 X85.913 Y79.950 E11.10042
G1 X85.913 Y79.338 E11.12253
G1 X86.613 Y78.638 E11.15803
G1 X86.613 Y78.025 E11.18011
G1 X85.913 Y78.725 E11.21558
G1 X85.913 Y78.113 E11.23769
G1 X86.613 Y77.413 E11.27313
G1 X86.613 Y76.800 E11.29522
G1 X85.913 Y77.488 E11.33063
G1 X85.913 Y76.875 E11.35274
G1 X86.613 Y76.188 E11.38813
G1 X86.613 Y75.575 E11.41021
G1 X85.913 Y76.263 E11.44557
G1 X85.913 Y75.650 E11.46768
G1 X86.613 Y74.963 E11.50301
G1 X86.613 Y74.350 E11.52509
G1 X85.925 Y75.038 E11.56040
G1 X85.925 Y74.425 E11.58250
G1 X86.613 Y73.738 E11.61778
G1 X86.613 Y73.125 E11.63986
G1 X85.925 Y73.813 E11.67511
G1 X85.925 Y73.200 E11.69722
G1 X86.613 Y72.513 E11.73244
G1 X86.613 Y71.888 E11.75452
G1 X85.925 Y72.588 E11.78972
G1 X85.925 Y71.975 E11.81182
G1 X86.613 Y71.275 E11.84699
G1 X86.613 Y70.663 E11.86907
G1 X85.925 Y71.363 E11.90421
G1 X85.925 Y70.738 E11.92631
G1 X86.613 Y70.050 E11.96142
G1 X86.613 Y69.438 E11.98351
G1 X85.925 Y70.125 E12.01859
G1 X85.925 Y69.513 E12.04070
G1 X86.613 Y68.825 E12.07575
G1 X86.613 Y68.213 E12.09783
G1 X85.925 Y68.900 E12.13286
G1 X85.925 Y68.288 E12.15497
G1 X86.613 Y67.600 E12.18996
G1 X86.613 Y66.988 E12.21205
G1 X85.925 Y67.675 E12.24702
G1 X85.925 Y67.063 E12.26912
G1 X86.613 Y66.375 E12.30407
G1 X86.613 Y65.763 E12.32615
G1 X85.925 Y66.450 E12.36107
G1 X85.938 Y65.838 E12.38317
G1 X86.613 Y65.150 E12.41806
G1 X86.450 Y64.700 E12.43517
G1 X85.888 Y65.275 E12.46398
G1 X85.338 Y65.200 E12.48367
G1 X85.925 Y64.613 E12.51352
G1 X85.400 Y64.525 E12.53260
G1 X84.800 Y65.125 E12.56348
G1 X84.250 Y65.063 E12.58317
G1 X84.863 Y64.450 E12.61433
G1 X84.325 Y64.375 E12.63402
G1 X83.713 Y64.988 E12.66517
G1 X83.175 Y64.913 E12.68486
G1 X83.788 Y64.313 E12.71601
G1 X83.238 Y64.238 E12.73570
G1 X82.613 Y64.863 E12.76784
G1 X82.050 Y64.813 E12.78822
G1 X82.675 Y64.188 E12.82048
G1 X82.113 Y64.138 E12.84086
G1 X81.488 Y64.763 E12.87311
G1 X80.913 Y64.725 E12.89368
G1 X81.550 Y64.088 E12.92620
G1 X80.988 Y64.038 E12.94673
G1 X80.325 Y64.700 E12.98023
G1 X79.738 Y64.675 E13.00140
G1 X80.400 Y64.013 E13.03490
G1 X79.813 Y63.988 E13.05607
G1 X79.150 Y64.650 E13.08957
G1 X78.550 Y64.638 E13.11137
G1 X79.225 Y63.963 E13.14578
G1 X78.625 Y63.950 E13.16749
G1 X77.938 Y64.638 E13.20240
G1 X77.325 Y64.638 E13.22446
G1 X78.013 Y63.950 E13.25937
G1 X77.400 Y63.950 E13.28144
G1 X76.700 Y64.650 E13.31681
G1 X76.063 Y64.675 E13.33989
G1 X76.775 Y63.963 E13.37641
G1 X76.138 Y63.988 E13.39949
G1 X75.425 Y64.700 E13.43601
G1 X74.775 Y64.738 E13.45919
G1 X75.500 Y64.013 E13.49585
G1 X74.863 Y64.038 E13.51893
G1 X74.113 Y64.788 E13.55713
G1 X73.438 Y64.850 E13.58138
G1 X74.188 Y64.100 E13.61974
G1 X73.525 Y64.150 E13.64398
G1 X72.763 Y64.913 E13.68236
G1 X72.850 Y64.213
G1 X72.063 Y65.000 E13.72244
G1 X72.150 Y64.300
G1 X71.363 Y65.088 E13.76291
G1 X71.450 Y64.388
G1 X70.650 Y65.188 E13.80356
G1 X70.750 Y64.475
G1 X69.913 Y65.313 E13.84612
G1 X70.013 Y64.600
G1 X69.163 Y65.438 E13.88904
G1 X69.263 Y64.725
G1 X68.413 Y65.588 E13.93269
G1 X68.525 Y64.863
G1 X67.625 Y65.763 E13.97845
G1 X67.738 Y65.025
G1 X66.838 Y65.925 E14.02422
G1 X66.963 Y65.200
G1 X66.025 Y66.138 E14.07186
G1 X66.150 Y65.400
G1 X65.188 Y66.363 E14.12098
G1 X65.325 Y65.613
G1 X64.338 Y66.600 E14.17111
G1 X64.488 Y65.838
G1 X63.450 Y66.875 E14.22413
G1 X63.600 Y66.113
G1 X62.550 Y67.163 E14.27768
G1 X62.713 Y66.388
G1 X61.588 Y67.500 E14.33462
G1 X61.775 Y66.713
G1 X60.625 Y67.850 E14.39291
G1 X60.813 Y67.050
G1 X59.588 Y68.275 E14.45528
G1 X59.813 Y67.450
G1 X58.525 Y68.725 E14.52031
G1 X58.775 Y67.875
G1 X57.400 Y69.250 E14.59035
G1 X57.663 Y68.375
G1 X56.188 Y69.838 E14.66524
G1 X55.250 Y69.550
G1 X53.488 Y71.325 E14.75524
G1 X52.400 Y71.175 F3600.000
G1 X49.963 Y73.613 F1200.000 E14.87925
G1 X48.513 Y73.850 F3600.000
G1 X47.250 Y75.100 F1200.000 E14.94299
G1 X54.913 Y70.513 F3600.000
G1 X56.513 Y68.913 F1200.000 E15.02467
G1 F1800.000 E10.52467
G92 E0
G1 X41.275 Y85.375 F3600.000
G1 F1800.000 E4.50000
G1 X44.850 Y81.800 F1200.000 E4.68217
G1 X44.175 Y81.863 E4.70638
G1 X40.663 Y85.375 E4.88565
G1 X40.038 Y85.375 E4.90772
G1 X43.650 Y81.775 E5.09115
G1 X43.175 Y81.638 E5.10891
G1 X39.425 Y85.375 E5.29948
G1 X38.813 Y85.375 E5.32155
G1 X42.750 Y81.438 E5.52217
G1 X42.413 Y81.163 E5.53788
G1 X38.200 Y85.375 E5.75239
G1 X37.588 Y85.375 E5.77446
G1 X42.088 Y80.875 E6.00366
G1 X41.838 Y80.525 E6.01945
G1 X36.975 Y85.375 E6.26665
G1 X36.500 Y85.250 E6.28472
G1 X41.625 Y80.113 E6.54624
G1 X41.463 Y79.675 E6.56333
G1 X36.300 Y84.825 E6.82615
; infill_end
G1 F1800.000 E2.32615
G92 E0
; Layer: 3 Time: 114
G1 Z0.750 F3600.000
; Region: 0
; perimeter_start
G1 X48.150 Y82.675
G1 F1800.000 E4.50000
G1 X48.138 Y81.675 F540.000 E4.51663
G1 X48.138 Y80.675 E4.54989
G1 X48.138 Y79.675 F600.000 E4.58315
G1 X48.125 Y78.675 F660.000 E4.61641
G1 X48.125 Y77.675 F720.000 E4.64967
G1 X48.125 Y76.675 F780.000 E4.68293
G1 X48.125 Y75.675 F840.000 E4.71619
G1 X48.125 Y75.375 F900.000 E4.72648
G1 X49.988 Y73.963 E4.80451
G1 X51.688 Y72.788 E4.87301
G1 X53.425 Y71.688 E4.94150
G1 X55.225 Y70.675 E5.00999
G1 X57.050 Y69.738 E5.07848
G1 X58.925 Y68.875 E5.14697
G1 X60.825 Y68.088 E5.21545
G1 X62.763 Y67.400 E5.28394
G1 X64.738 Y66.788 E5.35243
G1 X66.725 Y66.263 E5.42092
G1 X68.738 Y65.825 E5.48941
G1 X70.775 Y65.463 E5.55811
G1 X74.850 Y65.025 E5.69462
G1 X76.913 Y64.938 E5.76332
G1 X78.975 Y64.938 E5.83181
G1 X81.038 Y65.025 E5.90030
G1 X83.088 Y65.200 E5.96878
G1 X85.638 Y65.538 E6.05438
G1 X85.613 Y81.750 E6.59345
G1 X85.238 Y82.850 E6.63198
G1 X84.825 Y83.400 E6.65517
G1 X84.338 Y83.838 E6.67678
G1 X83.725 Y84.175 E6.70025
G1 X82.838 Y84.400 E6.73043
G1 X54.500 Y84.400 E7.67318
G1 X53.500 Y84.400 F840.000 E7.70644
G1 X52.500 Y84.400 F780.000 E7.73970
G1 X51.500 Y84.400 F720.000 E7.77296
G1 X50.500 Y84.400 F660.000 E7.80622
G1 X50.063 Y84.400 F600.000 E7.82062
G1 X49.513 Y84.250 E7.83948
G1 X49.263 Y84.188 F540.000 E7.84841
G1 X48.738 Y83.800 E7.87006
G1 X48.688 Y83.738 E7.87274
G1 X48.388 Y83.350 E7.88082
G1 X48.213 Y82.863 E7.88937
G1 X48.550 Y82.613
G1 X48.525 Y75.575 F900.000 E8.12350
G1 X50.225 Y74.288 E8.19460
G1 X51.913 Y73.125 E8.26252
G1 X53.638 Y72.038 E8.33044
G1 X55.413 Y71.025 E8.39835
G1 X57.225 Y70.088 E8.46627
G1 X59.088 Y69.238 E8.53418
G1 X60.975 Y68.463 E8.60210
G1 X62.900 Y67.775 E8.67001
G1 X64.850 Y67.175 E8.73792
G1 X66.813 Y66.650 E8.80584
G1 X68.813 Y66.213 E8.87375
G1 X70.825 Y65.863 E8.94173
G1 X74.888 Y65.425 E9.07738
G1 X76.925 Y65.338 E9.14537
G1 X78.963 Y65.338 E9.21328
G1 X81.000 Y65.425 E9.28119
G1 X83.038 Y65.600 E9.34911
G1 X85.238 Y65.888 E9.42272
G1 X85.213 Y81.675 E9.94791
G1 X84.888 Y82.663 E9.98221
G1 X84.525 Y83.138 E10.00191
G1 X84.113 Y83.513 E10.02064
G1 X83.575 Y83.800 E10.04088
G1 X82.800 Y84.000 E10.06767
G1 X50.113 Y84.000 E11.15451
G1 X49.438 Y83.825 E11.17805
G1 X49.013 Y83.513 E11.19531
G1 X48.738 Y83.163 E11.21020
G1 X48.613 Y82.800 E11.22292
G1 X47.813 Y82.300
G1 X46.238 Y80.650 F3600.000
G1 X46.550 Y80.175 F900.000 E11.24188
G1 X46.763 Y79.650 E11.26062
G1 X46.838 Y79.113 E11.27867
G1 X46.850 Y75.525 E11.39803
G1 X46.950 Y75.038 E11.41453
G1 X47.175 Y74.613 E11.43035
G1 X47.588 Y74.175 E11.45054
G1 X49.238 Y72.925 E11.51957
G1 X50.988 Y71.725 E11.58989
G1 X52.775 Y70.600 E11.66022
G1 X54.613 Y69.550 E11.73054
G1 X56.488 Y68.588 E11.80086
G1 X58.413 Y67.700 E11.87118
G1 X60.375 Y66.900 E11.94150
G1 X62.363 Y66.188 E12.01182
G1 X64.375 Y65.550 E12.08214
G1 X66.425 Y65.013 E12.15246
G1 X68.488 Y64.563 E12.22278
G1 X70.575 Y64.200 E12.29310
G1 X72.663 Y63.925 E12.36342
G1 X74.775 Y63.750 E12.43373
G1 X76.888 Y63.663 E12.50405
G1 X79.000 Y63.663 E12.57437
G1 X81.113 Y63.750 E12.64469
G1 X83.213 Y63.938 E12.71501
G1 X86.913 Y64.488 E12.83927
G1 X86.900 Y83.950 E13.48677
G1 X86.800 Y84.438 E13.50328
G1 X86.525 Y84.950 E13.52245
G1 X86.100 Y85.350 E13.54185
G1 X85.750 Y85.538 E13.55499
G1 X85.375 Y85.650 E13.56792
G1 X36.713 Y85.663 E15.18644
G1 X36.388 Y85.538 E15.19826
G1 X36.163 Y85.325 E15.20841
G1 X36.038 Y85.113 E15.21665
G1 X35.988 Y84.763 E15.22848
G1 X36.075 Y84.413 E15.24030
G1 X36.238 Y84.175 E15.24987
G1 X41.663 Y78.750 E15.50509
G1 X41.750 Y79.638 E15.53482
G1 X41.963 Y80.175 E15.55422
G1 X42.350 Y80.725 E15.57626
G1 X42.788 Y81.100 E15.59566
G1 X43.475 Y81.450 E15.62143
G1 X44.263 Y81.563 E15.64765
G1 X45.038 Y81.450 E15.67387
G1 X45.738 Y81.100 E15.69987
G1 X46.088 Y80.788 E15.71570
G1 F1800.000 E11.21570
G92 E0
G1 X45.213 Y56.238 F3600.000
G1 F1800.000 E4.50000
G1 X43.100 Y56.325 F900.000 E4.57032
G1 X40.988 Y56.325 E4.64064
G1 X38.875 Y56.238 E4.71096
G1 X36.775 Y56.050 E4.78127
G1 X33.075 Y55.500 E4.90553
G1 X33.100 Y35.938 E5.55616
G1 X33.225 Y35.463 E5.57245
G1 X33.475 Y35.038 E5.58898
G1 X33.738 Y34.750 E5.60183
G1 X34.075 Y34.525 E5.61543
G1 X34.463 Y34.375 E5.62931
G1 X34.988 Y34.300 E5.64708
G1 X56.913 Y34.300 E6.37619
G1 X56.913 Y35.588 E6.41877
G1 X37.163 Y35.588 E7.07587
G1 X36.500 Y35.725 E7.09802
G1 X35.875 Y36.000 E7.12105
G1 X35.350 Y36.388 E7.14267
G1 X34.913 Y36.900 E7.16496
G1 X34.588 Y37.488 E7.18751
G1 X34.375 Y38.263 E7.21407
G1 X34.350 Y54.450 E7.75247
G1 X36.900 Y54.788 E7.83806
G1 X38.950 Y54.963 E7.90655
G1 X41.025 Y55.050 E7.97525
G1 X45.125 Y54.963 E8.11177
G1 X47.175 Y54.788 E8.18047
G1 X49.225 Y54.525 E8.24895
G1 X51.250 Y54.163 E8.31744
G1 X53.263 Y53.725 E8.38593
G1 X55.263 Y53.200 E8.45463
G1 X59.150 Y51.900 E8.59115
G1 X61.063 Y51.113 E8.65985
G1 X62.938 Y50.250 E8.72856
G1 X66.550 Y48.300 E8.86507
G1 X68.300 Y47.200 E8.93378
G1 X70.000 Y46.025 E9.00227
G1 X71.863 Y44.613 E9.08027
G1 X71.863 Y37.538 E9.31582
G1 X71.688 Y36.788 E9.34151
G1 X71.200 Y36.125 E9.36853
G1 X70.575 Y35.738 E9.39298
G1 X69.913 Y35.588 E9.41587
G1 X63.075 Y35.588 E9.64323
G1 X63.075 Y34.300 E9.68579
G1 X83.275 Y34.325 E10.35769
G1 X83.563 Y34.425 E10.36767
G1 X83.788 Y34.613 E10.37764
G1 X83.950 Y34.875 E10.38783
G1 X83.988 Y35.363 E10.40396
G1 X83.825 Y35.725 E10.41747
G1 X78.325 Y41.238 E10.67636
G1 X78.275 Y40.550 E10.69934
G1 X78.038 Y39.825 E10.72467
G1 X77.713 Y39.338 E10.74407
G1 X77.213 Y38.888 E10.76655
G1 X76.513 Y38.538 E10.79232
G1 X75.838 Y38.425 E10.81525
G1 X75.063 Y38.513 E10.84102
G1 X74.438 Y38.763 E10.86350
G1 X73.975 Y39.113 E10.88290
G1 X73.488 Y39.700 E10.90828
G1 X73.250 Y40.250 E10.92825
G1 X73.150 Y40.875 E10.94902
G1 X73.138 Y44.463 E11.06856
G1 X73.025 Y44.963 E11.08531
G1 X72.875 Y45.288 E11.09765
G1 X72.550 Y45.688 E11.11480
G1 X70.738 Y47.075 E11.19021
G1 X69.000 Y48.263 E11.26047
G1 X67.213 Y49.388 E11.33079
G1 X65.375 Y50.438 E11.40112
G1 X63.500 Y51.400 E11.47144
G1 X61.575 Y52.288 E11.54176
G1 X59.613 Y53.088 E11.61208
G1 X57.625 Y53.800 E11.68240
G1 X55.613 Y54.438 E11.75272
G1 X53.563 Y54.975 E11.82304
G1 X51.500 Y55.425 E11.89336
G1 X49.413 Y55.788 E11.96368
G1 X47.325 Y56.063 E12.03399
G1 X45.413 Y56.225 E12.09766
G1 X45.238 Y56.638
G1 X43.113 Y56.725 E12.16855
G1 X40.975 Y56.725 E12.23945
G1 X38.850 Y56.638 E12.31034
G1 X36.725 Y56.450 E12.38123
G1 X34.613 Y56.175 E12.45212
G1 X32.675 Y55.838 E12.51756
G1 X32.700 Y35.888 E13.18113
G1 X32.850 Y35.313 E13.20092
G1 X33.150 Y34.800 E13.22079
G1 X33.475 Y34.450 E13.23665
G1 X33.888 Y34.175 E13.25316
G1 X34.363 Y33.988 E13.27014
G1 X34.963 Y33.900 E13.29042
G1 X57.313 Y33.900 E14.03370
G1 X57.313 Y35.988 E14.10289
G1 X37.200 Y35.988 E14.77198
G1 X36.625 Y36.113 E14.79133
G1 X36.075 Y36.350 E14.81143
G1 X35.625 Y36.688 E14.83016
G1 X35.238 Y37.125 E14.84956
G1 X34.950 Y37.638 E14.86906
G1 X34.775 Y38.313 E14.89226
G1 X34.750 Y54.100 E15.41722
G1 X36.950 Y54.388 E15.49084
G1 X38.988 Y54.563 E15.55875
G1 X41.025 Y54.650 E15.62674
G1 X45.100 Y54.563 E15.76239
G1 X47.138 Y54.388 E15.83037
G1 X49.163 Y54.125 E15.89828
G1 X51.175 Y53.775 E15.96620
G1 X53.175 Y53.338 E16.03411
G1 X55.150 Y52.813 E16.10210
G1 X59.013 Y51.525 E16.23775
G1 X60.900 Y50.750 E16.30573
G1 X62.763 Y49.888 E16.37372
G1 X66.350 Y47.950 E16.50938
G1 X68.075 Y46.863 E16.57736
G1 X69.763 Y45.700 E16.64528
G1 X71.463 Y44.413 E16.71637
G1 X71.463 Y37.588 E16.94369
G1 X71.313 Y36.963 E16.96513
G1 X70.925 Y36.425 E16.98701
G1 X70.425 Y36.113 E17.00662
G1 X69.863 Y35.988 E17.02571
G1 X62.675 Y35.988 E17.26491
G1 X62.675 Y33.900 E17.33409
G1 X83.350 Y33.925 E18.02160
G1 X83.763 Y34.075 E18.03618
G1 X84.100 Y34.350 E18.05076
G1 X84.325 Y34.725 E18.06541
G1 X84.413 Y35.100 E18.07818
G1 X84.313 Y35.688 E18.09802
G1 X84.138 Y35.975 E18.10906
G1 X42.638 Y77.513 E20.06181
G1 X42.350 Y77.900 E20.07803
G1 X42.150 Y78.413 E20.09631
G1 X42.075 Y78.888 E20.11235
G1 X42.150 Y79.538 E20.13418
G1 X42.325 Y79.988 E20.15022
G1 X42.650 Y80.450 E20.16906
G1 X43.013 Y80.775 E20.18510
G1 X43.600 Y81.063 E20.20708
G1 X44.263 Y81.163 E20.22920
G1 X44.913 Y81.063 E20.25132
G1 X45.513 Y80.775 E20.27337
G1 X45.925 Y80.388 E20.29235
G1 X46.200 Y79.988 E20.30825
G1 X46.363 Y79.538 E20.32407
G1 X46.438 Y79.075 E20.33967
G1 X46.450 Y75.475 E20.45944
G1 X46.575 Y74.900 E20.47908
G1 X46.838 Y74.388 E20.49849
G1 X47.313 Y73.875 E20.52170
G1 X49.013 Y72.600 E20.59217
G1 X50.763 Y71.388 E20.66306
G1 X52.575 Y70.250 E20.73396
G1 X54.425 Y69.200 E20.80486
G1 X56.313 Y68.225 E20.87575
G1 X58.250 Y67.338 E20.94665
G1 X60.225 Y66.525 E21.01754
G1 X62.238 Y65.800 E21.08844
G1 X64.263 Y65.175 E21.15933
G1 X66.325 Y64.625 E21.23022
G1 X68.413 Y64.175 E21.30112
G1 X70.513 Y63.800 E21.37201
G1 X72.625 Y63.525 E21.44290
G1 X74.750 Y63.350 E21.51379
G1 X76.875 Y63.263 E21.58469
G1 X79.013 Y63.263 E21.65558
G1 X81.138 Y63.350 E21.72647
G1 X83.263 Y63.538 E21.79737
G1 X85.375 Y63.813 E21.86826
G1 X87.313 Y64.150 E21.93370
G1 X87.300 Y84.000 E22.59384
G1 X87.175 Y84.575 E22.61370
G1 X86.838 Y85.188 E22.63682
G1 X86.338 Y85.675 E22.66002
G1 X85.900 Y85.913 E22.67637
G1 X85.438 Y86.050 E22.69265
G1 X36.638 Y86.063 E24.31557
G1 X36.175 Y85.875 E24.33238
G1 X35.838 Y85.575 E24.34722
G1 X35.663 Y85.238 E24.36001
G1 X35.575 Y84.738 E24.37683
G1 X35.700 Y84.250 E24.39364
G1 X35.925 Y83.913 E24.40687
G1 X77.363 Y42.463 E26.35625
G1 X77.663 Y42.025 E26.37432
G1 X77.838 Y41.575 E26.39021
G1 X77.913 Y41.100 E26.40604
G1 X77.888 Y40.625 E26.42201
G1 X77.675 Y40.000 E26.44384
G1 X77.400 Y39.600 E26.45988
G1 X76.988 Y39.213 E26.47886
G1 X76.388 Y38.925 E26.50084
G1 X75.825 Y38.825 E26.51996
G1 X75.163 Y38.900 E26.54193
G1 X74.638 Y39.113 E26.56091
G1 X74.250 Y39.400 E26.57696
G1 X73.838 Y39.913 E26.59880
G1 X73.638 Y40.375 E26.61539
G1 X73.550 Y40.900 E26.63344
G1 X73.538 Y44.513 E26.75328
G1 X73.413 Y45.088 E26.77300
G1 X73.213 Y45.513 E26.78846
G1 X72.825 Y45.975 E26.80875
G1 X70.975 Y47.388 E26.88606
G1 X69.225 Y48.600 E26.95694
G1 X67.413 Y49.738 E27.02784
G1 X65.563 Y50.788 E27.09873
G1 X63.675 Y51.763 E27.16963
G1 X61.738 Y52.650 E27.24052
G1 X59.763 Y53.463 E27.31142
G1 X57.750 Y54.188 E27.38231
G1 X55.725 Y54.813 E27.45321
G1 X53.663 Y55.363 E27.52410
G1 X51.575 Y55.813 E27.59499
G1 X49.475 Y56.188 E27.66589
G1 X47.363 Y56.463 E27.73678
G1 X45.438 Y56.625 E27.80102
G1 X44.800 Y55.975
G1 F1800.000 E23.30102
G92 E0
G1 X57.600 Y34.975 F3600.000
G1 F1800.000 E4.50000
G1 X62.388 Y34.975 F900.000 E4.65893
; perimeter_end
; infill_start
G1 X63.375 Y35.225 F3600.000
G1 X63.438 Y35.288 F1200.000 E4.66226
G1 X64.050 Y35.288 E4.68450
G1 X63.375 Y34.613 E4.71928
G1 X63.975 Y34.600 E4.74134
G1 X64.663 Y35.288 E4.77637
G1 X65.275 Y35.288 E4.79860
G1 X64.600 Y34.600 E4.83360
G1 X65.213 Y34.600 E4.85586
G1 X65.900 Y35.288 E4.89083
G1 X66.513 Y35.288 E4.91307
G1 X65.825 Y34.600 E4.94801
G1 X66.438 Y34.600 E4.97026
G1 X67.125 Y35.288 E5.00518
G1 X67.738 Y35.288 E5.02742
G1 X67.063 Y34.600 E5.06231
G1 X67.675 Y34.600 E5.08456
G1 X68.350 Y35.288 E5.11943
G1 X68.975 Y35.288 E5.14166
G1 X68.288 Y34.613 E5.17650
G1 X68.900 Y34.613 E5.19876
G1 X69.588 Y35.288 E5.23356
G1 X70.275 Y35.363 E5.25862
G1 X69.525 Y34.613 E5.29718
G1 X70.138 Y34.613
G1 X74.138 Y38.613 E5.50205
G1 X73.788 Y38.875
G1 X72.075 Y37.163 E5.58937
G1 X72.163 Y37.863 E5.61470
G1 X73.513 Y39.213 E5.68358
G1 X73.238 Y39.550 E5.69940
G1 X72.163 Y38.475 E5.75431
G1 X72.163 Y39.100 E5.77655
G1 X73.050 Y39.988 E5.82192
G1 X72.913 Y40.463 E5.84001
G1 X72.163 Y39.713 E5.87859
G1 X72.163 Y40.325 E5.90083
G1 X72.850 Y41.013 E5.93601
G1 X72.850 Y41.625 E5.95818
G1 X72.163 Y40.938 E5.99326
G1 X72.163 Y41.550 E6.01550
G1 X72.850 Y42.238 E6.05047
G1 X72.850 Y42.850 E6.07264
G1 X72.163 Y42.175 E6.10751
G1 X72.163 Y42.788 E6.12975
G1 X72.838 Y43.463 E6.16452
G1 X72.838 Y44.075 E6.18669
G1 X72.163 Y43.400 E6.22136
G1 X72.163 Y44.013 E6.24360
G1 X72.800 Y44.650 E6.27584
G1 X72.638 Y45.100 E6.29324
G1 X72.163 Y44.625 E6.31722
G1 X71.888 Y44.975 E6.33304
G1 X72.363 Y45.450 E6.35721
G1 X72.025 Y45.713 E6.37302
G1 X71.538 Y45.238 E6.39765
G1 X71.188 Y45.500 E6.41352
G1 X71.675 Y45.988 E6.43824
G1 X71.325 Y46.250 E6.45410
G1 X70.838 Y45.763 E6.47891
G1 X70.488 Y46.025 E6.49478
G1 X70.975 Y46.513 E6.51969
G1 X70.625 Y46.788 E6.53555
G1 X70.138 Y46.288 E6.56061
G1 X69.775 Y46.550 E6.57659
G1 X70.263 Y47.038 E6.60179
G1 X69.900 Y47.288 E6.61777
G1 X69.413 Y46.800 E6.64297
G1 X69.050 Y47.050 E6.65895
G1 X69.538 Y47.538 E6.68414
G1 X69.175 Y47.788 E6.70013
G1 X68.688 Y47.300 E6.72532
G1 X68.313 Y47.538 E6.74136
G1 X68.813 Y48.038 E6.76678
G1 X68.438 Y48.275 E6.78291
G1 X67.938 Y47.775 E6.80833
G1 X67.563 Y48.013 E6.82445
G1 X68.050 Y48.513 E6.84987
G1 X67.675 Y48.750 E6.86600
G1 X67.175 Y48.250 E6.89142
G1 X66.800 Y48.488 E6.90755
G1 X67.300 Y48.988 E6.93297
G1 X66.913 Y49.225 E6.94916
G1 X66.413 Y48.713 E6.97511
G1 X66.013 Y48.925 E6.99151
G1 X66.525 Y49.450 E7.01783
G1 X66.138 Y49.663 E7.03413
G1 X65.613 Y49.150 E7.06082
G1 X65.213 Y49.363 E7.07722
G1 X65.738 Y49.888 E7.10428
G1 X65.350 Y50.113 E7.12058
G1 X64.813 Y49.575 E7.14800
G1 X64.413 Y49.788 E7.16440
G1 X64.950 Y50.325 E7.19167
G1 X64.538 Y50.538 E7.20818
G1 X64.013 Y50.013 E7.23507
G1 X63.613 Y50.225 E7.25148
G1 X64.138 Y50.738 E7.27799
G1 X63.725 Y50.950 E7.29451
G1 X63.213 Y50.438 E7.32066
G1 X62.800 Y50.638 E7.33728
G1 X63.325 Y51.163 E7.36370
G1 X62.900 Y51.350 E7.38047
G1 X62.375 Y50.838 E7.40689
G1 X61.963 Y51.025 E7.42365
G1 X62.475 Y51.550 E7.45007
G1 X62.050 Y51.738 E7.46684
G1 X61.538 Y51.225 E7.49326
G1 X61.113 Y51.413 E7.51006
G1 X61.638 Y51.938 E7.53661
G1 X61.200 Y52.125 E7.55353
G1 X60.675 Y51.588 E7.58041
G1 X60.238 Y51.775 E7.59746
G1 X60.763 Y52.300 E7.62434
G1 X60.325 Y52.475 E7.64139
G1 X59.800 Y51.950 E7.66826
G1 X59.375 Y52.125 E7.68531
G1 X59.900 Y52.650 E7.71219
G1 X59.450 Y52.825 E7.72928
G1 X58.913 Y52.288 E7.75697
G1 X58.450 Y52.438 E7.77453
G1 X59.000 Y52.988 E7.80265
G1 X58.550 Y53.150 E7.82003
G1 X57.988 Y52.600 E7.84856
G1 X57.538 Y52.750 E7.86612
G1 X58.100 Y53.313 E7.89507
G1 X57.650 Y53.475 E7.91245
G1 X57.075 Y52.913 E7.94182
G1 X56.613 Y53.063 E7.95939
G1 X57.188 Y53.625 E7.98854
G1 X56.713 Y53.775 E8.00630
G1 X56.150 Y53.213 E8.03503
G1 X55.688 Y53.375 E8.05259
G1 X56.238 Y53.925 E8.08089
G1 X55.775 Y54.075 E8.09865
G1 X55.225 Y53.513 E8.12685
G1 X54.738 Y53.650 E8.14504
G1 X55.300 Y54.213 E8.17371
G1 X54.813 Y54.338 E8.19190
G1 X54.250 Y53.775 E8.22057
G1 X53.763 Y53.900 E8.23876
G1 X54.325 Y54.463 E8.26743
G1 X53.838 Y54.588 E8.28562
G1 X53.275 Y54.025 E8.31440
G1 X52.775 Y54.138 E8.33307
G1 X53.350 Y54.713 E8.36251
G1 X52.838 Y54.825 E8.38118
G1 X52.263 Y54.250 E8.41062
G1 X51.763 Y54.363 E8.42930
G1 X52.338 Y54.938 E8.45874
G1 X51.838 Y55.050 E8.47741
G1 X51.250 Y54.475 E8.50695
G1 X50.738 Y54.563 E8.52618
G1 X51.325 Y55.150 E8.55648
G1 X50.800 Y55.250 E8.57570
G1 X50.213 Y54.650 E8.60601
G1 X49.688 Y54.738 E8.62523
G1 X50.275 Y55.338 E8.65554
G1 X49.750 Y55.425 E8.67476
G1 X49.150 Y54.825 E8.70528
G1 X48.613 Y54.900 E8.72513
G1 X49.225 Y55.513 E8.75641
G1 X48.675 Y55.588 E8.77626
G1 X48.063 Y54.975 E8.80754
G1 X47.525 Y55.038 E8.82739
G1 X48.138 Y55.650 E8.85867
G1 X47.588 Y55.725 E8.87852
G1 X46.975 Y55.100 E8.91028
G1 X46.400 Y55.150 E8.93083
G1 X47.038 Y55.788 E8.96322
G1 X46.475 Y55.838 E8.98377
G1 X45.838 Y55.200 E9.01616
G1 X45.275 Y55.250 E9.03671
G1 X45.900 Y55.888 E9.06910
G1 X45.338 Y55.938 E9.08965
G1 X44.675 Y55.275 E9.12346
G1 X44.075 Y55.288 E9.14524
G1 X44.750 Y55.963 E9.17999
G1 X44.163 Y55.988 E9.20133
G1 X43.475 Y55.300 E9.23672
G1 X42.875 Y55.313 E9.25850
G1 X43.575 Y56.013 E9.29453
G1 X42.975 Y56.038 E9.31603
G1 X42.263 Y55.325 E9.35246
G1 X41.663 Y55.338 E9.37424
G1 X42.363 Y56.038 E9.41000
G1 X41.750 Y56.038 E9.43224
G1 X41.063 Y55.350 E9.46734
G1 X40.425 Y55.325 E9.49049
G1 X41.138 Y56.038 E9.52685
G1 X40.500 Y56.013 E9.54988
G1 X39.775 Y55.300 E9.58656
G1 X39.138 Y55.263 E9.60984
G1 X39.850 Y55.988 E9.64652
G1 X39.213 Y55.950 E9.66979
G1 X38.475 Y55.213 E9.70755
G1 X37.800 Y55.163 E9.73200
G1 X38.550 Y55.913 E9.77053
G1 X37.875 Y55.850 E9.79498
G1 X37.125 Y55.100 E9.83351
G1 X36.438 Y55.025 E9.85879
G1 X37.213 Y55.800 E9.89841
G1 X36.525 Y55.725 E9.92338
G1 X35.725 Y54.925 E9.96404
G1 X35.813 Y55.625
G1 X35.013 Y54.838 E10.00470
G1 X35.100 Y55.538
G1 X34.313 Y54.738 E10.04537
G1 X34.050 Y54.488
G1 X33.375 Y53.800 E10.08026
G1 X33.375 Y53.188 E10.10248
G1 X34.063 Y53.875 E10.13738
G1 X34.063 Y53.263 E10.15959
G1 X33.375 Y52.575 E10.19451
G1 X33.375 Y51.963 E10.21672
G1 X34.063 Y52.650 E10.25164
G1 X34.063 Y52.038 E10.27385
G1 X33.375 Y51.350 E10.30878
G1 X33.375 Y50.738 E10.33100
G1 X34.063 Y51.413 E10.36594
G1 X34.063 Y50.800 E10.38815
G1 X33.375 Y50.125 E10.42310
G1 X33.375 Y49.500 E10.44531
G1 X34.063 Y50.188 E10.48028
G1 X34.063 Y49.575 E10.50248
G1 X33.375 Y48.888 E10.53746
G1 X33.375 Y48.275 E10.55967
G1 X34.063 Y48.963 E10.59466
G1 X34.063 Y48.350 E10.61686
G1 X33.375 Y47.663 E10.65186
G1 X33.375 Y47.050 E10.67407
G1 X34.063 Y47.738 E10.70907
G1 X34.063 Y47.125 E10.73128
G1 X33.375 Y46.438 E10.76629
G1 X33.388 Y45.825 E10.78850
G1 X34.063 Y46.500 E10.82353
G1 X34.063 Y45.888 E10.84573
G1 X33.388 Y45.200 E10.88076
G1 X33.388 Y44.588 E10.90298
G1 X34.063 Y45.275 E10.93802
G1 X34.075 Y44.663 E10.96022
G1 X33.388 Y43.975 E10.99528
G1 X33.388 Y43.363 E11.01749
G1 X34.075 Y44.050 E11.05255
G1 X34.075 Y43.438 E11.07476
G1 X33.388 Y42.750 E11.10983
G1 X33.388 Y42.138 E11.13204
G1 X34.075 Y42.825 E11.16712
G1 X34.075 Y42.200 E11.18933
G1 X33.388 Y41.525 E11.22442
G1 X33.388 Y40.900 E11.24663
G1 X34.075 Y41.588 E11.28173
G1 X34.075 Y40.975 E11.30393
G1 X33.388 Y40.288 E11.33905
G1 X33.388 Y39.675 E11.36126
G1 X34.075 Y40.363 E11.39638
G1 X34.075 Y39.750 E11.41858
G1 X33.388 Y39.063 E11.45371
G1 X33.388 Y38.450 E11.47592
G1 X34.075 Y39.138 E11.51106
G1 X34.075 Y38.525 E11.53327
G1 X33.388 Y37.838 E11.56842
G1 X33.388 Y37.225 E11.59063
G1 X34.150 Y37.975 E11.62917
G1 X34.275 Y37.488 E11.64733
G1 X33.388 Y36.600 E11.69248
G1 X33.388 Y35.988 E11.71469
G1 X34.475 Y37.075 E11.76993
G1 X34.700 Y36.688 E11.78619
G1 X33.538 Y35.513 E11.84572
G1 X33.775 Y35.150 E11.86180
G1 X34.988 Y36.350 E11.92367
G1 X35.300 Y36.063 E11.93940
G1 X34.113 Y34.863 E12.00046
G1 X34.525 Y34.663 E12.01719
G1 X35.650 Y35.800 E12.07488
G1 X36.063 Y35.588 E12.09149
G1 X35.075 Y34.600 E12.14220
G1 X35.688 Y34.600 E12.16444
G1 X36.513 Y35.425 E12.20629
G1 X37.025 Y35.313 E12.22520
G1 X36.313 Y34.600 E12.26184
G1 X36.925 Y34.600 E12.28407
G1 X37.613 Y35.300 E12.31963
G1 X38.238 Y35.300 E12.34185
G1 X37.538 Y34.600 E12.37739
G1 X38.150 Y34.600 E12.39962
G1 X38.850 Y35.300 E12.43515
G1 X39.463 Y35.300 E12.45737
G1 X38.763 Y34.600 E12.49288
G1 X39.375 Y34.600 E12.51512
G1 X40.075 Y35.300 E12.55061
G1 X40.688 Y35.300 E12.57284
G1 X40.000 Y34.600 E12.60832
G1 X40.613 Y34.600 E12.63055
G1 X41.300 Y35.300 E12.66602
G1 X41.925 Y35.300 E12.68824
G1 X41.225 Y34.600 E12.72369
G1 X41.838 Y34.600 E12.74593
G1 X42.538 Y35.300 E12.78136
G1 X43.150 Y35.288 E12.80359
G1 X42.450 Y34.600 E12.83901
G1 X43.075 Y34.600 E12.86125
G1 X43.763 Y35.288 E12.89665
G1 X44.375 Y35.288 E12.91888
G1 X43.688 Y34.600 E12.95427
G1 X44.300 Y34.600 E12.97650
G1 X44.988 Y35.288 E13.01188
G1 X45.613 Y35.288 E13.03411
G1 X44.913 Y34.600 E13.06947
G1 X45.525 Y34.600 E13.09171
G1 X46.225 Y35.288 E13.12705
G1 X46.838 Y35.288 E13.14928
G1 X46.150 Y34.600 E13.18461
G1 X46.763 Y34.600 E13.20685
G1 X47.450 Y35.288 E13.24217
G1 X48.063 Y35.288 E13.26439
G1 X47.375 Y34.600 E13.29970
G1 X47.988 Y34.600 E13.32193
G1 X48.675 Y35.288 E13.35722
G1 X49.300 Y35.288 E13.37945
G1 X48.600 Y34.600 E13.41472
G1 X49.225 Y34.600 E13.43696
G1 X49.913 Y35.288 E13.47222
G1 X50.525 Y35.288 E13.49444
G1 X49.838 Y34.600 E13.52969
G1 X50.450 Y34.600 E13.55192
G1 X51.138 Y35.288 E13.58716
G1 X51.750 Y35.288 E13.60938
G1 X51.063 Y34.600 E13.64460
G1 X51.675 Y34.600 E13.66683
G1 X52.363 Y35.288 E13.70204
G1 X52.988 Y35.288 E13.72426
G1 X52.300 Y34.600 E13.75945
G1 X52.913 Y34.600 E13.78168
G1 X53.600 Y35.288 E13.81686
G1 X54.213 Y35.288 E13.83908
G1 X53.525 Y34.600 E13.87424
G1 X54.138 Y34.600 E13.89647
G1 X54.825 Y35.288 E13.93162
G1 X55.438 Y35.288 E13.95384
G1 X54.750 Y34.600 E13.98897
G1 X55.375 Y34.600 E14.01121
G1 X56.063 Y35.288 E14.04632
G1 X56.613 Y35.238
G1 X55.988 Y34.600 E14.07864
G1 X56.613 Y34.613 E14.10150
G1 F1800.000 E9.60150
G92 E0
G1 X70.750 Y34.613 F3600.000
G1 F1800.000 E4.50000
G1 X74.550 Y38.400 F1200.000 E4.69389
G1 X74.975 Y38.225 E4.71090
G1 X71.363 Y34.613 E4.89554
G1 X71.988 Y34.613 E4.91780
G1 X75.525 Y38.163 E5.09913
G1 X76.163 Y38.175 E5.12217
G1 X72.600 Y34.613 E5.30458
G1 X73.213 Y34.613
G1 X77.100 Y38.500 E5.50345
G1 X78.300 Y39.700 F3600.000
G1 X78.875 Y40.263 F1200.000 E5.53246
G1 X79.175 Y39.963
G1 X73.825 Y34.613 E5.80590
G1 X74.450 Y34.613 E5.82816
G1 X79.488 Y39.650 E6.08585
G1 X79.788 Y39.350 E6.10157
G1 X75.063 Y34.613 E6.34349
G1 X75.675 Y34.613 E6.36575
G1 X80.100 Y39.038 E6.59192
G1 X80.413 Y38.725 E6.60764
G1 X76.288 Y34.613 E6.81804
G1 X76.913 Y34.613 E6.84030
G1 X80.713 Y38.425 E7.03494
G1 X81.025 Y38.113 E7.05067
G1 X77.525 Y34.613 E7.22955
G1 X78.138 Y34.613 E7.25181
G1 X81.325 Y37.813 E7.41493
G1 X81.638 Y37.500 E7.43065
G1 X78.750 Y34.613 E7.57802
G1 X79.375 Y34.613 E7.60028
G1 X81.950 Y37.188 E7.73188
G1 X82.250 Y36.888 E7.74760
G1 X79.988 Y34.625 E7.86344
G1 X80.600 Y34.625 E7.88570
G1 X82.563 Y36.575 E7.98578
G1 X82.863 Y36.275 E8.00151
G1 X81.213 Y34.625 E8.08583
G1 X81.838 Y34.625 E8.10808
G1 X83.175 Y35.963 E8.17665
G1 X83.475 Y35.650 E8.19237
G1 X82.450 Y34.625 E8.24517
G1 X83.063 Y34.625 E8.26743
G1 X83.700 Y35.263 E8.29998
G1 F1800.000 E3.79998
G92 E0
G1 X34.375 Y55.425 F3600.000
G1 F1800.000 E4.50000
G1 X33.375 Y54.425 F1200.000 E4.55156
G1 X33.375 Y55.038 E4.57377
G1 X33.638 Y55.300 E4.58725
G1 F1800.000 E0.08725
G92 E0
G1 X41.425 Y79.413 F3600.000
G1 F1800.000 E4.50000
G1 X41.113 Y79.713 F1200.000 E4.51573
G1 X41.688 Y80.288 E4.54510
G1 X42.900 Y81.488 F3600.000
G1 X46.763 Y85.363 F1200.000 E4.74291
G1 X46.150 Y85.363
G1 X40.800 Y80.013 E5.01613
G1 X40.500 Y80.325 E5.03185
G1 X45.538 Y85.363 E5.28937
G1 X44.925 Y85.363 E5.31159
G1 X40.188 Y80.638 E5.55339
G1 X39.888 Y80.938 E5.56911
G1 X44.300 Y85.363 E5.79520
G1 X43.688 Y85.363 E5.81742
G1 X39.575 Y81.250 E6.02780
G1 X39.263 Y81.550 E6.04352
G1 X43.075 Y85.363 E6.23818
G1 X42.463 Y85.363 E6.26041
G1 X38.963 Y81.863 E6.43936
G1 X38.650 Y82.175 E6.45508
G1 X41.850 Y85.363 E6.61832
G1 X41.238 Y85.363 E6.64054
G1 X38.350 Y82.475 E6.78807
G1 X38.038 Y82.788 E6.80379
G1 X40.613 Y85.363 E6.93560
G1 X40.000 Y85.363 E6.95782
G1 X37.738 Y83.088 E7.07393
G1 X37.425 Y83.400 E7.08965
G1 X39.388 Y85.363 E7.19004
G1 X38.775 Y85.363 E7.21226
G1 X37.113 Y83.713 E7.29694
G1 X36.813 Y84.013 E7.31266
G1 X38.163 Y85.363 E7.38162
G1 X37.538 Y85.363 E7.40385
G1 X36.500 Y84.325 E7.45710
G1 X36.300 Y84.738 E7.47369
G1 X36.925 Y85.363 E7.50592
G1 X43.825 Y81.800 F3600.000
G1 X47.375 Y85.363 F1200.000 E7.68789
G1 X47.988 Y85.363 E7.71011
G1 X44.475 Y81.838 E7.89029
G1 X45.000 Y81.750 E7.90978
G1 X48.613 Y85.363 E8.09415
G1 X49.225 Y85.363 E8.11638
G1 X45.438 Y81.575 E8.30967
G1 X45.850 Y81.375 E8.32627
G1 X49.838 Y85.363 E8.52993
G1 X50.450 Y85.363
G1 X49.700 Y84.613 E8.56809
G1 X50.413 Y84.700 E8.59361
G1 X51.063 Y85.363 E8.62738
G1 X51.688 Y85.363 E8.64960
G1 X51.025 Y84.700 E8.68337
G1 X51.638 Y84.700 E8.70559
G1 X52.300 Y85.363 E8.73936
G1 X52.913 Y85.363 E8.76158
G1 X52.250 Y84.700 E8.79535
G1 X52.863 Y84.700 E8.81757
G1 X53.525 Y85.363 E8.85133
G1 X54.138 Y85.363 E8.87356
G1 X53.475 Y84.700 E8.90732
G1 X54.100 Y84.700 E8.92954
G1 X54.750 Y85.363 E8.96330
G1 X55.375 Y85.363 E8.98552
G1 X54.713 Y84.700 E9.01928
G1 X55.325 Y84.700 E9.04150
G1 X55.988 Y85.363 E9.07525
G1 X56.600 Y85.363 E9.09748
G1 X55.938 Y84.700 E9.13123
G1 X56.550 Y84.700 E9.15346
G1 X57.213 Y85.363 E9.18720
G1 X57.825 Y85.363 E9.20943
G1 X57.175 Y84.700 E9.24318
G1 X57.788 Y84.700 E9.26540
G1 X58.438 Y85.363 E9.29915
G1 X59.063 Y85.363 E9.32137
G1 X58.400 Y84.700 E9.35511
G1 X59.013 Y84.700 E9.37734
G1 X59.675 Y85.363 E9.41108
G1 X60.288 Y85.363 E9.43330
G1 X59.625 Y84.700 E9.46704
G1 X60.238 Y84.700 E9.48927
G1 X60.900 Y85.363 E9.52301
G1 X61.513 Y85.363 E9.54523
G1 X60.863 Y84.700 E9.57897
G1 X61.475 Y84.700 E9.60119
G1 X62.138 Y85.363 E9.63492
G1 X62.750 Y85.350 E9.65715
G1 X62.088 Y84.700 E9.69088
G1 X62.700 Y84.700 E9.71310
G1 X63.363 Y85.350 E9.74683
G1 X63.975 Y85.350 E9.76906
G1 X63.313 Y84.700 E9.80279
G1 X63.925 Y84.700 E9.82501
G1 X64.588 Y85.350 E9.85874
G1 X65.200 Y85.350 E9.88096
G1 X64.550 Y84.700 E9.91468
G1 X65.163 Y84.700 E9.93691
G1 X65.825 Y85.350 E9.97063
G1 X66.438 Y85.350 E9.99286
G1 X65.775 Y84.700 E10.02658
G1 X66.388 Y84.700 E10.04880
G1 X67.050 Y85.350 E10.08252
G1 X67.663 Y85.350 E10.10474
G1 X67.000 Y84.700 E10.13846
G1 X67.625 Y84.700 E10.16068
G1 X68.275 Y85.350 E10.19440
G1 X68.888 Y85.350 E10.21662
G1 X68.238 Y84.700 E10.25033
G1 X68.850 Y84.700 E10.27256
G1 X69.513 Y85.350 E10.30627
G1 X70.125 Y85.350 E10.32849
G1 X69.463 Y84.700 E10.36220
G1 X70.075 Y84.700 E10.38443
G1 X70.738 Y85.350 E10.41813
G1 X71.350 Y85.350 E10.44036
G1 X70.688 Y84.700 E10.47406
G1 X71.313 Y84.700 E10.49628
G1 X71.963 Y85.350 E10.52999
G1 X72.588 Y85.350 E10.55221
G1 X71.925 Y84.700 E10.58591
G1 X72.538 Y84.688 E10.60814
G1 X73.200 Y85.350 E10.64183
G1 X73.813 Y85.350 E10.66406
G1 X73.150 Y84.688 E10.69775
G1 X73.763 Y84.688 E10.71998
G1 X74.425 Y85.350 E10.75367
G1 X75.038 Y85.350 E10.77590
G1 X74.388 Y84.688 E10.80959
G1 X75.000 Y84.688 E10.83182
G1 X75.650 Y85.350 E10.86551
G1 X76.275 Y85.350 E10.88773
G1 X75.613 Y84.688 E10.92142
G1 X76.225 Y84.688 E10.94364
G1 X76.888 Y85.350 E10.97733
G1 X77.500 Y85.350 E10.99955
G1 X76.838 Y84.688 E11.03324
G1 X77.450 Y84.688 E11.05546
G1 X78.113 Y85.350 E11.08915
G1 X78.725 Y85.350 E11.11137
G1 X78.075 Y84.688 E11.14505
G1 X78.688 Y84.688 E11.16728
G1 X79.338 Y85.350 E11.20095
G1 X79.963 Y85.350 E11.22318
G1 X79.300 Y84.688 E11.25685
G1 X79.913 Y84.688 E11.27908
G1 X80.575 Y85.350 E11.31275
G1 X81.188 Y85.350 E11.33498
G1 X80.525 Y84.688 E11.36865
G1 X81.138 Y84.688 E11.39088
G1 X81.800 Y85.350 E11.42455
G1 X82.413 Y85.350 E11.44677
G1 X81.763 Y84.688 E11.48044
G1 X82.375 Y84.688 E11.50266
G1 X83.038 Y85.350 E11.53633
G1 X83.650 Y85.350 E11.55856
G1 X82.963 Y84.675 E11.59332
G1 X83.463 Y84.550 E11.61170
G1 X84.263 Y85.350 E11.65264
G1 X84.875 Y85.350 E11.67486
G1 X83.925 Y84.400 E11.72320
G1 X84.325 Y84.188 E11.73955
G1 X85.450 Y85.313 E11.79712
G1 X85.888 Y85.125 E11.81407
G1 X84.688 Y83.925 E11.87532
G1 X85.013 Y83.638 E11.89107
G1 X86.200 Y84.838 E11.95208
G1 X86.450 Y84.463 E11.96816
G1 X85.275 Y83.288 E12.02782
G1 X85.525 Y82.925 E12.04384
G1 X86.588 Y83.988 E12.09832
G1 X86.613 Y83.388 E12.11999
G1 X85.688 Y82.463 E12.16731
G1 X85.838 Y82.013 E12.18484
G1 X86.613 Y82.775 E12.22420
G1 X86.613 Y82.163 E12.24642
G1 X85.913 Y81.463 E12.28211
G1 X85.913 Y80.850 E12.30431
G1 X86.613 Y81.550 E12.33997
G1 X86.613 Y80.938 E12.36219
G1 X85.913 Y80.238 E12.39782
G1 X85.913 Y79.625 E12.42002
G1 X86.613 Y80.313 E12.45562
G1 X86.613 Y79.700 E12.47784
G1 X85.913 Y79.013 E12.51342
G1 X85.913 Y78.400 E12.53562
G1 X86.613 Y79.088 E12.57117
G1 X86.613 Y78.475 E12.59339
G1 X85.913 Y77.775 E12.62891
G1 X85.913 Y77.163 E12.65111
G1 X86.613 Y77.863 E12.68660
G1 X86.613 Y77.250 E12.70882
G1 X85.913 Y76.550 E12.74428
G1 X85.913 Y75.938 E12.76648
G1 X86.613 Y76.625 E12.80192
G1 X86.613 Y76.013 E12.82414
G1 X85.913 Y75.325 E12.85955
G1 X85.925 Y74.713 E12.88175
G1 X86.613 Y75.400 E12.91713
G1 X86.613 Y74.788 E12.93935
G1 X85.925 Y74.100 E12.97470
G1 X85.925 Y73.488 E12.99690
G1 X86.613 Y74.175 E13.03222
G1 X86.613 Y73.563 E13.05444
G1 X85.925 Y72.863 E13.08974
G1 X85.925 Y72.250 E13.11194
G1 X86.613 Y72.938 E13.14721
G1 X86.613 Y72.325 E13.16943
G1 X85.925 Y71.638 E13.20467
G1 X85.925 Y71.025 E13.22687
G1 X86.613 Y71.713 E13.26208
G1 X86.613 Y71.100 E13.28430
G1 X85.925 Y70.413 E13.31948
G1 X85.925 Y69.800 E13.34169
G1 X86.613 Y70.488 E13.37684
G1 X86.613 Y69.875 E13.39906
G1 X85.925 Y69.188 E13.43419
G1 X85.925 Y68.575 E13.45639
G1 X86.613 Y69.250 E13.49149
G1 X86.613 Y68.638 E13.51371
G1 X85.925 Y67.950 E13.54878
G1 X85.925 Y67.338 E13.57098
G1 X86.613 Y68.025 E13.60603
G1 X86.613 Y67.413 E13.62825
G1 X85.925 Y66.725 E13.66327
G1 X85.925 Y66.113 E13.68547
G1 X86.613 Y66.800 E13.72045
G1 X86.613 Y66.188 E13.74268
G1 X85.938 Y65.500 E13.77764
G1 X85.675 Y65.250
G1 X84.888 Y64.450 E13.81830
G1 X84.975 Y65.150
G1 X84.175 Y64.363 E13.85895
G1 X84.263 Y65.063
G1 X83.463 Y64.263 E13.89961
G1 X82.788 Y64.188 E13.92458
G1 X83.550 Y64.963 E13.96419
G1 X82.863 Y64.888 E13.98947
G1 X82.113 Y64.138 E14.02800
G1 X81.438 Y64.075 E14.05244
G1 X82.188 Y64.825 E14.09097
G1 X81.513 Y64.775 E14.11541
G1 X80.775 Y64.038 E14.15317
G1 X80.138 Y64.000 E14.17644
G1 X80.850 Y64.725 E14.21312
G1 X80.213 Y64.700 E14.23639
G1 X79.488 Y63.975 E14.27307
G1 X78.850 Y63.950 E14.29610
G1 X79.563 Y64.663 E14.33245
G1 X78.925 Y64.638 E14.35562
G1 X78.238 Y63.950 E14.39069
G1 X77.625 Y63.950 E14.41293
G1 X78.313 Y64.638 E14.44799
G1 X77.700 Y64.638 E14.47023
G1 X77.013 Y63.950 E14.50529
G1 X76.413 Y63.975 E14.52680
G1 X77.075 Y64.638 E14.56080
G1 X76.488 Y64.663 E14.58238
G1 X75.825 Y64.000 E14.61602
G1 X75.238 Y64.025 E14.63736
G1 X75.888 Y64.688 E14.67100
G1 X75.300 Y64.713 E14.69234
G1 X74.650 Y64.050 E14.72568
G1 X74.088 Y64.100 E14.74622
G1 X74.725 Y64.738 E14.77870
G1 X74.163 Y64.800 E14.79889
G1 X73.513 Y64.150 E14.83194
G1 X72.950 Y64.200 E14.85248
G1 X73.613 Y64.863 E14.88610
G1 X73.050 Y64.925 E14.90628
G1 X72.400 Y64.263 E14.93985
G1 X71.850 Y64.338 E14.95969
G1 X72.500 Y64.975 E14.99271
G1 X71.950 Y65.038 E15.01289
G1 X71.313 Y64.400 E15.04535
G1 X70.763 Y64.475 E15.06519
G1 X71.388 Y65.100 E15.09711
G1 X70.838 Y65.163 E15.11729
G1 X70.238 Y64.563 E15.14790
G1 X69.713 Y64.650 E15.16712
G1 X70.300 Y65.250 E15.19742
G1 X69.775 Y65.338 E15.21664
G1 X69.188 Y64.738 E15.24694
G1 X68.663 Y64.838 E15.26617
G1 X69.263 Y65.425 E15.29647
G1 X68.738 Y65.513 E15.31569
G1 X68.150 Y64.938 E15.34523
G1 X67.650 Y65.050 E15.36390
G1 X68.225 Y65.625 E15.39333
G1 X67.725 Y65.738 E15.41201
G1 X67.150 Y65.163 E15.44144
G1 X66.638 Y65.275 E15.46011
G1 X67.213 Y65.850 E15.48955
G1 X66.713 Y65.963 E15.50822
G1 X66.150 Y65.400 E15.53700
G1 X65.663 Y65.525 E15.55518
G1 X66.225 Y66.088 E15.58385
G1 X65.738 Y66.213 E15.60204
G1 X65.175 Y65.650 E15.63071
G1 X64.688 Y65.775 E15.64889
G1 X65.250 Y66.338 E15.67756
G1 X64.763 Y66.475 E15.69574
G1 X64.213 Y65.913 E15.72395
G1 X63.750 Y66.063 E15.74170
G1 X64.288 Y66.613 E15.76970
G1 X63.825 Y66.763 E15.78745
G1 X63.275 Y66.213 E15.81544
G1 X62.813 Y66.350 E15.83320
G1 X63.350 Y66.900 E15.86119
G1 X62.888 Y67.050 E15.87895
G1 X62.338 Y66.500 E15.90673
G1 X61.888 Y66.663 E15.92411
G1 X62.425 Y67.200 E15.95150
G1 X61.975 Y67.363 E15.96888
G1 X61.438 Y66.825 E15.99628
G1 X60.988 Y66.988 E16.01366
G1 X61.525 Y67.525 E16.04105
G1 X61.075 Y67.688 E16.05843
G1 X60.538 Y67.150 E16.08583
G1 X60.100 Y67.338 E16.10291
G1 X60.625 Y67.863 E16.12979
G1 X60.188 Y68.038 E16.14684
G1 X59.663 Y67.513 E16.17371
G1 X59.225 Y67.688 E16.19076
G1 X59.750 Y68.213 E16.21763
G1 X59.313 Y68.388 E16.23468
G1 X58.788 Y67.863 E16.26155
G1 X58.350 Y68.050 E16.27848
G1 X58.875 Y68.575 E16.30502
G1 X58.450 Y68.763 E16.32182
G1 X57.938 Y68.250 E16.34824
G1 X57.513 Y68.438 E16.36500
G1 X58.025 Y68.963 E16.39142
G1 X57.613 Y69.150 E16.40818
G1 X57.088 Y68.638 E16.43460
G1 X56.675 Y68.825 E16.45136
G1 X57.188 Y69.350 E16.47778
G1 X56.775 Y69.538 E16.49444
G1 X56.263 Y69.038 E16.52047
G1 X55.863 Y69.238 E16.53698
G1 X56.363 Y69.750 E16.56301
G1 X55.963 Y69.963 E16.57952
G1 X55.450 Y69.450 E16.60555
G1 X55.050 Y69.663 E16.62206
G1 X55.550 Y70.175 E16.64809
G1 X55.150 Y70.375 E16.66460
G1 X54.638 Y69.875 E16.69042
G1 X54.250 Y70.100 E16.70672
G1 X54.750 Y70.600 E16.73242
G1 X54.363 Y70.825 E16.74872
G1 X53.863 Y70.325 E16.77441
G1 X53.463 Y70.538 E16.79071
G1 X53.975 Y71.050 E16.81641
G1 X53.575 Y71.263 E16.83271
G1 X53.075 Y70.763 E16.85840
G1 X52.688 Y71.000 E16.87459
G1 X53.188 Y71.500 E16.90001
G1 X52.813 Y71.738 E16.91613
G1 X52.313 Y71.238 E16.94155
G1 X51.938 Y71.475 E16.95767
G1 X52.438 Y71.963 E16.98309
G1 X52.050 Y72.200 E16.99921
G1 X51.563 Y71.713 E17.02463
G1 X51.175 Y71.950 E17.04075
G1 X51.675 Y72.438 E17.06617
G1 X51.313 Y72.688 E17.08221
G1 X50.813 Y72.200 E17.10740
G1 X50.450 Y72.450 E17.12338
G1 X50.950 Y72.938 E17.14857
G1 X50.575 Y73.188 E17.16455
G1 X50.088 Y72.700 E17.18974
G1 X49.725 Y72.950 E17.20573
G1 X50.213 Y73.438 E17.23092
G1 X49.850 Y73.688 E17.24690
G1 X49.363 Y73.200 E17.27198
G1 X49.013 Y73.463 E17.28785
G1 X49.500 Y73.950 E17.31287
G1 X49.150 Y74.225 E17.32874
G1 X48.663 Y73.725 E17.35376
G1 X48.313 Y74.000 E17.36963
G1 X48.800 Y74.488 E17.39464
G1 X48.450 Y74.750 E17.41051
G1 X47.963 Y74.263 E17.43553
G1 X47.638 Y74.550 E17.45127
G1 X48.100 Y75.013 E17.47492
G1 X47.825 Y75.350 E17.49072
G1 X47.363 Y74.888 E17.51420
G1 X47.200 Y75.338 E17.53143
G1 X47.825 Y75.963 E17.56367
G1 X47.825 Y76.588 E17.58598
G1 X47.150 Y75.900 E17.62078
G1 X47.150 Y76.513 E17.64295
G1 X47.825 Y77.200 E17.67795
G1 X47.825 Y77.825 E17.70026
G1 X47.138 Y77.125 E17.73546
G1 X47.138 Y77.750 E17.75763
G1 X47.838 Y78.438 E17.79303
G1 X47.838 Y79.050 E17.81534
G1 X47.138 Y78.363 E17.85094
G1 X47.138 Y78.975 E17.87311
G1 X47.838 Y79.675 E17.90891
G1 X47.838 Y80.288 E17.93121
G1 X47.075 Y79.525 E17.97022
G1 X46.938 Y80.000 E17.98816
G1 X47.838 Y80.900 E18.03434
G1 X47.838 Y81.525 E18.05664
G1 X46.738 Y80.425 E18.11287
G1 X46.500 Y80.788 E18.12889
G1 X47.850 Y82.138 E18.19781
G1 X47.863 Y82.763 E18.22056
G1 X46.188 Y81.100 E18.30607
G1 F1800.000 E13.80607
G92 E0
G1 X85.613 Y64.563 F3600.000
G1 F1800.000 E4.50000
G1 X86.613 Y65.563 F1200.000 E4.55158
G1 X86.613 Y64.950 E4.57380
G1 X86.350 Y64.688 E4.58729
; infill_end
G1 F1800.000 E0.08729
G92 E0
; Layer: 4 Time: 89
G1 Z0.950 F3600.000
; Region: 0
; perimeter_start
G1 X62.675 Y35.988
G1 F1800.000 E4.50000
G1 X70.000 Y36.000 F900.000 E4.74380
G1 X70.563 Y36.175 E4.76326
G1 X71.063 Y36.575 E4.78482
G1 X71.275 Y36.875 E4.79695
G1 X71.438 Y37.375 E4.81451
G1 X71.463 Y44.413 E5.04859
G1 X69.763 Y45.700 E5.11969
G1 X68.075 Y46.863 E5.18761
G1 X66.350 Y47.950 E5.25560
G1 X62.763 Y49.888 E5.39125
G1 X60.900 Y50.750 E5.45924
G1 X59.013 Y51.525 E5.52722
G1 X55.150 Y52.813 E5.66288
G1 X53.175 Y53.338 E5.73086
G1 X51.175 Y53.775 E5.79877
G1 X49.163 Y54.125 E5.86669
G1 X47.138 Y54.388 E5.93460
G1 X45.100 Y54.563 E6.00258
G1 X41.025 Y54.650 E6.13823
G1 X38.988 Y54.563 E6.20622
G1 X36.950 Y54.388 E6.27413
G1 X34.750 Y54.100 E6.34774
G1 X34.750 Y38.538 E6.86516
G1 X34.838 Y37.975 E6.88436
G1 X35.050 Y37.425 E6.90378
G1 X35.375 Y36.938 E6.92320
G1 X35.800 Y36.538 E6.94269
G1 X36.413 Y36.188 E6.96590
G1 X37.088 Y36.000 E6.98917
G1 X57.313 Y35.988 E7.66206
G1 X57.313 Y35.263 E7.68597
G1 X62.675 Y35.263 E7.86422
G1 X62.675 Y35.788 E7.88149
G1 X63.363 Y35.588
G1 F1800.000 E3.38149
G92 E0
G1 X70.763 Y65.463 F3600.000
G1 F1800.000 E4.50000
G1 X71.750 Y65.338 F540.000 E4.51663
G1 X72.738 Y65.213 E4.54989
G1 X72.813 Y65.200 F600.000 E4.55207
G1 X73.738 Y65.125 E4.58315
G1 X74.738 Y65.038 F660.000 E4.61641
G1 X74.863 Y65.025 F720.000 E4.62056
G1 X75.738 Y64.988 E4.64967
G1 X76.738 Y64.950 F780.000 E4.68293
G1 X76.913 Y64.938 F840.000 E4.68905
G1 X77.738 Y64.938 E4.71619
G1 X78.975 Y64.938 F900.000 E4.75753
G1 X81.038 Y65.025 E4.82602
G1 X83.088 Y65.200 E4.89451
G1 X85.638 Y65.538 E4.98011
G1 X85.613 Y81.738 E5.51890
G1 X85.313 Y82.713 E5.55274
G1 X84.838 Y83.400 E5.58063
G1 X84.350 Y83.838 E5.60230
G1 X83.725 Y84.175 E5.62599
G1 X82.838 Y84.400 E5.65618
G1 X50.063 Y84.400 E6.74637
G1 X49.263 Y84.188 E6.77417
G1 X48.738 Y83.800 E6.79582
G1 X48.388 Y83.350 E6.81466
G1 X48.150 Y82.675 E6.83840
G1 X48.125 Y75.375 E7.08151
G1 X49.988 Y73.963 E7.15955
G1 X51.688 Y72.788 E7.22804
G1 X53.425 Y71.688 E7.29653
G1 X55.225 Y70.675 E7.36502
G1 X57.050 Y69.738 E7.43351
G1 X58.925 Y68.875 E7.50200
G1 X60.825 Y68.088 E7.57049
G1 X62.763 Y67.400 E7.63898
G1 X63.750 Y67.088 E7.67321
G1 X64.700 Y66.800 F840.000 E7.70647
G1 X64.738 Y66.788 F780.000 E7.70746
G1 X65.675 Y66.538 E7.73973
G1 X66.638 Y66.288 F720.000 E7.77299
G1 X66.725 Y66.263 F660.000 E7.77617
G1 X67.613 Y66.088 E7.80625
G1 X68.600 Y65.888 F600.000 E7.83951
G1 X69.575 Y65.700 F540.000 E7.87277
G1 X70.563 Y65.500 E7.88940
G1 X70.825 Y65.863
G1 X72.850 Y65.600 F900.000 E7.95738
G1 X74.888 Y65.425 E8.02529
G1 X76.925 Y65.338 E8.09321
G1 X78.963 Y65.338 E8.16112
G1 X81.000 Y65.425 E8.22903
G1 X83.038 Y65.600 E8.29694
G1 X85.238 Y65.888 E8.37056
G1 X85.213 Y81.675 E8.89565
G1 X84.950 Y82.538 E8.92546
G1 X84.538 Y83.138 E8.94969
G1 X84.113 Y83.500 E8.96830
G1 X83.575 Y83.800 E8.98875
G1 X82.800 Y84.000 E9.01554
G1 X50.113 Y84.000 E10.10238
G1 X49.438 Y83.825 E10.12592
G1 X49.013 Y83.513 E10.14318
G1 X48.738 Y83.163 E10.15807
G1 X48.550 Y82.613 E10.17745
G1 X48.525 Y75.575 E10.41158
G1 X50.225 Y74.288 E10.48268
G1 X51.913 Y73.125 E10.55060
G1 X53.638 Y72.038 E10.61851
G1 X55.413 Y71.025 E10.68643
G1 X57.225 Y70.088 E10.75434
G1 X59.088 Y69.238 E10.82226
G1 X60.975 Y68.463 E10.89017
G1 X62.900 Y67.775 E10.95809
G1 X64.850 Y67.175 E11.02600
G1 X66.825 Y66.650 E11.09399
G1 X70.625 Y65.900 E11.22299
G1 X71.113 Y65.113
G1 X70.575 Y64.200 F3600.000
G1 X72.663 Y63.925 F900.000 E11.29330
G1 X74.775 Y63.750 E11.36362
G1 X76.888 Y63.663 E11.43394
G1 X79.000 Y63.663 E11.50426
G1 X81.113 Y63.750 E11.57458
G1 X83.213 Y63.938 E11.64490
G1 X86.913 Y64.488 E11.76916
G1 X86.900 Y83.950 E12.41666
G1 X86.800 Y84.438 E12.43316
G1 X86.525 Y84.950 E12.45234
G1 X86.100 Y85.350 E12.47174
G1 X85.750 Y85.538 E12.48488
G1 X85.375 Y85.650 E12.49781
G1 X36.713 Y85.663 E14.11633
G1 X36.388 Y85.538 E14.12815
G1 X36.175 Y85.338 E14.13785
G1 X36.013 Y85.025 E14.14944
G1 X36.000 Y84.688 E14.16082
G1 X36.225 Y84.188 E14.17908
G1 X41.663 Y78.738 E14.43511
G1 X41.713 Y79.438 E14.45851
G1 X41.963 Y80.163 E14.48407
G1 X42.350 Y80.725 E14.50655
G1 X42.788 Y81.100 E14.52595
G1 X43.475 Y81.450 E14.55172
G1 X44.263 Y81.563 E14.57794
G1 X45.038 Y81.450 E14.60416
G1 X45.738 Y81.100 E14.63016
G1 X46.238 Y80.650 E14.65264
G1 X46.550 Y80.175 E14.67160
G1 X46.763 Y79.650 E14.69034
G1 X46.838 Y79.113 E14.70839
G1 X46.850 Y75.525 E14.82775
G1 X46.950 Y75.038 E14.84425
G1 X47.175 Y74.613 E14.86006
G1 X47.588 Y74.175 E14.88025
G1 X49.238 Y72.925 E14.94929
G1 X50.988 Y71.725 E15.01961
G1 X52.775 Y70.600 E15.08993
G1 X54.613 Y69.550 E15.16025
G1 X56.488 Y68.588 E15.23057
G1 X58.413 Y67.700 E15.30090
G1 X60.375 Y66.900 E15.37122
G1 X62.363 Y66.188 E15.44154
G1 X64.375 Y65.550 E15.51185
G1 X66.425 Y65.013 E15.58217
G1 X68.488 Y64.563 E15.65249
G1 X70.375 Y64.238 E15.71616
G1 F1800.000 E11.21616
G92 E0
G1 X63.500 Y51.400 F3600.000
G1 F1800.000 E4.50000
G1 X61.575 Y52.288 F900.000 E4.57032
G1 X59.613 Y53.088 E4.64064
G1 X57.625 Y53.800 E4.71096
G1 X55.613 Y54.438 E4.78128
G1 X53.563 Y54.975 E4.85160
G1 X51.500 Y55.425 E4.92192
G1 X49.413 Y55.788 E4.99224
G1 X47.325 Y56.063 E5.06256
G1 X45.213 Y56.238 E5.13287
G1 X43.100 Y56.325 E5.20319
G1 X40.988 Y56.325 E5.27351
G1 X38.875 Y56.238 E5.34383
G1 X36.775 Y56.050 E5.41415
G1 X33.075 Y55.500 E5.53840
G1 X33.100 Y35.938 E6.18903
G1 X33.225 Y35.463 E6.20532
G1 X33.475 Y35.038 E6.22187
G1 X33.738 Y34.763 E6.23456
G1 X34.075 Y34.525 E6.24816
G1 X34.463 Y34.375 E6.26219
G1 X34.988 Y34.300 E6.27996
G1 X56.913 Y34.300 E7.00906
G1 X56.913 Y35.588 E7.05166
G1 X37.025 Y35.600 E7.71300
G1 X36.250 Y35.813 E7.73978
G1 X35.563 Y36.213 E7.76634
G1 X35.075 Y36.688 E7.78889
G1 X34.700 Y37.238 E7.81122
G1 X34.450 Y37.863 E7.83355
G1 X34.350 Y38.513 E7.85522
G1 X34.350 Y54.450 E8.38534
G1 X36.900 Y54.788 E8.47092
G1 X38.950 Y54.963 E8.53941
G1 X41.025 Y55.050 E8.60811
G1 X45.125 Y54.963 E8.74462
G1 X47.175 Y54.788 E8.81332
G1 X49.225 Y54.525 E8.88181
G1 X51.250 Y54.163 E8.95030
G1 X53.263 Y53.725 E9.01879
G1 X55.263 Y53.200 E9.08749
G1 X59.150 Y51.900 E9.22400
G1 X61.063 Y51.113 E9.29271
G1 X62.938 Y50.250 E9.36141
G1 X66.550 Y48.300 E9.49793
G1 X68.300 Y47.200 E9.56664
G1 X70.000 Y46.025 E9.63513
G1 X71.863 Y44.613 E9.71316
G1 X71.838 Y37.313 E9.95611
G1 X71.638 Y36.700 E9.97762
G1 X71.363 Y36.300 E9.99351
G1 X70.750 Y35.813 E10.01959
G1 X70.063 Y35.600 E10.04357
G1 X63.075 Y35.588 E10.27613
G1 X63.075 Y34.300 E10.31873
G1 X83.275 Y34.325 E10.99062
G1 X83.563 Y34.425 E11.00060
G1 X83.788 Y34.613 E11.01057
G1 X83.950 Y34.875 E11.02077
G1 X84.000 Y35.138 E11.02952
G1 X83.938 Y35.525 E11.04282
G1 X83.825 Y35.725 E11.05057
G1 X78.325 Y41.225 E11.30910
G1 X78.238 Y40.350 E11.33842
G1 X78.025 Y39.813 E11.35760
G1 X77.713 Y39.338 E11.37656
G1 X77.213 Y38.888 E11.39904
G1 X76.513 Y38.538 E11.42482
G1 X75.838 Y38.425 E11.44774
G1 X75.063 Y38.513 E11.47358
G1 X74.425 Y38.775 E11.49680
G1 X73.975 Y39.113 E11.51544
G1 X73.500 Y39.700 E11.54072
G1 X73.263 Y40.238 E11.56012
G1 X73.150 Y40.875 E11.58147
G1 X73.138 Y44.463 E11.70083
G1 X73.000 Y45.025 E11.72041
G1 X72.763 Y45.450 E11.73666
G1 X72.550 Y45.688 E11.74679
G1 X70.738 Y47.075 E11.82268
G1 X69.000 Y48.263 E11.89294
G1 X67.213 Y49.388 E11.96327
G1 X65.375 Y50.438 E12.03359
G1 X63.675 Y51.313 E12.09726
G1 X63.675 Y51.763
G1 X61.738 Y52.650 E12.16815
G1 X59.763 Y53.463 E12.23905
G1 X57.750 Y54.188 E12.30994
G1 X55.725 Y54.813 E12.38083
G1 X53.663 Y55.363 E12.45173
G1 X51.575 Y55.813 E12.52262
G1 X49.475 Y56.188 E12.59351
G1 X47.363 Y56.463 E12.66441
G1 X45.238 Y56.638 E12.73530
G1 X43.113 Y56.725 E12.80619
G1 X40.975 Y56.725 E12.87709
G1 X38.850 Y56.638 E12.94798
G1 X36.725 Y56.450 E13.01887
G1 X34.613 Y56.175 E13.08976
G1 X32.675 Y55.838 E13.15520
G1 X32.700 Y35.888 E13.81877
G1 X32.850 Y35.313 E13.83856
G1 X33.150 Y34.800 E13.85843
G1 X33.475 Y34.450 E13.87412
G1 X33.888 Y34.175 E13.89063
G1 X34.363 Y33.988 E13.90779
G1 X34.963 Y33.900 E13.92806
G1 X57.313 Y33.900 E14.67134
G1 X57.313 Y34.688 E14.69725
G1 X62.675 Y34.688 E14.87550
G1 X62.675 Y33.900 E14.90140
G1 X83.350 Y33.925 E15.58891
G1 X83.763 Y34.075 E15.60349
G1 X84.100 Y34.350 E15.61806
G1 X84.325 Y34.725 E15.63271
G1 X84.413 Y35.100 E15.64549
G1 X84.313 Y35.688 E15.66533
G1 X84.138 Y35.975 E15.67637
G1 X42.638 Y77.513 E17.62912
G1 X42.350 Y77.900 E17.64551
G1 X42.150 Y78.413 E17.66362
G1 X42.075 Y78.888 E17.67951
G1 X42.100 Y79.363 E17.69548
G1 X42.313 Y79.988 E17.71738
G1 X42.650 Y80.450 E17.73636
G1 X43.013 Y80.775 E17.75241
G1 X43.600 Y81.063 E17.77438
G1 X44.263 Y81.163 E17.79651
G1 X44.913 Y81.063 E17.81863
G1 X45.513 Y80.775 E17.84068
G1 X45.925 Y80.388 E17.85965
G1 X46.200 Y79.988 E17.87555
G1 X46.363 Y79.538 E17.89138
G1 X46.438 Y79.075 E17.90697
G1 X46.450 Y75.475 E18.02675
G1 X46.575 Y74.900 E18.04639
G1 X46.838 Y74.388 E18.06580
G1 X47.313 Y73.875 E18.08901
G1 X49.013 Y72.600 E18.15947
G1 X50.763 Y71.388 E18.23037
G1 X52.575 Y70.250 E18.30127
G1 X54.425 Y69.200 E18.37216
G1 X56.313 Y68.225 E18.44306
G1 X58.250 Y67.338 E18.51395
G1 X60.225 Y66.525 E18.58485
G1 X62.238 Y65.800 E18.65574
G1 X64.263 Y65.175 E18.72664
G1 X66.325 Y64.625 E18.79753
G1 X68.413 Y64.175 E18.86842
G1 X70.513 Y63.800 E18.93932
G1 X72.625 Y63.525 E19.01021
G1 X74.750 Y63.350 E19.08110
G1 X76.875 Y63.263 E19.15199
G1 X79.013 Y63.263 E19.22289
G1 X81.138 Y63.350 E19.29378
G1 X83.263 Y63.538 E19.36467
G1 X85.375 Y63.813 E19.43557
G1 X87.313 Y64.150 E19.50101
G1 X87.300 Y84.000 E20.16115
G1 X87.175 Y84.575 E20.18101
G1 X86.838 Y85.188 E20.20413
G1 X86.338 Y85.675 E20.22733
G1 X85.900 Y85.913 E20.24368
G1 X85.438 Y86.050 E20.25996
G1 X36.638 Y86.063 E21.88288
G1 X36.175 Y85.875 E21.89969
G1 X35.850 Y85.575 E21.91438
G1 X35.625 Y85.125 E21.93112
G1 X35.588 Y84.625 E21.94779
G1 X35.750 Y84.150 E21.96475
G1 X35.913 Y83.925 E21.97400
G1 X77.363 Y42.463 E23.92369
G1 X77.663 Y42.025 E23.94160
G1 X77.838 Y41.575 E23.95748
G1 X77.913 Y41.100 E23.97345
G1 X77.838 Y40.450 E23.99528
G1 X77.663 Y40.000 E24.01125
G1 X77.400 Y39.600 E24.02715
G1 X76.988 Y39.213 E24.04613
G1 X76.388 Y38.925 E24.06811
G1 X75.825 Y38.825 E24.08723
G1 X75.163 Y38.900 E24.10922
G1 X74.625 Y39.125 E24.12891
G1 X74.250 Y39.400 E24.14424
G1 X73.838 Y39.913 E24.16605
G1 X73.650 Y40.350 E24.18209
G1 X73.550 Y40.900 E24.20070
G1 X73.538 Y44.513 E24.32047
G1 X73.375 Y45.175 E24.34348
G1 X73.088 Y45.688 E24.36303
G1 X72.825 Y45.975 E24.37585
G1 X70.975 Y47.388 E24.45331
G1 X69.225 Y48.600 E24.52419
G1 X67.413 Y49.738 E24.59509
G1 X65.563 Y50.788 E24.66598
G1 X63.850 Y51.675 E24.73023
G1 X63.013 Y51.313
; perimeter_end
; infill_start
G1 F1800.000 E20.23023
G92 E0
G1 X62.575 Y34.888 F3600.000
G1 F1800.000 E4.50000
G1 X57.413 Y35.063 F600.000 E4.59852
G1 X52.050 Y34.600 F3600.000
G1 X51.350 Y35.288 F1200.000 E4.63109
G1 X46.388 Y34.600 E4.79780
G1 X45.688 Y35.300 E4.83065
G1 X43.838 Y35.100 F3600.000
G1 X43.625 Y35.300 F1200.000 E4.84164
G1 X42.988 Y35.300 E4.86613
G1 X43.688 Y34.600 E4.90374
G1 X43.038 Y34.600 E4.92821
G1 X42.338 Y35.300 E4.96586
G1 X41.688 Y35.300 E4.99035
G1 X42.388 Y34.600 E5.02803
G1 X41.750 Y34.600 E5.05250
G1 X41.050 Y35.300 E5.09022
G1 X40.400 Y35.300 E5.11471
G1 X41.100 Y34.600 E5.15246
G1 X40.463 Y34.600 E5.17693
G1 X39.750 Y35.300 E5.21472
G1 X39.113 Y35.300 E5.23921
G1 X39.813 Y34.600 E5.27704
G1 X39.163 Y34.600 E5.30150
G1 X38.463 Y35.313 E5.33937
G1 X37.813 Y35.313 E5.36386
G1 X38.525 Y34.600 E5.40176
G1 X37.875 Y34.600 E5.42622
G1 X37.175 Y35.313 E5.46416
G1 X37.238 Y34.600
G1 X36.350 Y35.475 E5.51126
G1 X36.588 Y34.600
G1 X33.388 Y37.800 E5.68274
G1 X33.388 Y38.438
G1 X34.250 Y37.588 E5.72879
G1 X34.075 Y38.413 E5.76067
G1 X33.388 Y39.088 E5.79728
G1 X33.388 Y39.738 E5.82178
G1 X34.063 Y39.063 E5.85775
G1 X34.063 Y39.713 E5.88222
G1 X33.438 Y40.325 E5.91529
G1 X33.775 Y40.638 E5.93260
G1 X34.063 Y40.350 E5.94783
G1 X33.388 Y37.150 F3600.000
G1 X35.938 Y34.600 F1200.000 E6.08466
G1 X35.300 Y34.600 E6.10913
G1 X33.388 Y36.500 E6.21133
G1 X33.438 Y35.813 E6.23751
G1 X34.600 Y34.650 E6.29982
G1 X33.425 Y40.638 F3600.000
G1 X33.425 Y40.638 F1200.000 E6.30022
G1 X33.475 Y40.700
G1 X33.388 Y40.775 E6.30422
G1 X34.063 Y45.763 E6.47155
G1 X33.375 Y46.438 E6.50339
G1 X34.063 Y51.425 E6.67057
G1 X33.375 Y52.100 E6.70264
G1 X35.538 Y55.600 F3600.000
G1 X36.150 Y54.988 F1200.000 E6.73140
G1 X40.775 Y56.025 E6.88882
G1 X41.450 Y55.338 E6.92102
G1 X46.625 Y55.825 E7.09389
G1 X47.388 Y55.063 E7.12971
G1 X53.400 Y54.700 E7.33002
G1 X54.363 Y53.750 E7.37510
G1 X62.000 Y51.763 F3600.000
G1 X63.450 Y50.313 F1200.000 E7.44350
G1 F1800.000 E2.94350
G92 E0
G1 X72.150 Y41.613 F3600.000
G1 F1800.000 E4.50000
G1 X72.850 Y40.913 F1200.000 E4.53275
G1 X75.613 Y38.150 F3600.000
G1 X79.150 Y34.613 F1200.000 E4.69875
G1 X71.750 Y36.350 F3600.000
G1 X73.500 Y34.613 F1200.000 E4.78061
G1 X67.850 Y34.613 E4.96856
G1 X67.163 Y35.300 E5.00094
G1 F1800.000 E0.50094
G92 E0
G1 X66.438 Y66.025 F3600.000
G1 F1800.000 E4.50000
G1 X67.350 Y65.113 F1200.000 E4.54286
G1 X73.250 Y64.863 E4.73961
G1 X74.013 Y64.113 E4.77502
G1 X79.125 Y64.650 E4.94629
G1 X79.788 Y63.988 E4.97722
G1 X84.975 Y64.463 E5.15038
G1 X84.363 Y65.075 E5.17914
G1 F1800.000 E0.67914
G92 E0
G1 X86.613 Y68.475 F3600.000
G1 F1800.000 E4.50000
G1 X85.925 Y69.163 F1200.000 E4.53235
G1 X85.925 Y74.825 E4.72075
G1 X86.613 Y74.138 E4.75333
G1 F1800.000 E0.25333
G92 E0
G1 X75.875 Y84.875 F3600.000
G1 F1800.000 E4.50000
G1 X75.388 Y85.350 F1200.000 E4.52243
G1 X70.400 Y84.700 E4.69013
G1 X69.738 Y85.350 E4.72115
G1 X64.738 Y84.700 E4.88884
G1 X64.075 Y85.350 E4.91989
G1 X59.075 Y84.700 E5.08757
G1 X58.413 Y85.363 E5.11863
G1 X53.425 Y84.700 E5.28630
G1 X52.763 Y85.363 E5.31738
G1 X48.488 Y83.975 F3600.000
G1 X47.100 Y85.363 F1200.000 E5.38272
G1 X45.063 Y81.750 F3600.000
G1 X41.438 Y85.363 F1200.000 E5.55284
G1 X36.300 Y84.850 E5.72465
G1 X41.475 Y79.675 E5.96799
G1 F1800.000 E1.46799
G92 E0
G1 X47.025 Y79.775 F3600.000
G1 F1800.000 E4.50000
G1 X47.838 Y78.975 F1200.000 E4.53816
G1 F1800.000 E0.03816
G92 E0
G1 X57.688 Y69.113 F3600.000
G1 F1800.000 E4.50000
G1 X59.038 Y67.763 F1200.000 E4.56345
G1 F1800.000 E0.06345
G92 E0
G1 X86.575 Y79.388 F3600.000
G1 F1800.000 E4.50000
G1 X86.575 Y79.388 F1200.000 E4.50040
G1 X85.913 Y79.650
G1 X86.225 Y79.338 E4.51705
G1 X86.538 Y79.675 E4.53435
G1 X85.913 Y80.300 E4.56770
G1 X85.913 Y80.938 E4.59217
G1 X86.613 Y80.238 E4.62960
G1 X86.613 Y80.888 E4.65405
G1 X85.913 Y81.588 E4.69150
G1 X85.700 Y82.438 E4.72466
G1 X86.613 Y81.538 E4.77313
G1 X86.613 Y82.175
G1 X83.438 Y85.350 E4.94316
G1 X84.075 Y85.350 E4.96761
G1 X86.613 Y82.825 E5.10306
G1 X86.613 Y83.463 E5.12751
G1 X84.725 Y85.350 E5.22837
G1 X85.400 Y85.325 E5.25377
G1 X86.550 Y84.163 E5.31579
G1 X83.638 Y84.500 F3600.000
G1 X82.788 Y85.350 F1200.000 E5.36103
G1 X82.150 Y85.350 E5.38548
G1 X82.800 Y84.688 E5.42080
G1 X82.163 Y84.688 E5.44524
G1 X81.500 Y85.350 E5.48056
G1 X80.863 Y85.350 E5.50501
G1 X81.513 Y84.688 E5.54033
G1 X80.875 Y84.688 E5.56478
G1 X80.213 Y85.350 E5.60010
G1 X79.563 Y85.350 E5.62455
G1 X80.225 Y84.688 E5.65988
G1 X79.575 Y84.688 E5.68432
G1 X78.925 Y85.350 E5.71965
G1 X78.275 Y85.350 E5.74410
G1 X78.938 Y84.688 E5.77943
G1 X78.288 Y84.688 E5.80388
G1 X77.638 Y85.350 E5.83921
G1 X76.988 Y85.350 E5.86366
G1 X77.650 Y84.688 E5.89900
G1 X77.000 Y84.688 E5.92344
G1 X76.338 Y85.350 E5.95878
G1 X76.038 Y85.013 E5.97610
G1 X76.363 Y84.688 E5.99297
; infill_end
G1 F1800.000 E1.49297
G92 E0
; Layer: 5 Time: 91
G1 Z1.150 F3600.000
; Region: 0
; perimeter_start
G1 X62.675 Y35.988
G1 F1800.000 E4.50000
G1 X69.863 Y35.988 F900.000 E4.73928
G1 X70.488 Y36.138 E4.76064
G1 X70.975 Y36.475 E4.78024
G1 X71.313 Y36.963 E4.79985
G1 X71.463 Y37.588 E4.82121
G1 X71.463 Y44.413 E5.04854
G1 X69.763 Y45.700 E5.11963
G1 X68.075 Y46.863 E5.18754
G1 X66.350 Y47.950 E5.25546
G1 X64.575 Y48.963 E5.32337
G1 X62.763 Y49.900 E5.39129
G1 X60.900 Y50.750 E5.45920
G1 X59.013 Y51.525 E5.52712
G1 X57.088 Y52.213 E5.59503
G1 X55.138 Y52.813 E5.66295
G1 X53.175 Y53.338 E5.73086
G1 X51.175 Y53.775 E5.79877
G1 X49.163 Y54.125 E5.86668
G1 X47.138 Y54.388 E5.93460
G1 X45.100 Y54.563 E6.00251
G1 X43.063 Y54.650 E6.07042
G1 X41.025 Y54.650 E6.13834
G1 X38.988 Y54.563 E6.20625
G1 X36.950 Y54.388 E6.27416
G1 X34.750 Y54.100 E6.34777
G1 X34.750 Y38.650 E6.86150
G1 X34.838 Y38.000 E6.88324
G1 X35.113 Y37.325 E6.90755
G1 X35.463 Y36.850 E6.92714
G1 X35.988 Y36.400 E6.95027
G1 X36.513 Y36.150 E6.96976
G1 X37.088 Y36.000 E6.98925
G1 X57.313 Y35.988 E7.66206
G1 X57.313 Y35.450 E7.67986
G1 X62.675 Y35.450 E7.85812
G1 X62.675 Y35.788 E7.86926
G1 X63.363 Y35.588
G1 F1800.000 E3.36926
G92 E0
G1 X68.813 Y66.213 F3600.000
G1 F1800.000 E4.50000
G1 X70.825 Y65.863 F900.000 E4.56791
G1 X72.850 Y65.600 E4.63583
G1 X74.888 Y65.425 E4.70374
G1 X76.925 Y65.338 E4.77165
G1 X78.963 Y65.338 E4.83956
G1 X81.000 Y65.425 E4.90748
G1 X83.038 Y65.600 E4.97539
G1 X85.238 Y65.888 E5.04900
G1 X85.213 Y81.675 E5.57389
G1 X85.075 Y82.238 E5.59338
G1 X84.813 Y82.763 E5.61280
G1 X84.450 Y83.225 E5.63221
G1 X83.988 Y83.588 E5.65170
G1 X83.363 Y83.875 E5.67484
G1 X82.788 Y84.000 E5.69425
G1 X62.675 Y84.000 E6.36334
G1 X62.675 Y84.750 E6.38809
G1 X57.313 Y84.750 E6.56634
G1 X57.313 Y84.000 E6.59109
G1 X50.188 Y84.000 E6.82799
G1 X49.638 Y83.900 E6.84678
G1 X49.238 Y83.700 E6.86160
G1 X48.913 Y83.400 E6.87627
G1 X48.675 Y83.038 E6.89087
G1 X48.563 Y82.675 E6.90353
G1 X48.525 Y75.575 E7.13971
G1 X50.225 Y74.288 E7.21082
G1 X51.913 Y73.125 E7.27873
G1 X53.638 Y72.038 E7.34665
G1 X55.413 Y71.025 E7.41457
G1 X57.225 Y70.088 E7.48248
G1 X59.088 Y69.238 E7.55040
G1 X60.975 Y68.463 E7.61831
G1 X62.900 Y67.775 E7.68622
G1 X64.850 Y67.175 E7.75414
G1 X66.813 Y66.650 E7.82205
G1 X68.613 Y66.250 E7.88331
G1 X69.075 Y65.463
G1 X68.738 Y65.825
G1 X66.725 Y66.263 E7.95180
G1 X64.738 Y66.788 E8.02029
G1 X62.763 Y67.400 E8.08878
G1 X60.825 Y68.088 E8.15726
G1 X58.925 Y68.875 E8.22575
G1 X57.050 Y69.738 E8.29424
G1 X55.225 Y70.675 E8.36273
G1 X53.425 Y71.688 E8.43122
G1 X51.688 Y72.788 E8.49971
G1 X49.988 Y73.963 E8.56820
G1 X48.125 Y75.375 E8.64626
G1 X48.163 Y82.738 E8.89127
G1 X48.313 Y83.200 E8.90769
G1 X48.600 Y83.663 E8.92565
G1 X49.013 Y84.025 E8.94382
G1 X49.500 Y84.288 E8.96244
G1 X50.163 Y84.400 E8.98444
G1 X56.913 Y84.400 E9.20920
G1 X56.913 Y85.688 E9.25177
G1 X36.763 Y85.675 E9.92185
G1 X36.425 Y85.550 E9.93390
G1 X36.163 Y85.325 E9.94527
G1 X36.013 Y85.025 E9.95664
G1 X35.988 Y84.663 E9.96852
G1 X36.063 Y84.438 E9.97627
G1 X36.275 Y84.125 E9.98893
G1 X41.650 Y78.738 E10.24230
G1 X41.725 Y79.538 E10.26904
G1 X41.963 Y80.175 E10.29147
G1 X42.350 Y80.725 E10.31395
G1 X42.863 Y81.163 E10.33643
G1 X43.475 Y81.450 E10.35891
G1 X44.150 Y81.563 E10.38139
G1 X44.813 Y81.500 E10.40387
G1 X45.463 Y81.275 E10.42657
G1 X46.088 Y80.813 E10.45256
G1 X46.550 Y80.175 E10.47856
G1 X46.788 Y79.513 E10.50199
G1 X46.863 Y75.438 E10.63785
G1 X46.988 Y74.963 E10.65405
G1 X47.225 Y74.538 E10.67008
G1 X47.588 Y74.175 E10.68720
G1 X49.238 Y72.925 E10.75645
G1 X50.988 Y71.725 E10.82677
G1 X52.775 Y70.600 E10.89709
G1 X54.613 Y69.550 E10.96742
G1 X56.488 Y68.588 E11.03774
G1 X58.413 Y67.700 E11.10806
G1 X60.375 Y66.900 E11.17838
G1 X62.363 Y66.188 E11.24870
G1 X64.375 Y65.550 E11.31902
G1 X66.425 Y65.013 E11.38934
G1 X68.488 Y64.563 E11.45966
G1 X70.575 Y64.200 E11.52997
G1 X72.663 Y63.925 E11.60029
G1 X74.775 Y63.750 E11.67061
G1 X76.888 Y63.663 E11.74093
G1 X79.000 Y63.663 E11.81125
G1 X81.113 Y63.750 E11.88157
G1 X83.213 Y63.938 E11.95188
G1 X86.913 Y64.488 E12.07615
G1 X86.900 Y83.950 E12.72365
G1 X86.800 Y84.450 E12.74037
G1 X86.575 Y84.863 E12.75621
