; filename = 1.3w
; print_time = 1886
; machine = dv1NW0A000
; facets = 492
; total_layers = 28
; version = 20100610
; total_filament = 822.93
; nozzle_diameter = 0.40
; nozzle_type = 57
; first_layer_height = 0.35
; layer_height = 0.20
; avoid_crossing_perimeters = 0
; bridge_detect = 0
; bridge_flow_ratio = 0.90
; support_material = 0
; extruder_filament = 822.93:0.00
; extruder = 1
; temperature = 210
; bed_temperature = 0
; non_double_speed = 1
; preheating_time = 0,0,0
; filamentid = 50,50
; materialid = 0
; fill_density = 0.10
; infill_expand = 0.000
; raft_layers = 0
; shells = 2
; speed = 20.000
; brim_width = 0.000
; dimension = 45.88:48.11:5.75
; original_dimension = 45.88:48.11:5.69
; boundingbox_x1 = 37.06
; boundingbox_y1 = 35.95
; boundingbox_x2 = 82.94
; boundingbox_y2 = 84.05
; resolution = 0.0400
; top_solid_layers = 5
; bottom_solid_layers = 3
; fill_pattern = rectilinear
; perimeter_speed = 15.000
; external_perimeter_speed = 15.000
; small_perimeter_speed = 15.000
; top_solid_infill_speed = 20.000
; solid_infill_speed = 20.000
; bridge_speed = 10.000
; travel_speed = 60.000
; retract_speed = 30
; retract_length = 4.500
; retract_before_travel = 2.000
; retract_lift = 0.000
; retract_restart_extra = 0.000
; retract_layer_change = 1
; only_retract_when_crossing_perimeters = 1
; first_layer_speed = 10.000
; extrusion_multiplier_perimeter = 1.000
; extrusion_multiplier_infill = 1.000
; extrusion_multiplier_gapfill = 1.000
; extrusion_multiplier_solid_infill = 1.000
; extrusion_multiplier_top_infill = 1.000
; Call_From_APP = XYZprint V2.0.5_2A14512
; speed_limit_open = 0

; infill_type = 0
; Seam_Corner_Preference = 0
G21 ; set units to millimeters
M107
M104 S210 ; set temperature
M109 S210 ; wait for temperature to be reached
M191
G90 ; use absolute coordinates
G92 E0
M82 ; use absolute distances for extrusion
G1 F1800.000 E-4.50000
G92 E0
; Layer: 1 Time: 92
G1 Z0.350 F3600.000
; skirt start
G1 X3.000 Y1.000
G1 F1800.000 E4.50000
G1 X5.000 Y1.000 F600.000 E4.96245
G1 X5.000 Y101.000 E28.08519
G1 X3.000 Y101.000 E28.54765
G1 X3.000 Y1.788 E51.48667
; skirt end
; Region: 0
; perimeter_start
G1 F1800.000 E46.98667
G92 E0
G1 X37.375 Y82.538 F3600.000
G1 F1800.000 E4.50000
G1 X82.613 Y82.538 F600.000 E8.68470
G1 X82.613 Y83.725 E8.79542
G1 X37.375 Y83.725 E12.98012
G1 X37.375 Y82.850 E13.06145
G1 X38.475 Y83.175
G1 F1800.000 E8.56145
G92 E0
G1 X57.288 Y62.038 F3600.000
G1 F1800.000 E4.50000
G1 X57.213 Y61.813 F600.000 E4.51052
G1 X57.663 Y61.588 E4.53388
G1 X57.813 Y61.800 E4.54625
G1 X57.888 Y61.900 E4.55707
G1 X58.413 Y62.363 E4.62223
G1 X59.050 Y62.675 E4.68740
G1 X60.088 Y62.900 E4.78542
G1 X60.938 Y62.675 E4.86754
G1 X61.575 Y62.363 E4.93271
G1 X62.100 Y61.900 E4.99659
G1 X62.100 Y61.900 E4.99787
G1 X62.325 Y61.588 E5.03342
G1 X62.775 Y61.813 E5.08014
G1 X62.738 Y61.913 E5.08909
G1 X62.700 Y62.038 E5.10118
G1 X62.050 Y62.613 E5.18158
G1 X61.900 Y62.750 E5.20007
G1 X61.188 Y63.113 E5.27407
G1 X61.188 Y63.125 E5.27495
G1 X60.400 Y63.313 E5.34985
G1 X60.213 Y63.313 E5.36656
G1 X59.588 Y63.313 E5.42476
G1 X59.225 Y63.225 E5.45905
G1 X58.800 Y63.125 E5.49966
G1 X58.300 Y62.863 E5.55154
G1 X58.088 Y62.750 E5.56304
G1 X57.525 Y62.250 E5.59779
G1 F1800.000 E1.09779
G92 E0
G1 X57.663 Y58.400 F3600.000
G1 F1800.000 E4.50000
G1 X57.213 Y58.175 F600.000 E4.52336
G1 X57.288 Y57.950 E4.53388
G1 X57.488 Y57.775 E4.54625
G1 X58.088 Y57.238 E4.62040
G1 X58.800 Y56.863 E4.69528
G1 X59.588 Y56.675 E4.77018
G1 X60.400 Y56.675 E4.84509
G1 X61.188 Y56.863 E4.91999
G1 X61.900 Y57.238 E4.99487
G1 X61.913 Y57.250 E4.99642
G1 X62.663 Y57.925 E5.08891
G1 X62.700 Y57.950 E5.09376
G1 X62.775 Y58.175 E5.11480
G1 X62.325 Y58.400 E5.16152
G1 X62.200 Y58.225 E5.18140
G1 X62.100 Y58.088 E5.19707
G1 X61.575 Y57.625 E5.26223
G1 X61.463 Y57.575 E5.27389
G1 X60.938 Y57.313 E5.32740
G1 X60.538 Y57.213 E5.36638
G1 X60.088 Y57.088 E5.40952
G1 X59.563 Y57.200 E5.45887
G1 X59.050 Y57.313 E5.50754
G1 X58.625 Y57.525 E5.55137
G1 X58.413 Y57.625 E5.56204
G1 X57.850 Y58.150 E5.59761
G1 F1800.000 E1.09761
G92 E0
G1 X37.375 Y37.450 F3600.000
G1 F1800.000 E4.50000
G1 X37.375 Y36.263 F600.000 E4.61072
G1 X82.613 Y36.263 E8.79542
G1 X82.613 Y37.450 E8.90615
G1 X37.688 Y37.450 E13.06145
G1 X37.975 Y36.413
G1 F1800.000 E8.56145
G92 E0
G1 X60.463 Y53.375 F3600.000
G1 F1800.000 E4.50000
G1 X62.438 Y53.813 F600.000 E4.68606
G1 X70.650 Y41.700 E6.03932
G1 X78.500 Y46.250 E6.87805
G1 X62.888 Y57.750 E8.67118
G1 X63.038 Y58.163
G1 X82.700 Y58.163 E10.49066
G1 X82.700 Y61.825 E10.82981
G1 X63.038 Y61.825 E12.64929
G1 X62.888 Y62.238
G1 X78.500 Y73.738 E14.44242
G1 X70.650 Y78.287 E15.28115
G1 X62.438 Y66.175 E16.63441
G1 X60.463 Y66.613 E16.82114
G1 X62.513 Y82.188 E18.27442
G1 F1800.000 E13.77442
G92 E0
G1 X57.475 Y82.188 F3600.000
G1 F1800.000 E4.50000
G1 X59.525 Y66.612 F600.000 E5.95278
G1 X60.238 Y66.625 E6.01885
G1 X59.525 Y66.613
G1 X57.550 Y66.175 E6.20491
G1 X49.338 Y78.287 E7.55817
G1 X41.487 Y73.738 E8.39691
G1 X57.100 Y62.238 E10.19004
G1 X56.950 Y61.825
G1 X37.288 Y61.825 E12.00952
G1 X37.288 Y58.163 E12.34866
G1 X56.950 Y58.163 E14.16814
G1 X57.100 Y57.750
G1 X41.487 Y46.250 E15.96127
G1 X49.338 Y41.700 E16.80001
G1 X57.450 Y53.662 E18.13694
G1 X58.038 Y53.700 E18.19144
G1 X57.563 Y53.813 E18.23748
G1 X58.663 Y53.513 E18.34329
G1 X60.500 Y53.388 E18.51441
G1 X60.100 Y53.363 E18.55162
G1 X60.487 Y53.137
G1 X62.513 Y37.800 E19.98283
G1 F1800.000 E15.48283
G92 E0
G1 X57.475 Y37.800 F3600.000
G1 F1800.000 E4.50000
G1 X59.500 Y53.137 F600.000 E5.93121
G1 F1800.000 E1.43121
G92 E0
G1 X60.000 Y57.788 F3600.000
G1 F1800.000 E4.50000
G1 X60.000 Y62.500 F600.000 E4.93649
; perimeter_end
; infill_start
G1 F1800.000 E0.43649
G92 E0
G1 X37.975 Y36.850 F3600.000
G1 F1800.000 E4.50000
G1 X82.013 Y36.850 F600.000 E7.87588
G1 F1800.000 E3.37588
G92 E0
G1 X82.013 Y83.138 F3600.000
G1 F1800.000 E4.50000
G1 X37.975 Y83.138 F600.000 E7.87588
; infill_end
G1 F1800.000 E3.37588
G92 E0
; Layer: 2 Time: 66
G1 Z0.550 F3600.000
; Region: 0
; perimeter_start
G1 X37.650 Y83.450
G1 F1800.000 E4.50000
G1 X37.650 Y82.813 F900.000 E4.52105
G1 X82.337 Y82.813 E6.00711
G1 X82.337 Y83.450 E6.02815
G1 X37.850 Y83.450 E7.50757
G1 X37.250 Y83.850
G1 X37.250 Y82.413 E7.55522
G1 X82.738 Y82.413 E9.06789
G1 X82.738 Y83.850 E9.11554
G1 X37.450 Y83.850 E10.62156
G1 X37.650 Y83.150
G1 F1800.000 E6.12156
G92 E0
G1 X57.188 Y62.100 F3600.000
G1 F1800.000 E4.50000
G1 X57.075 Y61.763 F900.000 E4.51193
G1 X57.700 Y61.425 E4.53550
G1 X57.975 Y61.813 E4.55125
G1 X58.488 Y62.263 E4.57370
G1 X59.088 Y62.563 E4.59616
G1 X60.000 Y62.763 E4.62706
G1 X60.900 Y62.563 E4.65795
G1 X61.500 Y62.263 E4.68041
G1 X62.013 Y61.813 E4.70286
G1 X62.288 Y61.425 E4.71861
G1 X62.913 Y61.763 E4.74218
G1 X62.800 Y62.100 E4.75411
G1 X61.975 Y62.838 E4.79121
G1 X61.225 Y63.238 E4.81909
G1 X60.413 Y63.438 E4.84698
G1 X59.575 Y63.438 E4.87487
G1 X58.763 Y63.238 E4.90275
G1 X58.013 Y62.838 E4.93063
G1 X57.338 Y62.238 E4.96108
G1 X57.375 Y61.800
G1 F1800.000 E0.46108
G92 E0
G1 X57.700 Y58.563 F3600.000
G1 F1800.000 E4.50000
G1 X57.075 Y58.225 F900.000 E4.52357
G1 X57.188 Y57.888 E4.53550
G1 X58.013 Y57.150 E4.57260
G1 X58.763 Y56.750 E4.60048
G1 X59.575 Y56.550 E4.62836
G1 X60.413 Y56.550 E4.65625
G1 X61.225 Y56.750 E4.68414
G1 X61.975 Y57.150 E4.71202
G1 X62.800 Y57.888 E4.74912
G1 X62.913 Y58.225 E4.76105
G1 X62.288 Y58.563 E4.78462
G1 X62.013 Y58.175 E4.80037
G1 X61.500 Y57.725 E4.82282
G1 X60.900 Y57.425 E4.84528
G1 X60.000 Y57.225 E4.87617
G1 X59.088 Y57.425 E4.90707
G1 X58.488 Y57.725 E4.92953
G1 X57.975 Y58.175 E4.95198
G1 X57.813 Y58.400 E4.96108
G1 X57.350 Y57.938
G1 F1800.000 E0.46108
G92 E0
G1 X37.650 Y37.175 F3600.000
G1 F1800.000 E4.50000
G1 X37.650 Y36.538 F900.000 E4.52105
G1 X82.337 Y36.538 E6.00711
G1 X82.337 Y37.175 E6.02815
G1 X37.850 Y37.175 E7.50757
G1 X37.250 Y37.575
G1 X37.250 Y36.138 E7.55522
G1 X82.738 Y36.138 E9.06789
G1 X82.738 Y37.575 E9.11554
G1 X37.450 Y37.575 E10.62156
G1 X37.650 Y36.875
G1 F1800.000 E6.12156
G92 E0
G1 X62.888 Y57.750 F3600.000
G1 F1800.000 E4.50000
G1 X78.500 Y46.250 F900.000 E5.14482
G1 X70.650 Y41.700 E5.44643
G1 X62.438 Y53.813 E5.93307
G1 X61.325 Y53.513 E5.97119
G1 X60.000 Y53.350 E6.01587
G1 X58.663 Y53.513 E6.06054
G1 X57.550 Y53.813 E6.09866
G1 X49.338 Y41.700 E6.58530
G1 X41.487 Y46.250 E6.88692
G1 X57.100 Y57.750 E7.53173
G1 X56.950 Y58.163
G1 X37.288 Y58.163 E8.18602
G1 X37.288 Y61.825 E8.30798
G1 X56.950 Y61.825 E8.96228
G1 X57.100 Y62.238
G1 X41.487 Y73.738 E9.60709
G1 X49.338 Y78.287 E9.90870
G1 X57.550 Y66.175 E10.39534
G1 X59.525 Y66.613 E10.46225
G1 X60.238 Y66.625
G1 X59.525 Y66.612 E10.48601
G1 X57.475 Y82.188 E11.00844
G1 F1800.000 E6.50844
G92 E0
G1 X62.513 Y82.188 F3600.000
G1 F1800.000 E4.50000
G1 X60.463 Y66.613 F900.000 E5.02261
G1 X62.438 Y66.175 E5.08975
G1 X70.650 Y78.287 E5.57639
G1 X78.500 Y73.738 E5.87800
G1 X62.888 Y62.238 E6.52282
G1 X63.038 Y61.825
G1 X82.700 Y61.825 E7.17711
G1 X82.700 Y58.163 E7.29907
G1 X63.038 Y58.163 E7.95336
G1 F1800.000 E3.45336
G92 E0
G1 X60.000 Y57.450 F3600.000
G1 F1800.000 E4.50000
G1 X59.988 Y62.538 F900.000 E4.66891
G1 F1800.000 E0.16891
G92 E0
G1 X59.500 Y53.137 F3600.000
G1 F1800.000 E4.50000
G1 X57.475 Y37.800 F900.000 E5.01467
G1 F1800.000 E0.51467
G92 E0
G1 X62.513 Y37.800 F3600.000
G1 F1800.000 E4.50000
G1 X60.487 Y53.137 F900.000 E5.01467
; perimeter_end
; infill_start
G1 F1800.000 E0.51467
G92 E0
G1 X82.000 Y36.850 F3600.000
G1 F1800.000 E4.50000
G1 X37.988 Y36.850 F600.000 E5.48317
G1 F1800.000 E0.98317
G92 E0
G1 X57.588 Y58.075 F3600.000
G1 F1800.000 E4.50000
G1 X58.288 Y57.400 F600.000 E4.52813
G1 X58.963 Y57.063 E4.54967
G1 X59.538 Y56.913 E4.56669
G1 X60.288 Y56.900 E4.58836
G1 X61.025 Y57.063 E4.60993
G1 X61.700 Y57.400 E4.63150
G1 X62.538 Y58.175 E4.66440
G1 F1800.000 E0.16440
G92 E0
G1 X62.400 Y61.913 F3600.000
G1 F1800.000 E4.50000
G1 X61.700 Y62.588 F600.000 E4.52809
G1 X61.025 Y62.925 E4.54960
G1 X60.288 Y63.100 E4.57122
G1 X59.700 Y63.088 E4.58821
G1 X58.963 Y62.925 E4.60974
G1 X58.288 Y62.588 E4.63128
G1 X57.450 Y61.813 E4.66414
G1 F1800.000 E0.16414
G92 E0
G1 X37.988 Y83.138 F3600.000
G1 F1800.000 E4.50000
G1 X82.000 Y83.138 F600.000 E5.48317
; infill_end
G1 F1800.000 E0.98317
G92 E0
; Layer: 3 Time: 66
G1 Z0.750 F3600.000
; Region: 0
; perimeter_start
G1 X82.337 Y82.813
G1 F1800.000 E4.50000
G1 X82.337 Y83.450 F900.000 E4.52105
G1 X37.650 Y83.450 E6.00711
G1 X37.650 Y82.813 E6.02815
G1 X82.138 Y82.813 E7.50757
G1 X82.738 Y82.413
G1 X82.738 Y83.850 E7.55522
G1 X37.250 Y83.850 E9.06789
G1 X37.250 Y82.413 E9.11554
G1 X82.537 Y82.413 E10.62156
G1 X82.337 Y83.113
G1 F1800.000 E6.12156
G92 E0
G1 X62.800 Y62.100 F3600.000
G1 F1800.000 E4.50000
G1 X61.975 Y62.838 F900.000 E4.53709
G1 X61.225 Y63.238 E4.56498
G1 X60.413 Y63.438 E4.59286
G1 X59.575 Y63.438 E4.62075
G1 X58.763 Y63.238 E4.64864
G1 X58.013 Y62.838 E4.67652
G1 X57.188 Y62.100 E4.71362
G1 X57.075 Y61.763 E4.72555
G1 X57.700 Y61.425 E4.74912
G1 X57.975 Y61.813 E4.76487
G1 X58.488 Y62.263 E4.78732
G1 X59.088 Y62.563 E4.80978
G1 X60.000 Y62.763 E4.84067
G1 X60.900 Y62.563 E4.87157
G1 X61.500 Y62.263 E4.89402
G1 X62.013 Y61.813 E4.91648
G1 X62.288 Y61.425 E4.93223
G1 X62.913 Y61.763 E4.95579
G1 X62.863 Y61.913 E4.96108
G1 X62.013 Y61.988
G1 F1800.000 E0.46108
G92 E0
G1 X62.288 Y58.563 F3600.000
G1 F1800.000 E4.50000
G1 X62.013 Y58.175 F900.000 E4.51575
G1 X61.500 Y57.725 E4.53820
G1 X60.900 Y57.425 E4.56066
G1 X60.000 Y57.225 E4.59156
G1 X59.088 Y57.425 E4.62245
G1 X58.488 Y57.725 E4.64491
G1 X57.975 Y58.175 E4.66736
G1 X57.700 Y58.563 E4.68311
G1 X57.075 Y58.225 E4.70668
G1 X57.188 Y57.888 E4.71861
G1 X58.013 Y57.150 E4.75571
G1 X58.763 Y56.750 E4.78359
G1 X59.575 Y56.550 E4.81147
G1 X60.413 Y56.550 E4.83936
G1 X61.225 Y56.750 E4.86725
G1 X61.975 Y57.150 E4.89513
G1 X62.800 Y57.888 E4.93223
G1 X62.913 Y58.225 E4.94416
G1 X62.463 Y58.463 E4.96108
G1 X62.263 Y58.088
G1 F1800.000 E0.46108
G92 E0
G1 X82.337 Y37.175 F3600.000
G1 F1800.000 E4.50000
G1 X37.650 Y37.175 F900.000 E5.98606
G1 X37.650 Y36.538 E6.00711
G1 X82.337 Y36.538 E7.49317
G1 X82.337 Y36.975 E7.50757
G1 X82.738 Y37.575
G1 X37.250 Y37.575 E9.02024
G1 X37.250 Y36.138 E9.06789
G1 X82.738 Y36.138 E10.58056
G1 X82.738 Y37.375 E10.62156
G1 X82.038 Y37.175
G1 F1800.000 E6.12156
G92 E0
G1 X62.888 Y57.750 F3600.000
G1 F1800.000 E4.50000
G1 X78.500 Y46.250 F900.000 E5.14482
G1 X70.650 Y41.700 E5.44643
G1 X62.438 Y53.813 E5.93307
G1 X61.325 Y53.513 E5.97119
G1 X60.000 Y53.350 E6.01587
G1 X58.663 Y53.513 E6.06054
G1 X57.550 Y53.813 E6.09866
G1 X49.338 Y41.700 E6.58530
G1 X41.487 Y46.250 E6.88692
G1 X57.100 Y57.750 E7.53173
G1 X56.950 Y58.163
G1 X37.288 Y58.163 E8.18602
G1 X37.288 Y61.825 E8.30798
G1 X56.950 Y61.825 E8.96228
G1 X57.100 Y62.238
G1 X41.487 Y73.738 E9.60709
G1 X49.338 Y78.287 E9.90870
G1 X57.550 Y66.175 E10.39534
G1 X59.525 Y66.613 E10.46225
G1 X60.238 Y66.625
G1 X59.525 Y66.612 E10.48601
G1 X57.475 Y82.188 E11.00844
G1 F1800.000 E6.50844
G92 E0
G1 X62.513 Y82.188 F3600.000
G1 F1800.000 E4.50000
G1 X60.463 Y66.613 F900.000 E5.02261
G1 X62.438 Y66.175 E5.08975
G1 X70.650 Y78.287 E5.57639
G1 X78.500 Y73.738 E5.87800
G1 X62.888 Y62.238 E6.52282
G1 X63.038 Y61.825
G1 X82.700 Y61.825 E7.17711
G1 X82.700 Y58.163 E7.29907
G1 X63.038 Y58.163 E7.95336
G1 F1800.000 E3.45336
G92 E0
G1 X60.000 Y57.450 F3600.000
G1 F1800.000 E4.50000
G1 X59.988 Y62.538 F900.000 E4.66891
G1 F1800.000 E0.16891
G92 E0
G1 X59.500 Y53.137 F3600.000
G1 F1800.000 E4.50000
G1 X57.475 Y37.800 F900.000 E5.01467
G1 F1800.000 E0.51467
G92 E0
G1 X62.513 Y37.800 F3600.000
G1 F1800.000 E4.50000
G1 X60.487 Y53.137 F900.000 E5.01467
; perimeter_end
; infill_start
G1 F1800.000 E0.51467
G92 E0
G1 X82.000 Y36.850 F3600.000
G1 F1800.000 E4.50000
G1 X37.988 Y36.850 F600.000 E5.48317
G1 F1800.000 E0.98317
G92 E0
G1 X57.588 Y58.075 F3600.000
G1 F1800.000 E4.50000
G1 X58.288 Y57.400 F600.000 E4.52813
G1 X58.963 Y57.063 E4.54967
G1 X59.538 Y56.913 E4.56669
G1 X60.288 Y56.900 E4.58836
G1 X61.025 Y57.063 E4.60993
G1 X61.700 Y57.400 E4.63150
G1 X62.538 Y58.175 E4.66440
G1 F1800.000 E0.16440
G92 E0
G1 X62.400 Y61.913 F3600.000
G1 F1800.000 E4.50000
G1 X61.700 Y62.588 F600.000 E4.52809
G1 X61.025 Y62.925 E4.54960
G1 X60.288 Y63.100 E4.57122
G1 X59.700 Y63.088 E4.58821
G1 X58.963 Y62.925 E4.60974
G1 X58.288 Y62.588 E4.63128
G1 X57.450 Y61.813 E4.66414
G1 F1800.000 E0.16414
G92 E0
G1 X37.988 Y83.138 F3600.000
G1 F1800.000 E4.50000
G1 X82.000 Y83.138 F600.000 E5.48317
; infill_end
G1 F1800.000 E0.98317
G92 E0
; Layer: 4 Time: 66
G1 Z0.950 F3600.000
; Region: 0
; perimeter_start
G1 X82.337 Y82.813
G1 F1800.000 E4.50000
G1 X82.337 Y83.450 F900.000 E4.52105
G1 X37.650 Y83.450 E6.00711
G1 X37.650 Y82.813 E6.02815
G1 X82.138 Y82.813 E7.50757
G1 X82.738 Y82.413
G1 X82.738 Y83.850 E7.55522
G1 X37.250 Y83.850 E9.06789
G1 X37.250 Y82.413 E9.11554
G1 X82.537 Y82.413 E10.62156
G1 X82.337 Y83.113
G1 F1800.000 E6.12156
G92 E0
G1 X62.800 Y62.100 F3600.000
G1 F1800.000 E4.50000
G1 X61.975 Y62.838 F900.000 E4.53709
G1 X61.225 Y63.238 E4.56498
G1 X60.413 Y63.438 E4.59286
G1 X59.575 Y63.438 E4.62075
G1 X58.763 Y63.238 E4.64864
G1 X58.013 Y62.838 E4.67652
G1 X57.188 Y62.100 E4.71362
G1 X57.075 Y61.763 E4.72555
G1 X57.700 Y61.425 E4.74912
G1 X57.975 Y61.813 E4.76487
G1 X58.488 Y62.263 E4.78732
G1 X59.088 Y62.563 E4.80978
G1 X60.000 Y62.763 E4.84067
G1 X60.900 Y62.563 E4.87157
G1 X61.500 Y62.263 E4.89402
G1 X62.013 Y61.813 E4.91648
G1 X62.288 Y61.425 E4.93223
G1 X62.913 Y61.763 E4.95579
G1 X62.863 Y61.913 E4.96108
G1 X62.013 Y61.988
G1 F1800.000 E0.46108
G92 E0
G1 X62.288 Y58.563 F3600.000
G1 F1800.000 E4.50000
G1 X62.013 Y58.175 F900.000 E4.51575
G1 X61.500 Y57.725 E4.53820
G1 X60.900 Y57.425 E4.56066
G1 X60.000 Y57.225 E4.59156
G1 X59.088 Y57.425 E4.62245
G1 X58.488 Y57.725 E4.64491
G1 X57.975 Y58.175 E4.66736
G1 X57.700 Y58.563 E4.68311
G1 X57.075 Y58.225 E4.70668
G1 X57.188 Y57.888 E4.71861
G1 X58.013 Y57.150 E4.75571
G1 X58.763 Y56.750 E4.78359
G1 X59.575 Y56.550 E4.81147
G1 X60.413 Y56.550 E4.83936
G1 X61.225 Y56.750 E4.86725
G1 X61.975 Y57.150 E4.89513
G1 X62.800 Y57.888 E4.93223
G1 X62.913 Y58.225 E4.94416
G1 X62.463 Y58.463 E4.96108
G1 X62.263 Y58.088
G1 F1800.000 E0.46108
G92 E0
G1 X82.337 Y37.175 F3600.000
G1 F1800.000 E4.50000
G1 X37.650 Y37.175 F900.000 E5.98606
G1 X37.650 Y36.538 E6.00711
G1 X82.337 Y36.538 E7.49317
G1 X82.337 Y36.975 E7.50757
G1 X82.738 Y37.575
G1 X37.250 Y37.575 E9.02024
G1 X37.250 Y36.138 E9.06789
G1 X82.738 Y36.138 E10.58056
G1 X82.738 Y37.375 E10.62156
G1 X82.038 Y37.175
G1 F1800.000 E6.12156
G92 E0
G1 X62.888 Y57.750 F3600.000
G1 F1800.000 E4.50000
G1 X78.500 Y46.250 F900.000 E5.14482
G1 X70.650 Y41.700 E5.44643
G1 X62.438 Y53.813 E5.93307
G1 X61.325 Y53.513 E5.97119
G1 X60.000 Y53.350 E6.01587
G1 X58.663 Y53.513 E6.06054
G1 X57.550 Y53.813 E6.09866
G1 X49.338 Y41.700 E6.58530
G1 X41.487 Y46.250 E6.88692
G1 X57.100 Y57.750 E7.53173
G1 X56.950 Y58.163
G1 X37.288 Y58.163 E8.18602
G1 X37.288 Y61.825 E8.30798
G1 X56.950 Y61.825 E8.96228
G1 X57.100 Y62.238
G1 X41.487 Y73.738 E9.60709
G1 X49.338 Y78.287 E9.90870
G1 X57.550 Y66.175 E10.39534
G1 X59.525 Y66.613 E10.46225
G1 X60.238 Y66.625
G1 X59.525 Y66.612 E10.48601
G1 X57.475 Y82.188 E11.00844
G1 F1800.000 E6.50844
G92 E0
G1 X62.513 Y82.188 F3600.000
G1 F1800.000 E4.50000
G1 X60.463 Y66.613 F900.000 E5.02261
G1 X62.438 Y66.175 E5.08975
G1 X70.650 Y78.287 E5.57639
G1 X78.500 Y73.738 E5.87800
G1 X62.888 Y62.238 E6.52282
G1 X63.038 Y61.825
G1 X82.700 Y61.825 E7.17711
G1 X82.700 Y58.163 E7.29907
G1 X63.038 Y58.163 E7.95336
G1 F1800.000 E3.45336
G92 E0
G1 X60.000 Y57.450 F3600.000
G1 F1800.000 E4.50000
G1 X59.988 Y62.538 F900.000 E4.66891
G1 F1800.000 E0.16891
G92 E0
G1 X59.500 Y53.137 F3600.000
G1 F1800.000 E4.50000
G1 X57.475 Y37.800 F900.000 E5.01467
G1 F1800.000 E0.51467
G92 E0
G1 X62.513 Y37.800 F3600.000
G1 F1800.000 E4.50000
G1 X60.487 Y53.137 F900.000 E5.01467
; perimeter_end
; infill_start
G1 F1800.000 E0.51467
G92 E0
G1 X82.000 Y36.850 F3600.000
G1 F1800.000 E4.50000
G1 X37.988 Y36.850 F600.000 E5.48317
G1 F1800.000 E0.98317
G92 E0
G1 X57.588 Y58.075 F3600.000
G1 F1800.000 E4.50000
G1 X58.288 Y57.400 F600.000 E4.52813
G1 X58.963 Y57.063 E4.54967
G1 X59.538 Y56.913 E4.56669
G1 X60.288 Y56.900 E4.58836
G1 X61.025 Y57.063 E4.60993
G1 X61.700 Y57.400 E4.63150
G1 X62.538 Y58.175 E4.66440
G1 F1800.000 E0.16440
G92 E0
G1 X62.400 Y61.913 F3600.000
G1 F1800.000 E4.50000
G1 X61.700 Y62.588 F600.000 E4.52809
G1 X61.025 Y62.925 E4.54960
G1 X60.288 Y63.100 E4.57122
G1 X59.700 Y63.088 E4.58821
G1 X58.963 Y62.925 E4.60974
G1 X58.288 Y62.588 E4.63128
G1 X57.450 Y61.813 E4.66414
G1 F1800.000 E0.16414
G92 E0
G1 X37.988 Y83.138 F3600.000
G1 F1800.000 E4.50000
G1 X82.000 Y83.138 F600.000 E5.48317
; infill_end
G1 F1800.000 E0.98317
G92 E0
; Layer: 5 Time: 66
G1 Z1.150 F3600.000
; Region: 0
; perimeter_start
G1 X82.337 Y82.813
G1 F1800.000 E4.50000
G1 X82.337 Y83.450 F900.000 E4.52105
G1 X37.650 Y83.450 E6.00711
G1 X37.650 Y82.813 E6.02815
G1 X82.138 Y82.813 E7.50757
G1 X82.738 Y82.413
G1 X82.738 Y83.850 E7.55522
G1 X37.250 Y83.850 E9.06789
G1 X37.250 Y82.413 E9.11554
G1 X82.537 Y82.413 E10.62156
G1 X82.337 Y83.113
G1 F1800.000 E6.12156
G92 E0
G1 X62.800 Y62.100 F3600.000
G1 F1800.000 E4.50000
G1 X61.975 Y62.838 F900.000 E4.53709
G1 X61.225 Y63.238 E4.56498
G1 X60.413 Y63.438 E4.59286
G1 X59.575 Y63.438 E4.62075
G1 X58.763 Y63.238 E4.64864
G1 X58.013 Y62.838 E4.67652
G1 X57.188 Y62.100 E4.71362
G1 X57.075 Y61.763 E4.72555
G1 X57.700 Y61.425 E4.74912
G1 X57.975 Y61.813 E4.76487
G1 X58.488 Y62.263 E4.78732
G1 X59.088 Y62.563 E4.80978
G1 X60.000 Y62.763 E4.84067
G1 X60.900 Y62.563 E4.87157
G1 X61.500 Y62.263 E4.89402
G1 X62.013 Y61.813 E4.91648
G1 X62.288 Y61.425 E4.93223
G1 X62.913 Y61.763 E4.95579
G1 X62.863 Y61.913 E4.96108
G1 X62.013 Y61.988
G1 F1800.000 E0.46108
G92 E0
G1 X62.288 Y58.563 F3600.000
G1 F1800.000 E4.50000
G1 X62.013 Y58.175 F900.000 E4.51575
G1 X61.500 Y57.725 E4.53820
G1 X60.900 Y57.425 E4.56066
G1 X60.000 Y57.225 E4.59156
G1 X59.088 Y57.425 E4.62245
G1 X58.488 Y57.725 E4.64491
G1 X57.975 Y58.175 E4.66736
G1 X57.700 Y58.563 E4.68311
G1 X57.075 Y58.225 E4.70668
G1 X57.188 Y57.888 E4.71861
G1 X58.013 Y57.150 E4.75571
G1 X58.763 Y56.750 E4.78359
G1 X59.575 Y56.550 E4.81147
G1 X60.413 Y56.550 E4.83936
G1 X61.225 Y56.750 E4.86725
G1 X61.975 Y57.150 E4.89513
G1 X62.800 Y57.888 E4.93223
G1 X62.913 Y58.225 E4.94416
G1 X62.463 Y58.463 E4.96108
G1 X62.263 Y58.088
G1 F1800.000 E0.46108
G92 E0
G1 X82.337 Y37.175 F3600.000
G1 F1800.000 E4.50000
G1 X37.650 Y37.175 F900.000 E5.98606
G1 X37.650 Y36.538 E6.00711
G1 X82.337 Y36.538 E7.49317
G1 X82.337 Y36.975 E7.50757
G1 X82.738 Y37.575
G1 X37.250 Y37.575 E9.02024
G1 X37.250 Y36.138 E9.06789
G1 X82.738 Y36.138 E10.58056
G1 X82.738 Y37.375 E10.62156
G1 X82.038 Y37.175
G1 F1800.000 E6.12156
G92 E0
G1 X62.888 Y57.750 F3600.000
G1 F1800.000 E4.50000
G1 X78.500 Y46.250 F900.000 E5.14482
G1 X70.650 Y41.700 E5.44643
G1 X62.438 Y53.813 E5.93307
G1 X61.325 Y53.513 E5.97119
G1 X60.000 Y53.350 E6.01587
G1 X58.663 Y53.513 E6.06054
G1 X57.550 Y53.813 E6.09866
G1 X49.338 Y41.700 E6.58530
G1 X41.487 Y46.250 E6.88692
G1 X57.100 Y57.750 E7.53173
G1 X56.950 Y58.163
G1 X37.288 Y58.163 E8.18602
G1 X37.288 Y61.825 E8.30798
G1 X56.950 Y61.825 E8.96228
G1 X57.100 Y62.238
G1 X41.487 Y73.738 E9.60709
G1 X49.338 Y78.287 E9.90870
G1 X57.550 Y66.175 E10.39534
G1 X59.525 Y66.613 E10.46225
G1 X60.238 Y66.625
G1 X59.525 Y66.612 E10.48601
G1 X57.475 Y82.188 E11.00844
G1 F1800.000 E6.50844
G92 E0
G1 X62.513 Y82.188 F3600.000
G1 F1800.000 E4.50000
G1 X60.463 Y66.613 F900.000 E5.02261
G1 X62.438 Y66.175 E5.08975
G1 X70.650 Y78.287 E5.57639
G1 X78.500 Y73.738 E5.87800
G1 X62.888 Y62.238 E6.52282
G1 X63.038 Y61.825
G1 X82.700 Y61.825 E7.17711
G1 X82.700 Y58.163 E7.29907
G1 X63.038 Y58.163 E7.95336
G1 F1800.000 E3.45336
G92 E0
G1 X60.000 Y57.450 F3600.000
G1 F1800.000 E4.50000
G1 X59.988 Y62.538 F900.000 E4.66891
G1 F1800.000 E0.16891
G92 E0
G1 X59.500 Y53.137 F3600.000
G1 F1800.000 E4.50000
G1 X57.475 Y37.800 F900.000 E5.01467
G1 F1800.000 E0.51467
G92 E0
G1 X62.513 Y37.800 F3600.000
G1 F1800.000 E4.50000
G1 X60.487 Y53.137 F900.000 E5.01467
; perimeter_end
; infill_start
G1 F1800.000 E0.51467
G92 E0
G1 X82.000 Y36.850 F3600.000
G1 F1800.000 E4.50000
G1 X37.988 Y36.850 F600.000 E5.48317
G1 F1800.000 E0.98317
G92 E0
G1 X57.588 Y58.075 F3600.000
G1 F1800.000 E4.50000
G1 X58.288 Y57.400 F600.000 E4.52813
G1 X58.963 Y57.063 E4.54967
G1 X59.538 Y56.913 E4.56669
G1 X60.288 Y56.900 E4.58836
G1 X61.025 Y57.063 E4.60993
G1 X61.700 Y57.400 E4.63150
G1 X62.538 Y58.175 E4.66440
G1 F1800.000 E0.16440
G92 E0
G1 X62.400 Y61.913 F3600.000
G1 F1800.000 E4.50000
G1 X61.700 Y62.588 F600.000 E4.52809
G1 X61.025 Y62.925 E4.54960
G1 X60.288 Y63.100 E4.57122
G1 X59.700 Y63.088 E4.58821
G1 X58.963 Y62.925 E4.60974
G1 X58.288 Y62.588 E4.63128
G1 X57.450 Y61.813 E4.66414
G1 F1800.000 E0.16414
G92 E0
G1 X37.988 Y83.138 F3600.000
G1 F1800.000 E4.50000
G1 X82.000 Y83.138 F600.000 E5.48317
; infill_end
G1 F1800.000 E0.98317
G92 E0
; Layer: 6 Time: 66
G1 Z1.350 F3600.000
; Region: 0
; perimeter_start
G1 X82.337 Y82.813
G1 F1800.000 E4.50000
G1 X82.337 Y83.450 F900.000 E4.52105
G1 X37.650 Y83.450 E6.00711
G1 X37.650 Y82.813 E6.02815
G1 X82.138 Y82.813 E7.50757
G1 X82.738 Y82.413
G1 X82.738 Y83.850 E7.55522
G1 X37.250 Y83.850 E9.06789
G1 X37.250 Y82.413 E9.11554
G1 X82.537 Y82.413 E10.62156
G1 X82.337 Y83.113
G1 F1800.000 E6.12156
G92 E0
G1 X62.800 Y62.100 F3600.000
G1 F1800.000 E4.50000
G1 X61.975 Y62.838 F900.000 E4.53709
G1 X61.225 Y63.238 E4.56498
G1 X60.413 Y63.438 E4.59286
G1 X59.575 Y63.438 E4.62075
G1 X58.763 Y63.238 E4.64864
G1 X58.013 Y62.838 E4.67652
G1 X57.188 Y62.100 E4.71362
G1 X57.075 Y61.763 E4.72555
G1 X57.700 Y61.425 E4.74912
G1 X57.975 Y61.813 E4.76487
G1 X58.488 Y62.263 E4.78732
G1 X59.088 Y62.563 E4.80978
G1 X60.000 Y62.763 E4.84067
G1 X60.900 Y62.563 E4.87157
G1 X61.500 Y62.263 E4.89402
G1 X62.013 Y61.813 E4.91648
G1 X62.288 Y61.425 E4.93223
G1 X62.913 Y61.763 E4.95579
G1 X62.863 Y61.913 E4.96108
G1 X62.013 Y61.988
G1 F1800.000 E0.46108
G92 E0
G1 X62.288 Y58.563 F3600.000
G1 F1800.000 E4.50000
G1 X62.013 Y58.175 F900.000 E4.51575
G1 X61.500 Y57.725 E4.53820
G1 X60.900 Y57.425 E4.56066
G1 X60.000 Y57.225 E4.59156
G1 X59.088 Y57.425 E4.62245
G1 X58.488 Y57.725 E4.64491
G1 X57.975 Y58.175 E4.66736
G1 X57.700 Y58.563 E4.68311
G1 X57.075 Y58.225 E4.70668
G1 X57.188 Y57.888 E4.71861
G1 X58.013 Y57.150 E4.75571
G1 X58.763 Y56.750 E4.78359
G1 X59.575 Y56.550 E4.81147
G1 X60.413 Y56.550 E4.83936
G1 X61.225 Y56.750 E4.86725
G1 X61.975 Y57.150 E4.89513
G1 X62.800 Y57.888 E4.93223
G1 X62.913 Y58.225 E4.94416
G1 X62.463 Y58.463 E4.96108
G1 X62.263 Y58.088
G1 F1800.000 E0.46108
G92 E0
G1 X82.337 Y37.175 F3600.000
G1 F1800.000 E4.50000
G1 X37.650 Y37.175 F900.000 E5.98606
G1 X37.650 Y36.538 E6.00711
G1 X82.337 Y36.538 E7.49317
G1 X82.337 Y36.975 E7.50757
G1 X82.738 Y37.575
G1 X37.250 Y37.575 E9.02024
G1 X37.250 Y36.138 E9.06789
G1 X82.738 Y36.138 E10.58056
G1 X82.738 Y37.375 E10.62156
G1 X82.038 Y37.175
G1 F1800.000 E6.12156
G92 E0
G1 X62.888 Y57.750 F3600.000
G1 F1800.000 E4.50000
G1 X78.500 Y46.250 F900.000 E5.14482
G1 X70.650 Y41.700 E5.44643
G1 X62.438 Y53.813 E5.93307
G1 X61.325 Y53.513 E5.97119
G1 X60.000 Y53.350 E6.01587
G1 X58.663 Y53.513 E6.06054
G1 X57.550 Y53.813 E6.09866
G1 X49.338 Y41.700 E6.58530
G1 X41.487 Y46.250 E6.88692
G1 X57.100 Y57.750 E7.53173
G1 X56.950 Y58.163
G1 X37.288 Y58.163 E8.18602
G1 X37.288 Y61.825 E8.30798
G1 X56.950 Y61.825 E8.96228
G1 X57.100 Y62.238
G1 X41.487 Y73.738 E9.60709
G1 X49.338 Y78.287 E9.90870
G1 X57.550 Y66.175 E10.39534
G1 X59.525 Y66.613 E10.46225
G1 X60.238 Y66.625
G1 X59.525 Y66.612 E10.48601
G1 X57.475 Y82.188 E11.00844
G1 F1800.000 E6.50844
G92 E0
G1 X62.513 Y82.188 F3600.000
G1 F1800.000 E4.50000
G1 X60.463 Y66.613 F900.000 E5.02261
G1 X62.438 Y66.175 E5.08975
G1 X70.650 Y78.287 E5.57639
G1 X78.500 Y73.738 E5.87800
G1 X62.888 Y62.238 E6.52282
G1 X63.038 Y61.825
G1 X82.700 Y61.825 E7.17711
G1 X82.700 Y58.163 E7.29907
G1 X63.038 Y58.163 E7.95336
G1 F1800.000 E3.45336
G92 E0
G1 X60.000 Y57.450 F3600.000
G1 F1800.000 E4.50000
G1 X59.988 Y62.538 F900.000 E4.66891
G1 F1800.000 E0.16891
G92 E0
G1 X59.500 Y53.137 F3600.000
G1 F1800.000 E4.50000
G1 X57.475 Y37.800 F900.000 E5.01467
G1 F1800.000 E0.51467
G92 E0
G1 X62.513 Y37.800 F3600.000
G1 F1800.000 E4.50000
G1 X60.487 Y53.137 F900.000 E5.01467
; perimeter_end
; infill_start
G1 F1800.000 E0.51467
G92 E0
G1 X82.000 Y36.850 F3600.000
G1 F1800.000 E4.50000
G1 X37.988 Y36.850 F600.000 E5.48317
G1 F1800.000 E0.98317
G92 E0
G1 X57.588 Y58.075 F3600.000
G1 F1800.000 E4.50000
G1 X58.288 Y57.400 F600.000 E4.52813
G1 X58.963 Y57.063 E4.54967
G1 X59.538 Y56.913 E4.56669
G1 X60.288 Y56.900 E4.58836
G1 X61.025 Y57.063 E4.60993
G1 X61.700 Y57.400 E4.63150
G1 X62.538 Y58.175 E4.66440
G1 F1800.000 E0.16440
G92 E0
G1 X62.400 Y61.913 F3600.000
G1 F1800.000 E4.50000
G1 X61.700 Y62.588 F600.000 E4.52809
G1 X61.025 Y62.925 E4.54960
G1 X60.288 Y63.100 E4.57122
G1 X59.700 Y63.088 E4.58821
G1 X58.963 Y62.925 E4.60974
G1 X58.288 Y62.588 E4.63128
G1 X57.450 Y61.813 E4.66414
G1 F1800.000 E0.16414
G92 E0
G1 X37.988 Y83.138 F3600.000
G1 F1800.000 E4.50000
G1 X82.000 Y83.138 F600.000 E5.48317
; infill_end
G1 F1800.000 E0.98317
G92 E0
; Layer: 7 Time: 66
G1 Z1.550 F3600.000
; Region: 0
; perimeter_start
G1 X82.337 Y82.813
G1 F1800.000 E4.50000
G1 X82.337 Y83.450 F900.000 E4.52105
G1 X37.650 Y83.450 E6.00711
G1 X37.650 Y82.813 E6.02815
G1 X82.138 Y82.813 E7.50757
G1 X82.738 Y82.413
G1 X82.738 Y83.850 E7.55522
G1 X37.250 Y83.850 E9.06789
G1 X37.250 Y82.413 E9.11554
G1 X82.537 Y82.413 E10.62156
G1 X82.337 Y83.113
G1 F1800.000 E6.12156
G92 E0
G1 X62.800 Y62.100 F3600.000
G1 F1800.000 E4.50000
G1 X61.975 Y62.838 F900.000 E4.53709
G1 X61.225 Y63.238 E4.56498
G1 X60.413 Y63.438 E4.59286
G1 X59.575 Y63.438 E4.62075
G1 X58.763 Y63.238 E4.64864
G1 X58.013 Y62.838 E4.67652
G1 X57.188 Y62.100 E4.71362
G1 X57.075 Y61.763 E4.72555
G1 X57.700 Y61.425 E4.74912
G1 X57.975 Y61.813 E4.76487
G1 X58.488 Y62.263 E4.78732
G1 X59.088 Y62.563 E4.80978
G1 X60.000 Y62.763 E4.84067
G1 X60.900 Y62.563 E4.87157
G1 X61.500 Y62.263 E4.89402
G1 X62.013 Y61.813 E4.91648
G1 X62.288 Y61.425 E4.93223
G1 X62.913 Y61.763 E4.95579
G1 X62.863 Y61.913 E4.96108
G1 X62.013 Y61.988
G1 F1800.000 E0.46108
G92 E0
G1 X62.288 Y58.563 F3600.000
G1 F1800.000 E4.50000
G1 X62.013 Y58.175 F900.000 E4.51575
G1 X61.500 Y57.725 E4.53820
G1 X60.900 Y57.425 E4.56066
G1 X60.000 Y57.225 E4.59156
G1 X59.088 Y57.425 E4.62245
G1 X58.488 Y57.725 E4.64491
G1 X57.975 Y58.175 E4.66736
G1 X57.700 Y58.563 E4.68311
G1 X57.075 Y58.225 E4.70668
G1 X57.188 Y57.888 E4.71861
G1 X58.013 Y57.150 E4.75571
G1 X58.763 Y56.750 E4.78359
G1 X59.575 Y56.550 E4.81147
G1 X60.413 Y56.550 E4.83936
G1 X61.225 Y56.750 E4.86725
G1 X61.975 Y57.150 E4.89513
G1 X62.800 Y57.888 E4.93223
G1 X62.913 Y58.225 E4.94416
G1 X62.463 Y58.463 E4.96108
G1 X62.263 Y58.088
G1 F1800.000 E0.46108
G92 E0
G1 X82.337 Y37.175 F3600.000
G1 F1800.000 E4.50000
G1 X37.650 Y37.175 F900.000 E5.98606
G1 X37.650 Y36.538 E6.00711
G1 X82.337 Y36.538 E7.49317
G1 X82.337 Y36.975 E7.50757
G1 X82.738 Y37.575
G1 X37.250 Y37.575 E9.02024
G1 X37.250 Y36.138 E9.06789
G1 X82.738 Y36.138 E10.58056
G1 X82.738 Y37.375 E10.62156
G1 X82.038 Y37.175
G1 F1800.000 E6.12156
G92 E0
G1 X62.888 Y57.750 F3600.000
G1 F1800.000 E4.50000
G1 X78.500 Y46.250 F900.000 E5.14482
G1 X70.650 Y41.700 E5.44643
G1 X62.438 Y53.813 E5.93307
G1 X61.325 Y53.513 E5.97119
G1 X60.000 Y53.350 E6.01587
G1 X58.663 Y53.513 E6.06054
G1 X57.550 Y53.813 E6.09866
G1 X49.338 Y41.700 E6.58530
G1 X41.487 Y46.250 E6.88692
G1 X57.100 Y57.750 E7.53173
G1 X56.950 Y58.163
G1 X37.288 Y58.163 E8.18602
G1 X37.288 Y61.825 E8.30798
G1 X56.950 Y61.825 E8.96228
G1 X57.100 Y62.238
G1 X41.487 Y73.738 E9.60709
G1 X49.338 Y78.287 E9.90870
G1 X57.550 Y66.175 E10.39534
G1 X59.525 Y66.613 E10.46225
G1 X60.238 Y66.625
G1 X59.525 Y66.612 E10.48601
G1 X57.475 Y82.188 E11.00844
G1 F1800.000 E6.50844
G92 E0
G1 X62.513 Y82.188 F3600.000
G1 F1800.000 E4.50000
G1 X60.463 Y66.613 F900.000 E5.02261
G1 X62.438 Y66.175 E5.08975
G1 X70.650 Y78.287 E5.57639
G1 X78.500 Y73.738 E5.87800
G1 X62.888 Y62.238 E6.52282
G1 X63.038 Y61.825
G1 X82.700 Y61.825 E7.17711
G1 X82.700 Y58.163 E7.29907
G1 X63.038 Y58.163 E7.95336
G1 F1800.000 E3.45336
G92 E0
G1 X60.000 Y57.450 F3600.000
G1 F1800.000 E4.50000
G1 X59.988 Y62.538 F900.000 E4.66891
G1 F1800.000 E0.16891
G92 E0
G1 X59.500 Y53.137 F3600.000
G1 F1800.000 E4.50000
G1 X57.475 Y37.800 F900.000 E5.01467
G1 F1800.000 E0.51467
G92 E0
G1 X62.513 Y37.800 F3600.000
G1 F1800.000 E4.50000
G1 X60.487 Y53.137 F900.000 E5.01467
; perimeter_end
; infill_start
G1 F1800.000 E0.51467
G92 E0
G1 X82.000 Y36.850 F3600.000
G1 F1800.000 E4.50000
G1 X37.988 Y36.850 F600.000 E5.48317
G1 F1800.000 E0.98317
G92 E0
G1 X57.588 Y58.075 F3600.000
G1 F1800.000 E4.50000
G1 X58.288 Y57.400 F600.000 E4.52813
G1 X58.963 Y57.063 E4.54967
G1 X59.538 Y56.913 E4.56669
G1 X60.288 Y56.900 E4.58836
G1 X61.025 Y57.063 E4.60993
G1 X61.700 Y57.400 E4.63150
G1 X62.538 Y58.175 E4.66440
G1 F1800.000 E0.16440
G92 E0
G1 X62.400 Y61.913 F3600.000
G1 F1800.000 E4.50000
G1 X61.700 Y62.588 F600.000 E4.52809
G1 X61.025 Y62.925 E4.54960
G1 X60.288 Y63.100 E4.57122
G1 X59.700 Y63.088 E4.58821
G1 X58.963 Y62.925 E4.60974
G1 X58.288 Y62.588 E4.63128
G1 X57.450 Y61.813 E4.66414
G1 F1800.000 E0.16414
G92 E0
G1 X37.988 Y83.138 F3600.000
G1 F1800.000 E4.50000
G1 X82.000 Y83.138 F600.000 E5.48317
; infill_end
G1 F1800.000 E0.98317
G92 E0
; Layer: 8 Time: 66
G1 Z1.750 F3600.000
; Region: 0
; perimeter_start
G1 X82.337 Y82.813
G1 F1800.000 E4.50000
G1 X82.337 Y83.450 F900.000 E4.52105
G1 X37.650 Y83.450 E6.00711
G1 X37.650 Y82.813 E6.02815
G1 X82.138 Y82.813 E7.50757
G1 X82.738 Y82.413
G1 X82.738 Y83.850 E7.55522
G1 X37.250 Y83.850 E9.06789
G1 X37.250 Y82.413 E9.11554
G1 X82.537 Y82.413 E10.62156
G1 X82.337 Y83.113
G1 F1800.000 E6.12156
G92 E0
G1 X62.800 Y62.100 F3600.000
G1 F1800.000 E4.50000
G1 X61.975 Y62.838 F900.000 E4.53709
G1 X61.225 Y63.238 E4.56498
G1 X60.413 Y63.438 E4.59286
G1 X59.575 Y63.438 E4.62075
G1 X58.763 Y63.238 E4.64864
G1 X58.013 Y62.838 E4.67652
G1 X57.188 Y62.100 E4.71362
G1 X57.075 Y61.763 E4.72555
G1 X57.700 Y61.425 E4.74912
G1 X57.975 Y61.813 E4.76487
G1 X58.488 Y62.263 E4.78732
G1 X59.088 Y62.563 E4.80978
G1 X60.000 Y62.763 E4.84067
G1 X60.900 Y62.563 E4.87157
G1 X61.500 Y62.263 E4.89402
G1 X62.013 Y61.813 E4.91648
G1 X62.288 Y61.425 E4.93223
G1 X62.913 Y61.763 E4.95579
G1 X62.863 Y61.913 E4.96108
G1 X62.013 Y61.988
G1 F1800.000 E0.46108
G92 E0
G1 X62.288 Y58.563 F3600.000
G1 F1800.000 E4.50000
G1 X62.013 Y58.175 F900.000 E4.51575
G1 X61.500 Y57.725 E4.53820
G1 X60.900 Y57.425 E4.56066
G1 X60.000 Y57.225 E4.59156
G1 X59.088 Y57.425 E4.62245
G1 X58.488 Y57.725 E4.64491
G1 X57.975 Y58.175 E4.66736
G1 X57.700 Y58.563 E4.68311
G1 X57.075 Y58.225 E4.70668
G1 X57.188 Y57.888 E4.71861
G1 X58.013 Y57.150 E4.75571
G1 X58.763 Y56.750 E4.78359
G1 X59.575 Y56.550 E4.81147
G1 X60.413 Y56.550 E4.83936
G1 X61.225 Y56.750 E4.86725
G1 X61.975 Y57.150 E4.89513
G1 X62.800 Y57.888 E4.93223
G1 X62.913 Y58.225 E4.94416
G1 X62.463 Y58.463 E4.96108
G1 X62.263 Y58.088
G1 F1800.000 E0.46108
G92 E0
G1 X82.337 Y37.175 F3600.000
G1 F1800.000 E4.50000
G1 X37.650 Y37.175 F900.000 E5.98606
G1 X37.650 Y36.538 E6.00711
G1 X82.337 Y36.538 E7.49317
G1 X82.337 Y36.975 E7.50757
G1 X82.738 Y37.575
G1 X37.250 Y37.575 E9.02024
G1 X37.250 Y36.138 E9.06789
G1 X82.738 Y36.138 E10.58056
G1 X82.738 Y37.375 E10.62156
G1 X82.038 Y37.175
G1 F1800.000 E6.12156
G92 E0
G1 X62.888 Y57.750 F3600.000
G1 F1800.000 E4.50000
G1 X78.500 Y46.250 F900.000 E5.14482
G1 X70.650 Y41.700 E5.44643
G1 X62.438 Y53.813 E5.93307
G1 X61.325 Y53.513 E5.97119
G1 X60.000 Y53.350 E6.01587
G1 X58.663 Y53.513 E6.06054
G1 X57.550 Y53.813 E6.09866
G1 X49.338 Y41.700 E6.58530
G1 X41.487 Y46.250 E6.88692
G1 X57.100 Y57.750 E7.53173
G1 X56.950 Y58.163
G1 X37.288 Y58.163 E8.18602
G1 X37.288 Y61.825 E8.30798
G1 X56.950 Y61.825 E8.96228
G1 X57.100 Y62.238
G1 X41.487 Y73.738 E9.60709
G1 X49.338 Y78.287 E9.90870
G1 X57.550 Y66.175 E10.39534
G1 X59.525 Y66.613 E10.46225
G1 X60.238 Y66.625
G1 X59.525 Y66.612 E10.48601
G1 X57.475 Y82.188 E11.00844
G1 F1800.000 E6.50844
G92 E0
G1 X62.513 Y82.188 F3600.000
G1 F1800.000 E4.50000
G1 X60.463 Y66.613 F900.000 E5.02261
G1 X62.438 Y66.175 E5.08975
G1 X70.650 Y78.287 E5.57639
G1 X78.500 Y73.738 E5.87800
G1 X62.888 Y62.238 E6.52282
G1 X63.038 Y61.825
G1 X82.700 Y61.825 E7.17711
G1 X82.700 Y58.163 E7.29907
G1 X63.038 Y58.163 E7.95336
G1 F1800.000 E3.45336
G92 E0
G1 X60.000 Y57.450 F3600.000
G1 F1800.000 E4.50000
G1 X59.988 Y62.538 F900.000 E4.66891
G1 F1800.000 E0.16891
G92 E0
G1 X59.500 Y53.137 F3600.000
G1 F1800.000 E4.50000
G1 X57.475 Y37.800 F900.000 E5.01467
G1 F1800.000 E0.51467
G92 E0
G1 X62.513 Y37.800 F3600.000
G1 F1800.000 E4.50000
G1 X60.487 Y53.137 F900.000 E5.01467
; perimeter_end
; infill_start
G1 F1800.000 E0.51467
G92 E0
G1 X82.000 Y36.850 F3600.000
G1 F1800.000 E4.50000
G1 X37.988 Y36.850 F600.000 E5.48317
G1 F1800.000 E0.98317
G92 E0
G1 X57.588 Y58.075 F3600.000
G1 F1800.000 E4.50000
G1 X58.288 Y57.400 F600.000 E4.52813
G1 X58.963 Y57.063 E4.54967
G1 X59.538 Y56.913 E4.56669
G1 X60.288 Y56.900 E4.58836
G1 X61.025 Y57.063 E4.60993
G1 X61.700 Y57.400 E4.63150
G1 X62.538 Y58.175 E4.66440
G1 F1800.000 E0.16440
G92 E0
G1 X62.400 Y61.913 F3600.000
G1 F1800.000 E4.50000
G1 X61.700 Y62.588 F600.000 E4.52809
G1 X61.025 Y62.925 E4.54960
G1 X60.288 Y63.100 E4.57122
G1 X59.700 Y63.088 E4.58821
G1 X58.963 Y62.925 E4.60974
G1 X58.288 Y62.588 E4.63128
G1 X57.450 Y61.813 E4.66414
G1 F1800.000 E0.16414
G92 E0
G1 X37.988 Y83.138 F3600.000
G1 F1800.000 E4.50000
G1 X82.000 Y83.138 F600.000 E5.48317
; infill_end
G1 F1800.000 E0.98317
G92 E0
; Layer: 9 Time: 66
G1 Z1.950 F3600.000
; Region: 0
; perimeter_start
G1 X82.337 Y82.813
G1 F1800.000 E4.50000
G1 X82.337 Y83.450 F900.000 E4.52105
G1 X37.650 Y83.450 E6.00711
G1 X37.650 Y82.813 E6.02815
G1 X82.138 Y82.813 E7.50757
G1 X82.738 Y82.413
G1 X82.738 Y83.850 E7.55522
G1 X37.250 Y83.850 E9.06789
G1 X37.250 Y82.413 E9.11554
G1 X82.537 Y82.413 E10.62156
G1 X82.337 Y83.113
G1 F1800.000 E6.12156
G92 E0
G1 X62.800 Y62.100 F3600.000
G1 F1800.000 E4.50000
G1 X61.975 Y62.838 F900.000 E4.53709
G1 X61.225 Y63.238 E4.56498
G1 X60.413 Y63.438 E4.59286
G1 X59.575 Y63.438 E4.62075
G1 X58.763 Y63.238 E4.64864
G1 X58.013 Y62.838 E4.67652
G1 X57.188 Y62.100 E4.71362
G1 X57.075 Y61.763 E4.72555
G1 X57.700 Y61.425 E4.74912
G1 X57.975 Y61.813 E4.76487
G1 X58.488 Y62.263 E4.78732
G1 X59.088 Y62.563 E4.80978
G1 X60.000 Y62.763 E4.84067
G1 X60.900 Y62.563 E4.87157
G1 X61.500 Y62.263 E4.89402
G1 X62.013 Y61.813 E4.91648
G1 X62.288 Y61.425 E4.93223
G1 X62.913 Y61.763 E4.95579
G1 X62.863 Y61.913 E4.96108
G1 X62.013 Y61.988
G1 F1800.000 E0.46108
G92 E0
G1 X62.288 Y58.563 F3600.000
G1 F1800.000 E4.50000
G1 X62.013 Y58.175 F900.000 E4.51575
G1 X61.500 Y57.725 E4.53820
G1 X60.900 Y57.425 E4.56066
G1 X60.000 Y57.225 E4.59156
G1 X59.088 Y57.425 E4.62245
G1 X58.488 Y57.725 E4.64491
G1 X57.975 Y58.175 E4.66736
G1 X57.700 Y58.563 E4.68311
G1 X57.075 Y58.225 E4.70668
G1 X57.188 Y57.888 E4.71861
G1 X58.013 Y57.150 E4.75571
G1 X58.763 Y56.750 E4.78359
G1 X59.575 Y56.550 E4.81147
G1 X60.413 Y56.550 E4.83936
G1 X61.225 Y56.750 E4.86725
G1 X61.975 Y57.150 E4.89513
G1 X62.800 Y57.888 E4.93223
G1 X62.913 Y58.225 E4.94416
G1 X62.463 Y58.463 E4.96108
G1 X62.263 Y58.088
G1 F1800.000 E0.46108
G92 E0
G1 X82.337 Y37.175 F3600.000
G1 F1800.000 E4.50000
G1 X37.650 Y37.175 F900.000 E5.98606
G1 X37.650 Y36.538 E6.00711
G1 X82.337 Y36.538 E7.49317
G1 X82.337 Y36.975 E7.50757
G1 X82.738 Y37.575
G1 X37.250 Y37.575 E9.02024
G1 X37.250 Y36.138 E9.06789
G1 X82.738 Y36.138 E10.58056
G1 X82.738 Y37.375 E10.62156
G1 X82.038 Y37.175
G1 F1800.000 E6.12156
G92 E0
G1 X62.888 Y57.750 F3600.000
G1 F1800.000 E4.50000
G1 X78.500 Y46.250 F900.000 E5.14482
G1 X70.650 Y41.700 E5.44643
G1 X62.438 Y53.813 E5.93307
G1 X61.325 Y53.513 E5.97119
G1 X60.000 Y53.350 E6.01587
G1 X58.663 Y53.513 E6.06054
G1 X57.550 Y53.813 E6.09866
G1 X49.338 Y41.700 E6.58530
G1 X41.487 Y46.250 E6.88692
G1 X57.100 Y57.750 E7.53173
G1 X56.950 Y58.163
G1 X37.288 Y58.163 E8.18602
G1 X37.288 Y61.825 E8.30798
G1 X56.950 Y61.825 E8.96228
G1 X57.100 Y62.238
G1 X41.487 Y73.738 E9.60709
G1 X49.338 Y78.287 E9.90870
G1 X57.550 Y66.175 E10.39534
G1 X59.525 Y66.613 E10.46225
G1 X60.238 Y66.625
G1 X59.525 Y66.612 E10.48601
G1 X57.475 Y82.188 E11.00844
G1 F1800.000 E6.50844
G92 E0
G1 X62.513 Y82.188 F3600.000
G1 F1800.000 E4.50000
G1 X60.463 Y66.613 F900.000 E5.02261
G1 X62.438 Y66.175 E5.08975
G1 X70.650 Y78.287 E5.57639
G1 X78.500 Y73.738 E5.87800
G1 X62.888 Y62.238 E6.52282
G1 X63.038 Y61.825
G1 X82.700 Y61.825 E7.17711
G1 X82.700 Y58.163 E7.29907
G1 X63.038 Y58.163 E7.95336
G1 F1800.000 E3.45336
G92 E0
G1 X60.000 Y57.450 F3600.000
G1 F1800.000 E4.50000
G1 X59.988 Y62.538 F900.000 E4.66891
G1 F1800.000 E0.16891
G92 E0
G1 X59.500 Y53.137 F3600.000
G1 F1800.000 E4.50000
G1 X57.475 Y37.800 F900.000 E5.01467
G1 F1800.000 E0.51467
G92 E0
G1 X62.513 Y37.800 F3600.000
G1 F1800.000 E4.50000
G1 X60.487 Y53.137 F900.000 E5.01467
; perimeter_end
; infill_start
G1 F1800.000 E0.51467
G92 E0
G1 X82.000 Y36.850 F3600.000
G1 F1800.000 E4.50000
G1 X37.988 Y36.850 F600.000 E5.48317
G1 F1800.000 E0.98317
G92 E0
G1 X57.588 Y58.075 F3600.000
G1 F1800.000 E4.50000
G1 X58.288 Y57.400 F600.000 E4.52813
G1 X58.963 Y57.063 E4.54967
G1 X59.538 Y56.913 E4.56669
G1 X60.288 Y56.900 E4.58836
G1 X61.025 Y57.063 E4.60993
G1 X61.700 Y57.400 E4.63150
G1 X62.538 Y58.175 E4.66440
G1 F1800.000 E0.16440
G92 E0
G1 X62.400 Y61.913 F3600.000
G1 F1800.000 E4.50000
G1 X61.700 Y62.588 F600.000 E4.52809
G1 X61.025 Y62.925 E4.54960
G1 X60.288 Y63.100 E4.57122
G1 X59.700 Y63.088 E4.58821
G1 X58.963 Y62.925 E4.60974
G1 X58.288 Y62.588 E4.63128
G1 X57.450 Y61.813 E4.66414
G1 F1800.000 E0.16414
G92 E0
G1 X37.988 Y83.138 F3600.000
G1 F1800.000 E4.50000
G1 X82.000 Y83.138 F600.000 E5.48317
; infill_end
G1 F1800.000 E0.98317
G92 E0
; Layer: 10 Time: 66
G1 Z2.150 F3600.000
; Region: 0
; perimeter_start
G1 X82.337 Y82.813
G1 F1800.000 E4.50000
G1 X82.337 Y83.450 F900.000 E4.52105
G1 X37.650 Y83.450 E6.00711
G1 X37.650 Y82.813 E6.02815
G1 X82.138 Y82.813 E7.50757
G1 X82.738 Y82.413
G1 X82.738 Y83.850 E7.55522
G1 X37.250 Y83.850 E9.06789
G1 X37.250 Y82.413 E9.11554
G1 X82.537 Y82.413 E10.62156
G1 X82.337 Y83.113
G1 F1800.000 E6.12156
G92 E0
G1 X62.800 Y62.100 F3600.000
G1 F1800.000 E4.50000
G1 X61.975 Y62.838 F900.000 E4.53709
G1 X61.225 Y63.238 E4.56498
G1 X60.413 Y63.438 E4.59286
G1 X59.575 Y63.438 E4.62075
G1 X58.763 Y63.238 E4.64864
G1 X58.013 Y62.838 E4.67652
G1 X57.188 Y62.100 E4.71362
G1 X57.075 Y61.763 E4.72555
G1 X57.700 Y61.425 E4.74912
G1 X57.975 Y61.813 E4.76487
G1 X58.488 Y62.263 E4.78732
G1 X59.088 Y62.563 E4.80978
G1 X60.000 Y62.763 E4.84067
G1 X60.900 Y62.563 E4.87157
G1 X61.500 Y62.263 E4.89402
G1 X62.013 Y61.813 E4.91648
G1 X62.288 Y61.425 E4.93223
G1 X62.913 Y61.763 E4.95579
G1 X62.863 Y61.913 E4.96108
G1 X62.013 Y61.988
G1 F1800.000 E0.46108
G92 E0
G1 X62.288 Y58.563 F3600.000
G1 F1800.000 E4.50000
G1 X62.013 Y58.175 F900.000 E4.51575
G1 X61.500 Y57.725 E4.53820
G1 X60.900 Y57.425 E4.56066
G1 X60.000 Y57.225 E4.59156
G1 X59.088 Y57.425 E4.62245
G1 X58.488 Y57.725 E4.64491
G1 X57.975 Y58.175 E4.66736
G1 X57.700 Y58.563 E4.68311
G1 X57.075 Y58.225 E4.70668
G1 X57.188 Y57.888 E4.71861
G1 X58.013 Y57.150 E4.75571
G1 X58.763 Y56.750 E4.78359
G1 X59.575 Y56.550 E4.81147
G1 X60.413 Y56.550 E4.83936
G1 X61.225 Y56.750 E4.86725
G1 X61.975 Y57.150 E4.89513
G1 X62.800 Y57.888 E4.93223
G1 X62.913 Y58.225 E4.94416
G1 X62.463 Y58.463 E4.96108
G1 X62.263 Y58.088
G1 F1800.000 E0.46108
G92 E0
G1 X82.337 Y37.175 F3600.000
G1 F1800.000 E4.50000
G1 X37.650 Y37.175 F900.000 E5.98606
G1 X37.650 Y36.538 E6.00711
G1 X82.337 Y36.538 E7.49317
G1 X82.337 Y36.975 E7.50757
G1 X82.738 Y37.575
G1 X37.250 Y37.575 E9.02024
G1 X37.250 Y36.138 E9.06789
G1 X82.738 Y36.138 E10.58056
G1 X82.738 Y37.375 E10.62156
G1 X82.038 Y37.175
G1 F1800.000 E6.12156
G92 E0
G1 X62.888 Y57.750 F3600.000
G1 F1800.000 E4.50000
G1 X78.500 Y46.250 F900.000 E5.14482
G1 X70.650 Y41.700 E5.44643
G1 X62.438 Y53.813 E5.93307
G1 X61.325 Y53.513 E5.97119
G1 X60.000 Y53.350 E6.01587
G1 X58.663 Y53.513 E6.06054
G1 X57.550 Y53.813 E6.09866
G1 X49.338 Y41.700 E6.58530
G1 X41.487 Y46.250 E6.88692
G1 X57.100 Y57.750 E7.53173
G1 X56.950 Y58.163
G1 X37.288 Y58.163 E8.18602
G1 X37.288 Y61.825 E8.30798
G1 X56.950 Y61.825 E8.96228
G1 X57.100 Y62.238
G1 X41.487 Y73.738 E9.60709
G1 X49.338 Y78.287 E9.90870
G1 X57.550 Y66.175 E10.39534
G1 X59.525 Y66.613 E10.46225
G1 X60.238 Y66.625
G1 X59.525 Y66.612 E10.48601
G1 X57.475 Y82.188 E11.00844
G1 F1800.000 E6.50844
G92 E0
G1 X62.513 Y82.188 F3600.000
G1 F1800.000 E4.50000
G1 X60.463 Y66.613 F900.000 E5.02261
G1 X62.438 Y66.175 E5.08975
G1 X70.650 Y78.287 E5.57639
G1 X78.500 Y73.738 E5.87800
G1 X62.888 Y62.238 E6.52282
G1 X63.038 Y61.825
G1 X82.700 Y61.825 E7.17711
G1 X82.700 Y58.163 E7.29907
G1 X63.038 Y58.163 E7.95336
G1 F1800.000 E3.45336
G92 E0
G1 X60.000 Y57.450 F3600.000
G1 F1800.000 E4.50000
G1 X59.988 Y62.538 F900.000 E4.66891
G1 F1800.000 E0.16891
G92 E0
G1 X59.500 Y53.137 F3600.000
G1 F1800.000 E4.50000
G1 X57.475 Y37.800 F900.000 E5.01467
G1 F1800.000 E0.51467
G92 E0
G1 X62.513 Y37.800 F3600.000
G1 F1800.000 E4.50000
G1 X60.487 Y53.137 F900.000 E5.01467
; perimeter_end
; infill_start
G1 F1800.000 E0.51467
G92 E0
G1 X82.000 Y36.850 F3600.000
G1 F1800.000 E4.50000
G1 X37.988 Y36.850 F600.000 E5.48317
G1 F1800.000 E0.98317
G92 E0
G1 X57.588 Y58.075 F3600.000
G1 F1800.000 E4.50000
G1 X58.288 Y57.400 F600.000 E4.52813
G1 X58.963 Y57.063 E4.54967
G1 X59.538 Y56.913 E4.56669
G1 X60.288 Y56.900 E4.58836
G1 X61.025 Y57.063 E4.60993
G1 X61.700 Y57.400 E4.63150
G1 X62.538 Y58.175 E4.66440
G1 F1800.000 E0.16440
G92 E0
G1 X62.400 Y61.913 F3600.000
G1 F1800.000 E4.50000
G1 X61.700 Y62.588 F600.000 E4.52809
G1 X61.025 Y62.925 E4.54960
G1 X60.288 Y63.100 E4.57122
G1 X59.700 Y63.088 E4.58821
G1 X58.963 Y62.925 E4.60974
G1 X58.288 Y62.588 E4.63128
G1 X57.450 Y61.813 E4.66414
G1 F1800.000 E0.16414
G92 E0
G1 X37.988 Y83.138 F3600.000
G1 F1800.000 E4.50000
G1 X82.000 Y83.138 F600.000 E5.48317
; infill_end
G1 F1800.000 E0.98317
G92 E0
; Layer: 11 Time: 66
G1 Z2.350 F3600.000
; Region: 0
; perimeter_start
G1 X82.337 Y82.813
G1 F1800.000 E4.50000
G1 X82.337 Y83.450 F900.000 E4.52105
G1 X37.650 Y83.450 E6.00711
G1 X37.650 Y82.813 E6.02815
G1 X82.138 Y82.813 E7.50757
G1 X82.738 Y82.413
G1 X82.738 Y83.850 E7.55522
G1 X37.250 Y83.850 E9.06789
G1 X37.250 Y82.413 E9.11554
G1 X82.537 Y82.413 E10.62156
G1 X82.337 Y83.113
G1 F1800.000 E6.12156
G92 E0
G1 X62.800 Y62.100 F3600.000
G1 F1800.000 E4.50000
G1 X61.975 Y62.838 F900.000 E4.53709
G1 X61.225 Y63.238 E4.56498
G1 X60.413 Y63.438 E4.59286
G1 X59.575 Y63.438 E4.62075
G1 X58.763 Y63.238 E4.64864
G1 X58.013 Y62.838 E4.67652
G1 X57.188 Y62.100 E4.71362
G1 X57.075 Y61.763 E4.72555
G1 X57.700 Y61.425 E4.74912
G1 X57.975 Y61.813 E4.76487
G1 X58.488 Y62.263 E4.78732
G1 X59.088 Y62.563 E4.80978
G1 X60.000 Y62.763 E4.84067
G1 X60.900 Y62.563 E4.87157
G1 X61.500 Y62.263 E4.89402
G1 X62.013 Y61.813 E4.91648
G1 X62.288 Y61.425 E4.93223
G1 X62.913 Y61.763 E4.95579
G1 X62.863 Y61.913 E4.96108
G1 X62.013 Y61.988
G1 F1800.000 E0.46108
G92 E0
G1 X62.288 Y58.563 F3600.000
G1 F1800.000 E4.50000
G1 X62.013 Y58.175 F900.000 E4.51575
G1 X61.500 Y57.725 E4.53820
G1 X60.900 Y57.425 E4.56066
G1 X60.000 Y57.225 E4.59156
G1 X59.088 Y57.425 E4.62245
G1 X58.488 Y57.725 E4.64491
G1 X57.975 Y58.175 E4.66736
G1 X57.700 Y58.563 E4.68311
G1 X57.075 Y58.225 E4.70668
G1 X57.188 Y57.888 E4.71861
G1 X58.013 Y57.150 E4.75571
G1 X58.763 Y56.750 E4.78359
G1 X59.575 Y56.550 E4.81147
G1 X60.413 Y56.550 E4.83936
G1 X61.225 Y56.750 E4.86725
G1 X61.975 Y57.150 E4.89513
G1 X62.800 Y57.888 E4.93223
G1 X62.913 Y58.225 E4.94416
G1 X62.463 Y58.463 E4.96108
G1 X62.263 Y58.088
G1 F1800.000 E0.46108
G92 E0
G1 X82.337 Y37.175 F3600.000
G1 F1800.000 E4.50000
G1 X37.650 Y37.175 F900.000 E5.98606
G1 X37.650 Y36.538 E6.00711
G1 X82.337 Y36.538 E7.49317
G1 X82.337 Y36.975 E7.50757
G1 X82.738 Y37.575
G1 X37.250 Y37.575 E9.02024
G1 X37.250 Y36.138 E9.06789
G1 X82.738 Y36.138 E10.58056
G1 X82.738 Y37.375 E10.62156
G1 X82.038 Y37.175
G1 F1800.000 E6.12156
G92 E0
G1 X62.888 Y57.750 F3600.000
G1 F1800.000 E4.50000
G1 X78.500 Y46.250 F900.000 E5.14482
G1 X70.650 Y41.700 E5.44643
G1 X62.438 Y53.813 E5.93307
G1 X61.325 Y53.513 E5.97119
G1 X60.000 Y53.350 E6.01587
G1 X58.663 Y53.513 E6.06054
G1 X57.550 Y53.813 E6.09866
G1 X49.338 Y41.700 E6.58530
G1 X41.487 Y46.250 E6.88692
G1 X57.100 Y57.750 E7.53173
G1 X56.950 Y58.163
G1 X37.288 Y58.163 E8.18602
G1 X37.288 Y61.825 E8.30798
G1 X56.950 Y61.825 E8.96228
G1 X57.100 Y62.238
G1 X41.487 Y73.738 E9.60709
G1 X49.338 Y78.287 E9.90870
G1 X57.550 Y66.175 E10.39534
G1 X59.525 Y66.613 E10.46225
G1 X60.238 Y66.625
G1 X59.525 Y66.612 E10.48601
G1 X57.475 Y82.188 E11.00844
G1 F1800.000 E6.50844
G92 E0
G1 X62.513 Y82.188 F3600.000
G1 F1800.000 E4.50000
G1 X60.463 Y66.613 F900.000 E5.02261
G1 X62.438 Y66.175 E5.08975
G1 X70.650 Y78.287 E5.57639
G1 X78.500 Y73.738 E5.87800
G1 X62.888 Y62.238 E6.52282
G1 X63.038 Y61.825
G1 X82.700 Y61.825 E7.17711
G1 X82.700 Y58.163 E7.29907
G1 X63.038 Y58.163 E7.95336
G1 F1800.000 E3.45336
G92 E0
G1 X60.000 Y57.450 F3600.000
G1 F1800.000 E4.50000
G1 X59.988 Y62.538 F900.000 E4.66891
G1 F1800.000 E0.16891
G92 E0
G1 X59.500 Y53.137 F3600.000
G1 F1800.000 E4.50000
G1 X57.475 Y37.800 F900.000 E5.01467
G1 F1800.000 E0.51467
G92 E0
G1 X62.513 Y37.800 F3600.000
G1 F1800.000 E4.50000
G1 X60.487 Y53.137 F900.000 E5.01467
; perimeter_end
; infill_start
G1 F1800.000 E0.51467
G92 E0
G1 X82.000 Y36.850 F3600.000
G1 F1800.000 E4.50000
G1 X37.988 Y36.850 F600.000 E5.48317
G1 F1800.000 E0.98317
G92 E0
G1 X57.588 Y58.075 F3600.000
G1 F1800.000 E4.50000
G1 X58.288 Y57.400 F600.000 E4.52813
G1 X58.963 Y57.063 E4.54967
G1 X59.538 Y56.913 E4.56669
G1 X60.288 Y56.900 E4.58836
G1 X61.025 Y57.063 E4.60993
G1 X61.700 Y57.400 E4.63150
G1 X62.538 Y58.175 E4.66440
G1 F1800.000 E0.16440
G92 E0
G1 X62.400 Y61.913 F3600.000
G1 F1800.000 E4.50000
G1 X61.700 Y62.588 F600.000 E4.52809
G1 X61.025 Y62.925 E4.54960
G1 X60.288 Y63.100 E4.57122
G1 X59.700 Y63.088 E4.58821
G1 X58.963 Y62.925 E4.60974
G1 X58.288 Y62.588 E4.63128
G1 X57.450 Y61.813 E4.66414
G1 F1800.000 E0.16414
G92 E0
G1 X37.988 Y83.138 F3600.000
G1 F1800.000 E4.50000
G1 X82.000 Y83.138 F600.000 E5.48317
; infill_end
G1 F1800.000 E0.98317
G92 E0
; Layer: 12 Time: 66
G1 Z2.550 F3600.000
; Region: 0
; perimeter_start
G1 X82.337 Y82.813
G1 F1800.000 E4.50000
G1 X82.337 Y83.450 F900.000 E4.52105
G1 X37.650 Y83.450 E6.00711
G1 X37.650 Y82.813 E6.02815
G1 X82.138 Y82.813 E7.50757
G1 X82.738 Y82.413
G1 X82.738 Y83.850 E7.55522
G1 X37.250 Y83.850 E9.06789
G1 X37.250 Y82.413 E9.11554
G1 X82.537 Y82.413 E10.62156
G1 X82.337 Y83.113
G1 F1800.000 E6.12156
G92 E0
G1 X62.800 Y62.100 F3600.000
G1 F1800.000 E4.50000
G1 X61.975 Y62.838 F900.000 E4.53709
G1 X61.225 Y63.238 E4.56498
G1 X60.413 Y63.438 E4.59286
G1 X59.575 Y63.438 E4.62075
G1 X58.763 Y63.238 E4.64864
G1 X58.013 Y62.838 E4.67652
G1 X57.188 Y62.100 E4.71362
G1 X57.075 Y61.763 E4.72555
G1 X57.700 Y61.425 E4.74912
G1 X57.975 Y61.813 E4.76487
G1 X58.488 Y62.263 E4.78732
G1 X59.088 Y62.563 E4.80978
G1 X60.000 Y62.763 E4.84067
G1 X60.900 Y62.563 E4.87157
G1 X61.500 Y62.263 E4.89402
G1 X62.013 Y61.813 E4.91648
G1 X62.288 Y61.425 E4.93223
G1 X62.913 Y61.763 E4.95579
G1 X62.863 Y61.913 E4.96108
G1 X62.013 Y61.988
G1 F1800.000 E0.46108
G92 E0
G1 X62.288 Y58.563 F3600.000
G1 F1800.000 E4.50000
G1 X62.013 Y58.175 F900.000 E4.51575
G1 X61.500 Y57.725 E4.53820
G1 X60.900 Y57.425 E4.56066
G1 X60.000 Y57.225 E4.59156
G1 X59.088 Y57.425 E4.62245
G1 X58.488 Y57.725 E4.64491
G1 X57.975 Y58.175 E4.66736
G1 X57.700 Y58.563 E4.68311
G1 X57.075 Y58.225 E4.70668
G1 X57.188 Y57.888 E4.71861
G1 X58.013 Y57.150 E4.75571
G1 X58.763 Y56.750 E4.78359
G1 X59.575 Y56.550 E4.81147
G1 X60.413 Y56.550 E4.83936
G1 X61.225 Y56.750 E4.86725
G1 X61.975 Y57.150 E4.89513
G1 X62.800 Y57.888 E4.93223
G1 X62.913 Y58.225 E4.94416
G1 X62.463 Y58.463 E4.96108
G1 X62.263 Y58.088
G1 F1800.000 E0.46108
G92 E0
G1 X82.337 Y37.175 F3600.000
G1 F1800.000 E4.50000
G1 X37.650 Y37.175 F900.000 E5.98606
G1 X37.650 Y36.538 E6.00711
G1 X82.337 Y36.538 E7.49317
G1 X82.337 Y36.975 E7.50757
G1 X82.738 Y37.575
G1 X37.250 Y37.575 E9.02024
G1 X37.250 Y36.138 E9.06789
G1 X82.738 Y36.138 E10.58056
G1 X82.738 Y37.375 E10.62156
G1 X82.038 Y37.175
G1 F1800.000 E6.12156
G92 E0
G1 X62.888 Y57.750 F3600.000
G1 F1800.000 E4.50000
G1 X78.500 Y46.250 F900.000 E5.14482
G1 X70.650 Y41.700 E5.44643
G1 X62.438 Y53.813 E5.93307
G1 X61.325 Y53.513 E5.97119
G1 X60.000 Y53.350 E6.01587
G1 X58.663 Y53.513 E6.06054
G1 X57.550 Y53.813 E6.09866
G1 X49.338 Y41.700 E6.58530
G1 X41.487 Y46.250 E6.88692
G1 X57.100 Y57.750 E7.53173
G1 X56.950 Y58.163
G1 X37.288 Y58.163 E8.18602
G1 X37.288 Y61.825 E8.30798
G1 X56.950 Y61.825 E8.96228
G1 X57.100 Y62.238
G1 X41.487 Y73.738 E9.60709
G1 X49.338 Y78.287 E9.90870
G1 X57.550 Y66.175 E10.39534
G1 X59.525 Y66.613 E10.46225
G1 X60.238 Y66.625
G1 X59.525 Y66.612 E10.48601
G1 X57.475 Y82.188 E11.00844
G1 F1800.000 E6.50844
G92 E0
G1 X62.513 Y82.188 F3600.000
G1 F1800.000 E4.50000
G1 X60.463 Y66.613 F900.000 E5.02261
G1 X62.438 Y66.175 E5.08975
G1 X70.650 Y78.287 E5.57639
G1 X78.500 Y73.738 E5.87800
G1 X62.888 Y62.238 E6.52282
G1 X63.038 Y61.825
G1 X82.700 Y61.825 E7.17711
G1 X82.700 Y58.163 E7.29907
G1 X63.038 Y58.163 E7.95336
G1 F1800.000 E3.45336
G92 E0
G1 X60.000 Y57.450 F3600.000
G1 F1800.000 E4.50000
G1 X59.988 Y62.538 F900.000 E4.66891
G1 F1800.000 E0.16891
G92 E0
G1 X59.500 Y53.137 F3600.000
G1 F1800.000 E4.50000
G1 X57.475 Y37.800 F900.000 E5.01467
G1 F1800.000 E0.51467
G92 E0
G1 X62.513 Y37.800 F3600.000
G1 F1800.000 E4.50000
G1 X60.487 Y53.137 F900.000 E5.01467
; perimeter_end
; infill_start
G1 F1800.000 E0.51467
G92 E0
G1 X82.000 Y36.850 F3600.000
G1 F1800.000 E4.50000
G1 X37.988 Y36.850 F600.000 E5.48317
G1 F1800.000 E0.98317
G92 E0
G1 X57.588 Y58.075 F3600.000
G1 F1800.000 E4.50000
G1 X58.288 Y57.400 F600.000 E4.52813
G1 X58.963 Y57.063 E4.54967
G1 X59.538 Y56.913 E4.56669
G1 X60.288 Y56.900 E4.58836
G1 X61.025 Y57.063 E4.60993
G1 X61.700 Y57.400 E4.63150
G1 X62.538 Y58.175 E4.66440
G1 F1800.000 E0.16440
G92 E0
G1 X62.400 Y61.913 F3600.000
G1 F1800.000 E4.50000
G1 X61.700 Y62.588 F600.000 E4.52809
G1 X61.025 Y62.925 E4.54960
G1 X60.288 Y63.100 E4.57122
G1 X59.700 Y63.088 E4.58821
G1 X58.963 Y62.925 E4.60974
G1 X58.288 Y62.588 E4.63128
G1 X57.450 Y61.813 E4.66414
G1 F1800.000 E0.16414
G92 E0
G1 X37.988 Y83.138 F3600.000
G1 F1800.000 E4.50000
G1 X82.000 Y83.138 F600.000 E5.48317
; infill_end
G1 F1800.000 E0.98317
G92 E0
; Layer: 13 Time: 66
G1 Z2.750 F3600.000
; Region: 0
; perimeter_start
G1 X82.337 Y82.813
G1 F1800.000 E4.50000
G1 X82.337 Y83.450 F900.000 E4.52105
G1 X37.650 Y83.450 E6.00711
G1 X37.650 Y82.813 E6.02815
G1 X82.138 Y82.813 E7.50757
G1 X82.738 Y82.413
G1 X82.738 Y83.850 E7.55522
G1 X37.250 Y83.850 E9.06789
G1 X37.250 Y82.413 E9.11554
G1 X82.537 Y82.413 E10.62156
G1 X82.337 Y83.113
G1 F1800.000 E6.12156
G92 E0
G1 X62.800 Y62.100 F3600.000
G1 F1800.000 E4.50000
G1 X61.975 Y62.838 F900.000 E4.53709
G1 X61.225 Y63.238 E4.56498
G1 X60.413 Y63.438 E4.59286
G1 X59.575 Y63.438 E4.62075
G1 X58.763 Y63.238 E4.64864
G1 X58.013 Y62.838 E4.67652
G1 X57.188 Y62.100 E4.71362
G1 X57.075 Y61.763 E4.72555
G1 X57.700 Y61.425 E4.74912
G1 X57.975 Y61.813 E4.76487
G1 X58.488 Y62.263 E4.78732
G1 X59.088 Y62.563 E4.80978
G1 X60.000 Y62.763 E4.84067
G1 X60.900 Y62.563 E4.87157
G1 X61.500 Y62.263 E4.89402
G1 X62.013 Y61.813 E4.91648
G1 X62.288 Y61.425 E4.93223
G1 X62.913 Y61.763 E4.95579
G1 X62.863 Y61.913 E4.96108
G1 X62.013 Y61.988
G1 F1800.000 E0.46108
G92 E0
G1 X62.288 Y58.563 F3600.000
G1 F1800.000 E4.50000
G1 X62.013 Y58.175 F900.000 E4.51575
G1 X61.500 Y57.725 E4.53820
G1 X60.900 Y57.425 E4.56066
G1 X60.000 Y57.225 E4.59156
G1 X59.088 Y57.425 E4.62245
G1 X58.488 Y57.725 E4.64491
G1 X57.975 Y58.175 E4.66736
G1 X57.700 Y58.563 E4.68311
G1 X57.075 Y58.225 E4.70668
G1 X57.188 Y57.888 E4.71861
G1 X58.013 Y57.150 E4.75571
G1 X58.763 Y56.750 E4.78359
G1 X59.575 Y56.550 E4.81147
G1 X60.413 Y56.550 E4.83936
G1 X61.225 Y56.750 E4.86725
G1 X61.975 Y57.150 E4.89513
G1 X62.800 Y57.888 E4.93223
G1 X62.913 Y58.225 E4.94416
G1 X62.463 Y58.463 E4.96108
G1 X62.263 Y58.088
G1 F1800.000 E0.46108
G92 E0
G1 X82.337 Y37.175 F3600.000
G1 F1800.000 E4.50000
G1 X37.650 Y37.175 F900.000 E5.98606
G1 X37.650 Y36.538 E6.00711
G1 X82.337 Y36.538 E7.49317
G1 X82.337 Y36.975 E7.50757
G1 X82.738 Y37.575
G1 X37.250 Y37.575 E9.02024
G1 X37.250 Y36.138 E9.06789
G1 X82.738 Y36.138 E10.58056
G1 X82.738 Y37.375 E10.62156
G1 X82.038 Y37.175
G1 F1800.000 E6.12156
G92 E0
G1 X62.888 Y57.750 F3600.000
G1 F1800.000 E4.50000
G1 X78.500 Y46.250 F900.000 E5.14482
G1 X70.650 Y41.700 E5.44643
G1 X62.438 Y53.813 E5.93307
G1 X61.325 Y53.513 E5.97119
G1 X60.000 Y53.350 E6.01587
G1 X58.663 Y53.513 E6.06054
G1 X57.550 Y53.813 E6.09866
G1 X49.338 Y41.700 E6.58530
G1 X41.487 Y46.250 E6.88692
G1 X57.100 Y57.750 E7.53173
G1 X56.950 Y58.163
G1 X37.288 Y58.163 E8.18602
G1 X37.288 Y61.825 E8.30798
G1 X56.950 Y61.825 E8.96228
G1 X57.100 Y62.238
G1 X41.487 Y73.738 E9.60709
G1 X49.338 Y78.287 E9.90870
G1 X57.550 Y66.175 E10.39534
G1 X59.525 Y66.613 E10.46225
G1 X60.238 Y66.625
G1 X59.525 Y66.612 E10.48601
G1 X57.475 Y82.188 E11.00844
G1 F1800.000 E6.50844
G92 E0
G1 X62.513 Y82.188 F3600.000
G1 F1800.000 E4.50000
G1 X60.463 Y66.613 F900.000 E5.02261
G1 X62.438 Y66.175 E5.08975
G1 X70.650 Y78.287 E5.57639
G1 X78.500 Y73.738 E5.87800
G1 X62.888 Y62.238 E6.52282
G1 X63.038 Y61.825
G1 X82.700 Y61.825 E7.17711
G1 X82.700 Y58.163 E7.29907
G1 X63.038 Y58.163 E7.95336
G1 F1800.000 E3.45336
G92 E0
G1 X60.000 Y57.450 F3600.000
G1 F1800.000 E4.50000
G1 X59.988 Y62.538 F900.000 E4.66891
G1 F1800.000 E0.16891
G92 E0
G1 X59.500 Y53.137 F3600.000
G1 F1800.000 E4.50000
G1 X57.475 Y37.800 F900.000 E5.01467
G1 F1800.000 E0.51467
G92 E0
G1 X62.513 Y37.800 F3600.000
G1 F1800.000 E4.50000
G1 X60.487 Y53.137 F900.000 E5.01467
; perimeter_end
; infill_start
G1 F1800.000 E0.51467
G92 E0
G1 X82.000 Y36.850 F3600.000
G1 F1800.000 E4.50000
G1 X37.988 Y36.850 F600.000 E5.48317
G1 F1800.000 E0.98317
G92 E0
G1 X57.588 Y58.075 F3600.000
G1 F1800.000 E4.50000
G1 X58.288 Y57.400 F600.000 E4.52813
G1 X58.963 Y57.063 E4.54967
G1 X59.538 Y56.913 E4.56669
G1 X60.288 Y56.900 E4.58836
G1 X61.025 Y57.063 E4.60993
G1 X61.700 Y57.400 E4.63150
G1 X62.538 Y58.175 E4.66440
G1 F1800.000 E0.16440
G92 E0
G1 X62.400 Y61.913 F3600.000
G1 F1800.000 E4.50000
G1 X61.700 Y62.588 F600.000 E4.52809
G1 X61.025 Y62.925 E4.54960
G1 X60.288 Y63.100 E4.57122
G1 X59.700 Y63.088 E4.58821
G1 X58.963 Y62.925 E4.60974
G1 X58.288 Y62.588 E4.63128
G1 X57.450 Y61.813 E4.66414
G1 F1800.000 E0.16414
G92 E0
G1 X37.988 Y83.138 F3600.000
G1 F1800.000 E4.50000
G1 X82.000 Y83.138 F600.000 E5.48317
; infill_end
G1 F1800.000 E0.98317
G92 E0
; Layer: 14 Time: 66
G1 Z2.950 F3600.000
; Region: 0
; perimeter_start
G1 X82.337 Y82.813
G1 F1800.000 E4.50000
G1 X82.337 Y83.450 F900.000 E4.52105
G1 X37.650 Y83.450 E6.00711
G1 X37.650 Y82.813 E6.02815
G1 X82.138 Y82.813 E7.50757
G1 X82.738 Y82.413
G1 X82.738 Y83.850 E7.55522
G1 X37.250 Y83.850 E9.06789
G1 X37.250 Y82.413 E9.11554
G1 X82.537 Y82.413 E10.62156
G1 X82.337 Y83.113
G1 F1800.000 E6.12156
G92 E0
G1 X62.800 Y62.100 F3600.000
G1 F1800.000 E4.50000
G1 X61.975 Y62.838 F900.000 E4.53709
G1 X61.225 Y63.238 E4.56498
G1 X60.413 Y63.438 E4.59286
G1 X59.575 Y63.438 E4.62075
G1 X58.763 Y63.238 E4.64864
G1 X58.013 Y62.838 E4.67652
G1 X57.188 Y62.100 E4.71362
G1 X57.075 Y61.763 E4.72555
G1 X57.700 Y61.425 E4.74912
G1 X57.975 Y61.813 E4.76487
G1 X58.488 Y62.263 E4.78732
G1 X59.088 Y62.563 E4.80978
G1 X60.000 Y62.763 E4.84067
G1 X60.900 Y62.563 E4.87157
G1 X61.500 Y62.263 E4.89402
G1 X62.013 Y61.813 E4.91648
G1 X62.288 Y61.425 E4.93223
G1 X62.913 Y61.763 E4.95579
G1 X62.863 Y61.913 E4.96108
G1 X62.013 Y61.988
G1 F1800.000 E0.46108
G92 E0
G1 X62.288 Y58.563 F3600.000
G1 F1800.000 E4.50000
G1 X62.013 Y58.175 F900.000 E4.51575
G1 X61.500 Y57.725 E4.53820
G1 X60.900 Y57.425 E4.56066
G1 X60.000 Y57.225 E4.59156
G1 X59.088 Y57.425 E4.62245
G1 X58.488 Y57.725 E4.64491
G1 X57.975 Y58.175 E4.66736
G1 X57.700 Y58.563 E4.68311
G1 X57.075 Y58.225 E4.70668
G1 X57.188 Y57.888 E4.71861
G1 X58.013 Y57.150 E4.75571
G1 X58.763 Y56.750 E4.78359
G1 X59.575 Y56.550 E4.81147
G1 X60.413 Y56.550 E4.83936
G1 X61.225 Y56.750 E4.86725
G1 X61.975 Y57.150 E4.89513
G1 X62.800 Y57.888 E4.93223
G1 X62.913 Y58.225 E4.94416
G1 X62.463 Y58.463 E4.96108
G1 X62.263 Y58.088
G1 F1800.000 E0.46108
G92 E0
G1 X82.337 Y37.175 F3600.000
G1 F1800.000 E4.50000
G1 X37.650 Y37.175 F900.000 E5.98606
G1 X37.650 Y36.538 E6.00711
G1 X82.337 Y36.538 E7.49317
G1 X82.337 Y36.975 E7.50757
G1 X82.738 Y37.575
G1 X37.250 Y37.575 E9.02024
G1 X37.250 Y36.138 E9.06789
G1 X82.738 Y36.138 E10.58056
G1 X82.738 Y37.375 E10.62156
G1 X82.038 Y37.175
G1 F1800.000 E6.12156
G92 E0
G1 X62.888 Y57.750 F3600.000
G1 F1800.000 E4.50000
G1 X78.500 Y46.250 F900.000 E5.14482
G1 X70.650 Y41.700 E5.44643
G1 X62.438 Y53.813 E5.93307
G1 X61.325 Y53.513 E5.97119
G1 X60.000 Y53.350 E6.01587
G1 X58.663 Y53.513 E6.06054
G1 X57.550 Y53.813 E6.09866
G1 X49.338 Y41.700 E6.58530
G1 X41.487 Y46.250 E6.88692
G1 X57.100 Y57.750 E7.53173
G1 X56.950 Y58.163
G1 X37.288 Y58.163 E8.18602
G1 X37.288 Y61.825 E8.30798
G1 X56.950 Y61.825 E8.96228
G1 X57.100 Y62.238
G1 X41.487 Y73.738 E9.60709
G1 X49.338 Y78.287 E9.90870
G1 X57.550 Y66.175 E10.39534
G1 X59.525 Y66.613 E10.46225
G1 X60.238 Y66.625
G1 X59.525 Y66.612 E10.48601
G1 X57.475 Y82.188 E11.00844
G1 F1800.000 E6.50844
G92 E0
G1 X62.513 Y82.188 F3600.000
G1 F1800.000 E4.50000
G1 X60.463 Y66.613 F900.000 E5.02261
G1 X62.438 Y66.175 E5.08975
G1 X70.650 Y78.287 E5.57639
G1 X78.500 Y73.738 E5.87800
G1 X62.888 Y62.238 E6.52282
G1 X63.038 Y61.825
G1 X82.700 Y61.825 E7.17711
G1 X82.700 Y58.163 E7.29907
G1 X63.038 Y58.163 E7.95336
G1 F1800.000 E3.45336
G92 E0
G1 X60.000 Y57.450 F3600.000
G1 F1800.000 E4.50000
G1 X59.988 Y62.538 F900.000 E4.66891
G1 F1800.000 E0.16891
G92 E0
G1 X59.500 Y53.137 F3600.000
G1 F1800.000 E4.50000
G1 X57.475 Y37.800 F900.000 E5.01467
G1 F1800.000 E0.51467
G92 E0
G1 X62.513 Y37.800 F3600.000
G1 F1800.000 E4.50000
G1 X60.487 Y53.137 F900.000 E5.01467
; perimeter_end
; infill_start
G1 F1800.000 E0.51467
G92 E0
G1 X82.000 Y36.850 F3600.000
G1 F1800.000 E4.50000
G1 X37.988 Y36.850 F600.000 E5.48317
G1 F1800.000 E0.98317
G92 E0
G1 X57.588 Y58.075 F3600.000
G1 F1800.000 E4.50000
G1 X58.288 Y57.400 F600.000 E4.52813
G1 X58.963 Y57.063 E4.54967
G1 X59.538 Y56.913 E4.56669
G1 X60.288 Y56.900 E4.58836
G1 X61.025 Y57.063 E4.60993
G1 X61.700 Y57.400 E4.63150
G1 X62.538 Y58.175 E4.66440
G1 F1800.000 E0.16440
G92 E0
G1 X62.400 Y61.913 F3600.000
G1 F1800.000 E4.50000
G1 X61.700 Y62.588 F600.000 E4.52809
G1 X61.025 Y62.925 E4.54960
G1 X60.288 Y63.100 E4.57122
G1 X59.700 Y63.088 E4.58821
G1 X58.963 Y62.925 E4.60974
G1 X58.288 Y62.588 E4.63128
G1 X57.450 Y61.813 E4.66414
G1 F1800.000 E0.16414
G92 E0
G1 X37.988 Y83.138 F3600.000
G1 F1800.000 E4.50000
G1 X82.000 Y83.138 F600.000 E5.48317
; infill_end
G1 F1800.000 E0.98317
G92 E0
; Layer: 15 Time: 66
G1 Z3.150 F3600.000
; Region: 0
; perimeter_start
G1 X82.337 Y82.813
G1 F1800.000 E4.50000
G1 X82.337 Y83.450 F900.000 E4.52105
G1 X37.650 Y83.450 E6.00711
G1 X37.650 Y82.813 E6.02815
G1 X82.138 Y82.813 E7.50757
G1 X82.738 Y82.413
G1 X82.738 Y83.850 E7.55522
G1 X37.250 Y83.850 E9.06789
G1 X37.250 Y82.413 E9.11554
G1 X82.537 Y82.413 E10.62156
G1 X82.337 Y83.113
G1 F1800.000 E6.12156
G92 E0
G1 X62.800 Y62.100 F3600.000
G1 F1800.000 E4.50000
G1 X61.975 Y62.838 F900.000 E4.53709
G1 X61.225 Y63.238 E4.56498
G1 X60.413 Y63.438 E4.59286
G1 X59.575 Y63.438 E4.62075
G1 X58.763 Y63.238 E4.64864
G1 X58.013 Y62.838 E4.67652
G1 X57.188 Y62.100 E4.71362
G1 X57.075 Y61.763 E4.72555
G1 X57.700 Y61.425 E4.74912
G1 X57.975 Y61.813 E4.76487
G1 X58.488 Y62.263 E4.78732
G1 X59.088 Y62.563 E4.80978
G1 X60.000 Y62.763 E4.84067
G1 X60.900 Y62.563 E4.87157
G1 X61.500 Y62.263 E4.89402
G1 X62.013 Y61.813 E4.91648
G1 X62.288 Y61.425 E4.93223
G1 X62.913 Y61.763 E4.95579
G1 X62.863 Y61.913 E4.96108
G1 X62.013 Y61.988
G1 F1800.000 E0.46108
G92 E0
G1 X62.288 Y58.563 F3600.000
G1 F1800.000 E4.50000
G1 X62.013 Y58.175 F900.000 E4.51575
G1 X61.500 Y57.725 E4.53820
G1 X60.900 Y57.425 E4.56066
G1 X60.000 Y57.225 E4.59156
G1 X59.088 Y57.425 E4.62245
G1 X58.488 Y57.725 E4.64491
G1 X57.975 Y58.175 E4.66736
G1 X57.700 Y58.563 E4.68311
G1 X57.075 Y58.225 E4.70668
G1 X57.188 Y57.888 E4.71861
G1 X58.013 Y57.150 E4.75571
G1 X58.763 Y56.750 E4.78359
G1 X59.575 Y56.550 E4.81147
G1 X60.413 Y56.550 E4.83936
G1 X61.225 Y56.750 E4.86725
G1 X61.975 Y57.150 E4.89513
G1 X62.800 Y57.888 E4.93223
G1 X62.913 Y58.225 E4.94416
G1 X62.463 Y58.463 E4.96108
G1 X62.263 Y58.088
G1 F1800.000 E0.46108
G92 E0
G1 X82.337 Y37.175 F3600.000
G1 F1800.000 E4.50000
G1 X37.650 Y37.175 F900.000 E5.98606
G1 X37.650 Y36.538 E6.00711
G1 X82.337 Y36.538 E7.49317
G1 X82.337 Y36.975 E7.50757
G1 X82.738 Y37.575
G1 X37.250 Y37.575 E9.02024
G1 X37.250 Y36.138 E9.06789
G1 X82.738 Y36.138 E10.58056
G1 X82.738 Y37.375 E10.62156
G1 X82.038 Y37.175
G1 F1800.000 E6.12156
G92 E0
G1 X62.888 Y57.750 F3600.000
G1 F1800.000 E4.50000
G1 X78.500 Y46.250 F900.000 E5.14482
G1 X70.650 Y41.700 E5.44643
G1 X62.438 Y53.813 E5.93307
G1 X61.325 Y53.513 E5.97119
G1 X60.000 Y53.350 E6.01587
G1 X58.663 Y53.513 E6.06054
G1 X57.550 Y53.813 E6.09866
G1 X49.338 Y41.700 E6.58530
G1 X41.487 Y46.250 E6.88692
G1 X57.100 Y57.750 E7.53173
G1 X56.950 Y58.163
G1 X37.288 Y58.163 E8.18602
G1 X37.288 Y61.825 E8.30798
G1 X56.950 Y61.825 E8.96228
G1 X57.100 Y62.238
G1 X41.487 Y73.738 E9.60709
G1 X49.338 Y78.287 E9.90870
G1 X57.550 Y66.175 E10.39534
G1 X59.525 Y66.613 E10.46225
G1 X60.238 Y66.625
G1 X59.525 Y66.612 E10.48601
G1 X57.475 Y82.188 E11.00844
G1 F1800.000 E6.50844
G92 E0
G1 X62.513 Y82.188 F3600.000
G1 F1800.000 E4.50000
G1 X60.463 Y66.613 F900.000 E5.02261
G1 X62.438 Y66.175 E5.08975
G1 X70.650 Y78.287 E5.57639
G1 X78.500 Y73.738 E5.87800
G1 X62.888 Y62.238 E6.52282
G1 X63.038 Y61.825
G1 X82.700 Y61.825 E7.17711
G1 X82.700 Y58.163 E7.29907
G1 X63.038 Y58.163 E7.95336
G1 F1800.000 E3.45336
G92 E0
G1 X60.000 Y57.450 F3600.000
G1 F1800.000 E4.50000
G1 X59.988 Y62.538 F900.000 E4.66891
G1 F1800.000 E0.16891
G92 E0
G1 X59.500 Y53.137 F3600.000
G1 F1800.000 E4.50000
G1 X57.475 Y37.800 F900.000 E5.01467
G1 F1800.000 E0.51467
G92 E0
G1 X62.513 Y37.800 F3600.000
G1 F1800.000 E4.50000
G1 X60.487 Y53.137 F900.000 E5.01467
; perimeter_end
; infill_start
G1 F1800.000 E0.51467
G92 E0
G1 X82.000 Y36.850 F3600.000
G1 F1800.000 E4.50000
G1 X37.988 Y36.850 F600.000 E5.48317
G1 F1800.000 E0.98317
G92 E0
G1 X57.588 Y58.075 F3600.000
G1 F1800.000 E4.50000
G1 X58.288 Y57.400 F600.000 E4.52813
G1 X58.963 Y57.063 E4.54967
G1 X59.538 Y56.913 E4.56669
G1 X60.288 Y56.900 E4.58836
G1 X61.025 Y57.063 E4.60993
G1 X61.700 Y57.400 E4.63150
G1 X62.538 Y58.175 E4.66440
G1 F1800.000 E0.16440
G92 E0
G1 X62.400 Y61.913 F3600.000
G1 F1800.000 E4.50000
G1 X61.700 Y62.588 F600.000 E4.52809
G1 X61.025 Y62.925 E4.54960
G1 X60.288 Y63.100 E4.57122
G1 X59.700 Y63.088 E4.58821
G1 X58.963 Y62.925 E4.60974
G1 X58.288 Y62.588 E4.63128
G1 X57.450 Y61.813 E4.66414
G1 F1800.000 E0.16414
G92 E0
G1 X37.988 Y83.138 F3600.000
G1 F1800.000 E4.50000
G1 X82.000 Y83.138 F600.000 E5.48317
; infill_end
G1 F1800.000 E0.98317
G92 E0
; Layer: 16 Time: 66
G1 Z3.350 F3600.000
; Region: 0
; perimeter_start
G1 X82.337 Y82.813
G1 F1800.000 E4.50000
G1 X82.337 Y83.450 F900.000 E4.52105
G1 X37.650 Y83.450 E6.00711
G1 X37.650 Y82.813 E6.02815
G1 X82.138 Y82.813 E7.50757
G1 X82.738 Y82.413
G1 X82.738 Y83.850 E7.55522
G1 X37.250 Y83.850 E9.06789
G1 X37.250 Y82.413 E9.11554
G1 X82.537 Y82.413 E10.62156
G1 X82.337 Y83.113
G1 F1800.000 E6.12156
G92 E0
G1 X62.800 Y62.100 F3600.000
G1 F1800.000 E4.50000
G1 X61.975 Y62.838 F900.000 E4.53709
G1 X61.225 Y63.238 E4.56498
G1 X60.413 Y63.438 E4.59286
G1 X59.575 Y63.438 E4.62075
G1 X58.763 Y63.238 E4.64864
G1 X58.013 Y62.838 E4.67652
G1 X57.188 Y62.100 E4.71362
G1 X57.075 Y61.763 E4.72555
G1 X57.700 Y61.425 E4.74912
G1 X57.975 Y61.813 E4.76487
G1 X58.488 Y62.263 E4.78732
G1 X59.088 Y62.563 E4.80978
G1 X60.000 Y62.763 E4.84067
G1 X60.900 Y62.563 E4.87157
G1 X61.500 Y62.263 E4.89402
G1 X62.013 Y61.813 E4.91648
G1 X62.288 Y61.425 E4.93223
G1 X62.913 Y61.763 E4.95579
G1 X62.863 Y61.913 E4.96108
G1 X62.013 Y61.988
G1 F1800.000 E0.46108
G92 E0
G1 X62.288 Y58.563 F3600.000
G1 F1800.000 E4.50000
G1 X62.013 Y58.175 F900.000 E4.51575
G1 X61.500 Y57.725 E4.53820
G1 X60.900 Y57.425 E4.56066
G1 X60.000 Y57.225 E4.59156
G1 X59.088 Y57.425 E4.62245
G1 X58.488 Y57.725 E4.64491
G1 X57.975 Y58.175 E4.66736
G1 X57.700 Y58.563 E4.68311
G1 X57.075 Y58.225 E4.70668
G1 X57.188 Y57.888 E4.71861
G1 X58.013 Y57.150 E4.75571
G1 X58.763 Y56.750 E4.78359
G1 X59.575 Y56.550 E4.81147
G1 X60.413 Y56.550 E4.83936
G1 X61.225 Y56.750 E4.86725
G1 X61.975 Y57.150 E4.89513
G1 X62.800 Y57.888 E4.93223
G1 X62.913 Y58.225 E4.94416
G1 X62.463 Y58.463 E4.96108
G1 X62.263 Y58.088
G1 F1800.000 E0.46108
G92 E0
G1 X82.337 Y37.175 F3600.000
G1 F1800.000 E4.50000
G1 X37.650 Y37.175 F900.000 E5.98606
G1 X37.650 Y36.538 E6.00711
G1 X82.337 Y36.538 E7.49317
G1 X82.337 Y36.975 E7.50757
G1 X82.738 Y37.575
G1 X37.250 Y37.575 E9.02024
G1 X37.250 Y36.138 E9.06789
G1 X82.738 Y36.138 E10.58056
G1 X82.738 Y37.375 E10.62156
G1 X82.038 Y37.175
G1 F1800.000 E6.12156
G92 E0
G1 X62.888 Y57.750 F3600.000
G1 F1800.000 E4.50000
G1 X78.500 Y46.250 F900.000 E5.14482
G1 X70.650 Y41.700 E5.44643
G1 X62.438 Y53.813 E5.93307
G1 X61.325 Y53.513 E5.97119
G1 X60.000 Y53.350 E6.01587
G1 X58.663 Y53.513 E6.06054
G1 X57.550 Y53.813 E6.09866
G1 X49.338 Y41.700 E6.58530
G1 X41.487 Y46.250 E6.88692
G1 X57.100 Y57.750 E7.53173
G1 X56.950 Y58.163
G1 X37.288 Y58.163 E8.18602
G1 X37.288 Y61.825 E8.30798
G1 X56.950 Y61.825 E8.96228
G1 X57.100 Y62.238
G1 X41.487 Y73.738 E9.60709
G1 X49.338 Y78.287 E9.90870
G1 X57.550 Y66.175 E10.39534
G1 X59.525 Y66.613 E10.46225
G1 X60.238 Y66.625
G1 X59.525 Y66.612 E10.48601
G1 X57.475 Y82.188 E11.00844
G1 F1800.000 E6.50844
G92 E0
G1 X62.513 Y82.188 F3600.000
G1 F1800.000 E4.50000
G1 X60.463 Y66.613 F900.000 E5.02261
G1 X62.438 Y66.175 E5.08975
G1 X70.650 Y78.287 E5.57639
G1 X78.500 Y73.738 E5.87800
G1 X62.888 Y62.238 E6.52282
G1 X63.038 Y61.825
G1 X82.700 Y61.825 E7.17711
G1 X82.700 Y58.163 E7.29907
G1 X63.038 Y58.163 E7.95336
G1 F1800.000 E3.45336
G92 E0
G1 X60.000 Y57.450 F3600.000
G1 F1800.000 E4.50000
G1 X59.988 Y62.538 F900.000 E4.66891
G1 F1800.000 E0.16891
G92 E0
G1 X59.500 Y53.137 F3600.000
G1 F1800.000 E4.50000
G1 X57.475 Y37.800 F900.000 E5.01467
G1 F1800.000 E0.51467
G92 E0
G1 X62.513 Y37.800 F3600.000
G1 F1800.000 E4.50000
G1 X60.487 Y53.137 F900.000 E5.01467
; perimeter_end
; infill_start
G1 F1800.000 E0.51467
G92 E0
G1 X82.000 Y36.850 F3600.000
G1 F1800.000 E4.50000
G1 X37.988 Y36.850 F600.000 E5.48317
G1 F1800.000 E0.98317
G92 E0
G1 X57.588 Y58.075 F3600.000
G1 F1800.000 E4.50000
G1 X58.288 Y57.400 F600.000 E4.52813
G1 X58.963 Y57.063 E4.54967
G1 X59.538 Y56.913 E4.56669
G1 X60.288 Y56.900 E4.58836
G1 X61.025 Y57.063 E4.60993
G1 X61.700 Y57.400 E4.63150
G1 X62.538 Y58.175 E4.66440
G1 F1800.000 E0.16440
G92 E0
G1 X62.400 Y61.913 F3600.000
G1 F1800.000 E4.50000
G1 X61.700 Y62.588 F600.000 E4.52809
G1 X61.025 Y62.925 E4.54960
G1 X60.288 Y63.100 E4.57122
G1 X59.700 Y63.088 E4.58821
G1 X58.963 Y62.925 E4.60974
G1 X58.288 Y62.588 E4.63128
G1 X57.450 Y61.813 E4.66414
G1 F1800.000 E0.16414
G92 E0
G1 X37.988 Y83.138 F3600.000
G1 F1800.000 E4.50000
G1 X82.000 Y83.138 F600.000 E5.48317
; infill_end
G1 F1800.000 E0.98317
G92 E0
; Layer: 17 Time: 66
G1 Z3.550 F3600.000
; Region: 0
; perimeter_start
G1 X82.337 Y82.813
G1 F1800.000 E4.50000
G1 X82.337 Y83.450 F900.000 E4.52105
G1 X37.650 Y83.450 E6.00711
G1 X37.650 Y82.813 E6.02815
G1 X82.138 Y82.813 E7.50757
G1 X82.738 Y82.413
G1 X82.738 Y83.850 E7.55522
G1 X37.250 Y83.850 E9.06789
G1 X37.250 Y82.413 E9.11554
G1 X82.537 Y82.413 E10.62156
G1 X82.337 Y83.113
G1 F1800.000 E6.12156
G92 E0
G1 X62.800 Y62.100 F3600.000
G1 F1800.000 E4.50000
G1 X61.975 Y62.838 F900.000 E4.53709
G1 X61.225 Y63.238 E4.56498
G1 X60.413 Y63.438 E4.59286
G1 X59.575 Y63.438 E4.62075
G1 X58.763 Y63.238 E4.64864
G1 X58.013 Y62.838 E4.67652
G1 X57.188 Y62.100 E4.71362
G1 X57.075 Y61.763 E4.72555
G1 X57.700 Y61.425 E4.74912
G1 X57.975 Y61.813 E4.76487
G1 X58.488 Y62.263 E4.78732
G1 X59.088 Y62.563 E4.80978
G1 X60.000 Y62.763 E4.84067
G1 X60.900 Y62.563 E4.87157
G1 X61.500 Y62.263 E4.89402
G1 X62.013 Y61.813 E4.91648
G1 X62.288 Y61.425 E4.93223
G1 X62.913 Y61.763 E4.95579
G1 X62.863 Y61.913 E4.96108
G1 X62.013 Y61.988
G1 F1800.000 E0.46108
G92 E0
G1 X62.288 Y58.563 F3600.000
G1 F1800.000 E4.50000
G1 X62.013 Y58.175 F900.000 E4.51575
G1 X61.500 Y57.725 E4.53820
G1 X60.900 Y57.425 E4.56066
G1 X60.000 Y57.225 E4.59156
G1 X59.088 Y57.425 E4.62245
G1 X58.488 Y57.725 E4.64491
G1 X57.975 Y58.175 E4.66736
G1 X57.700 Y58.563 E4.68311
G1 X57.075 Y58.225 E4.70668
G1 X57.188 Y57.888 E4.71861
G1 X58.013 Y57.150 E4.75571
G1 X58.763 Y56.750 E4.78359
G1 X59.575 Y56.550 E4.81147
G1 X60.413 Y56.550 E4.83936
G1 X61.225 Y56.750 E4.86725
G1 X61.975 Y57.150 E4.89513
G1 X62.800 Y57.888 E4.93223
G1 X62.913 Y58.225 E4.94416
G1 X62.463 Y58.463 E4.96108
G1 X62.263 Y58.088
G1 F1800.000 E0.46108
G92 E0
G1 X82.337 Y37.175 F3600.000
G1 F1800.000 E4.50000
G1 X37.650 Y37.175 F900.000 E5.98606
G1 X37.650 Y36.538 E6.00711
G1 X82.337 Y36.538 E7.49317
G1 X82.337 Y36.975 E7.50757
G1 X82.738 Y37.575
G1 X37.250 Y37.575 E9.02024
G1 X37.250 Y36.138 E9.06789
G1 X82.738 Y36.138 E10.58056
G1 X82.738 Y37.375 E10.62156
G1 X82.038 Y37.175
G1 F1800.000 E6.12156
G92 E0
G1 X62.888 Y57.750 F3600.000
G1 F1800.000 E4.50000
G1 X78.500 Y46.250 F900.000 E5.14482
G1 X70.650 Y41.700 E5.44643
G1 X62.438 Y53.813 E5.93307
G1 X61.325 Y53.513 E5.97119
G1 X60.000 Y53.350 E6.01587
G1 X58.663 Y53.513 E6.06054
G1 X57.550 Y53.813 E6.09866
G1 X49.338 Y41.700 E6.58530
G1 X41.487 Y46.250 E6.88692
G1 X57.100 Y57.750 E7.53173
G1 X56.950 Y58.163
G1 X37.288 Y58.163 E8.18602
G1 X37.288 Y61.825 E8.30798
G1 X56.950 Y61.825 E8.96228
G1 X57.100 Y62.238
G1 X41.487 Y73.738 E9.60709
G1 X49.338 Y78.287 E9.90870
G1 X57.550 Y66.175 E10.39534
G1 X59.525 Y66.613 E10.46225
G1 X60.238 Y66.625
G1 X59.525 Y66.612 E10.48601
G1 X57.475 Y82.188 E11.00844
G1 F1800.000 E6.50844
G92 E0
G1 X62.513 Y82.188 F3600.000
G1 F1800.000 E4.50000
G1 X60.463 Y66.613 F900.000 E5.02261
G1 X62.438 Y66.175 E5.08975
G1 X70.650 Y78.287 E5.57639
G1 X78.500 Y73.738 E5.87800
G1 X62.888 Y62.238 E6.52282
G1 X63.038 Y61.825
G1 X82.700 Y61.825 E7.17711
G1 X82.700 Y58.163 E7.29907
G1 X63.038 Y58.163 E7.95336
G1 F1800.000 E3.45336
G92 E0
G1 X60.000 Y57.450 F3600.000
G1 F1800.000 E4.50000
G1 X59.988 Y62.538 F900.000 E4.66891
G1 F1800.000 E0.16891
G92 E0
G1 X59.500 Y53.137 F3600.000
G1 F1800.000 E4.50000
G1 X57.475 Y37.800 F900.000 E5.01467
G1 F1800.000 E0.51467
G92 E0
G1 X62.513 Y37.800 F3600.000
G1 F1800.000 E4.50000
G1 X60.487 Y53.137 F900.000 E5.01467
; perimeter_end
; infill_start
G1 F1800.000 E0.51467
G92 E0
G1 X82.000 Y36.850 F3600.000
G1 F1800.000 E4.50000
G1 X37.988 Y36.850 F600.000 E5.48317
G1 F1800.000 E0.98317
G92 E0
G1 X57.588 Y58.075 F3600.000
G1 F1800.000 E4.50000
G1 X58.288 Y57.400 F600.000 E4.52813
G1 X58.963 Y57.063 E4.54967
G1 X59.538 Y56.913 E4.56669
G1 X60.288 Y56.900 E4.58836
G1 X61.025 Y57.063 E4.60993
G1 X61.700 Y57.400 E4.63150
G1 X62.538 Y58.175 E4.66440
G1 F1800.000 E0.16440
G92 E0
G1 X62.400 Y61.913 F3600.000
G1 F1800.000 E4.50000
G1 X61.700 Y62.588 F600.000 E4.52809
G1 X61.025 Y62.925 E4.54960
G1 X60.288 Y63.100 E4.57122
G1 X59.700 Y63.088 E4.58821
G1 X58.963 Y62.925 E4.60974
G1 X58.288 Y62.588 E4.63128
G1 X57.450 Y61.813 E4.66414
G1 F1800.000 E0.16414
G92 E0
G1 X37.988 Y83.138 F3600.000
G1 F1800.000 E4.50000
G1 X82.000 Y83.138 F600.000 E5.48317
; infill_end
G1 F1800.000 E0.98317
G92 E0
; Layer: 18 Time: 66
G1 Z3.750 F3600.000
; Region: 0
; perimeter_start
G1 X82.337 Y82.813
G1 F1800.000 E4.50000
G1 X82.337 Y83.450 F900.000 E4.52105
G1 X37.650 Y83.450 E6.00711
G1 X37.650 Y82.813 E6.02815
G1 X82.138 Y82.813 E7.50757
G1 X82.738 Y82.413
G1 X82.738 Y83.850 E7.55522
G1 X37.250 Y83.850 E9.06789
G1 X37.250 Y82.413 E9.11554
G1 X82.537 Y82.413 E10.62156
G1 X82.337 Y83.113
G1 F1800.000 E6.12156
G92 E0
G1 X62.800 Y62.100 F3600.000
G1 F1800.000 E4.50000
G1 X61.975 Y62.838 F900.000 E4.53709
G1 X61.225 Y63.238 E4.56498
G1 X60.413 Y63.438 E4.59286
G1 X59.575 Y63.438 E4.62075
G1 X58.763 Y63.238 E4.64864
G1 X58.013 Y62.838 E4.67652
G1 X57.188 Y62.100 E4.71362
G1 X57.075 Y61.763 E4.72555
G1 X57.700 Y61.425 E4.74912
G1 X57.975 Y61.813 E4.76487
G1 X58.488 Y62.263 E4.78732
G1 X59.088 Y62.563 E4.80978
G1 X60.000 Y62.763 E4.84067
G1 X60.900 Y62.563 E4.87157
G1 X61.500 Y62.263 E4.89402
G1 X62.013 Y61.813 E4.91648
G1 X62.288 Y61.425 E4.93223
G1 X62.913 Y61.763 E4.95579
G1 X62.863 Y61.913 E4.96108
G1 X62.013 Y61.988
G1 F1800.000 E0.46108
G92 E0
G1 X62.288 Y58.563 F3600.000
G1 F1800.000 E4.50000
G1 X62.013 Y58.175 F900.000 E4.51575
G1 X61.500 Y57.725 E4.53820
G1 X60.900 Y57.425 E4.56066
G1 X60.000 Y57.225 E4.59156
G1 X59.088 Y57.425 E4.62245
G1 X58.488 Y57.725 E4.64491
G1 X57.975 Y58.175 E4.66736
G1 X57.700 Y58.563 E4.68311
G1 X57.075 Y58.225 E4.70668
G1 X57.188 Y57.888 E4.71861
G1 X58.013 Y57.150 E4.75571
G1 X58.763 Y56.750 E4.78359
G1 X59.575 Y56.550 E4.81147
G1 X60.413 Y56.550 E4.83936
G1 X61.225 Y56.750 E4.86725
G1 X61.975 Y57.150 E4.89513
G1 X62.800 Y57.888 E4.93223
G1 X62.913 Y58.225 E4.94416
G1 X62.463 Y58.463 E4.96108
G1 X62.263 Y58.088
G1 F1800.000 E0.46108
G92 E0
G1 X82.337 Y37.175 F3600.000
G1 F1800.000 E4.50000
G1 X37.650 Y37.175 F900.000 E5.98606
G1 X37.650 Y36.538 E6.00711
G1 X82.337 Y36.538 E7.49317
G1 X82.337 Y36.975 E7.50757
G1 X82.738 Y37.575
G1 X37.250 Y37.575 E9.02024
G1 X37.250 Y36.138 E9.06789
G1 X82.738 Y36.138 E10.58056
G1 X82.738 Y37.375 E10.62156
G1 X82.038 Y37.175
G1 F1800.000 E6.12156
G92 E0
G1 X62.888 Y57.750 F3600.000
G1 F1800.000 E4.50000
G1 X78.500 Y46.250 F900.000 E5.14482
G1 X70.650 Y41.700 E5.44643
G1 X62.438 Y53.813 E5.93307
G1 X61.325 Y53.513 E5.97119
G1 X60.000 Y53.350 E6.01587
G1 X58.663 Y53.513 E6.06054
G1 X57.550 Y53.813 E6.09866
G1 X49.338 Y41.700 E6.58530
G1 X41.487 Y46.250 E6.88692
G1 X57.100 Y57.750 E7.53173
G1 X56.950 Y58.163
G1 X37.288 Y58.163 E8.18602
G1 X37.288 Y61.825 E8.30798
G1 X56.950 Y61.825 E8.96228
G1 X57.100 Y62.238
G1 X41.487 Y73.738 E9.60709
G1 X49.338 Y78.287 E9.90870
G1 X57.550 Y66.175 E10.39534
G1 X59.525 Y66.613 E10.46225
G1 X60.238 Y66.625
G1 X59.525 Y66.612 E10.48601
G1 X57.475 Y82.188 E11.00844
G1 F1800.000 E6.50844
G92 E0
G1 X62.513 Y82.188 F3600.000
G1 F1800.000 E4.50000
G1 X60.463 Y66.613 F900.000 E5.02261
G1 X62.438 Y66.175 E5.08975
G1 X70.650 Y78.287 E5.57639
G1 X78.500 Y73.738 E5.87800
G1 X62.888 Y62.238 E6.52282
G1 X63.038 Y61.825
G1 X82.700 Y61.825 E7.17711
G1 X82.700 Y58.163 E7.29907
G1 X63.038 Y58.163 E7.95336
G1 F1800.000 E3.45336
G92 E0
G1 X60.000 Y57.450 F3600.000
G1 F1800.000 E4.50000
G1 X59.988 Y62.538 F900.000 E4.66891
G1 F1800.000 E0.16891
G92 E0
G1 X59.500 Y53.137 F3600.000
G1 F1800.000 E4.50000
G1 X57.475 Y37.800 F900.000 E5.01467
G1 F1800.000 E0.51467
G92 E0
G1 X62.513 Y37.800 F3600.000
G1 F1800.000 E4.50000
G1 X60.487 Y53.137 F900.000 E5.01467
; perimeter_end
; infill_start
G1 F1800.000 E0.51467
G92 E0
G1 X82.000 Y36.850 F3600.000
G1 F1800.000 E4.50000
G1 X37.988 Y36.850 F600.000 E5.48317
G1 F1800.000 E0.98317
G92 E0
G1 X57.588 Y58.075 F3600.000
G1 F1800.000 E4.50000
G1 X58.288 Y57.400 F600.000 E4.52813
G1 X58.963 Y57.063 E4.54967
G1 X59.538 Y56.913 E4.56669
G1 X60.288 Y56.900 E4.58836
G1 X61.025 Y57.063 E4.60993
G1 X61.700 Y57.400 E4.63150
G1 X62.538 Y58.175 E4.66440
G1 F1800.000 E0.16440
G92 E0
G1 X62.400 Y61.913 F3600.000
G1 F1800.000 E4.50000
G1 X61.700 Y62.588 F600.000 E4.52809
G1 X61.025 Y62.925 E4.54960
G1 X60.288 Y63.100 E4.57122
G1 X59.700 Y63.088 E4.58821
G1 X58.963 Y62.925 E4.60974
G1 X58.288 Y62.588 E4.63128
G1 X57.450 Y61.813 E4.66414
G1 F1800.000 E0.16414
G92 E0
G1 X37.988 Y83.138 F3600.000
G1 F1800.000 E4.50000
G1 X82.000 Y83.138 F600.000 E5.48317
; infill_end
G1 F1800.000 E0.98317
G92 E0
; Layer: 19 Time: 66
G1 Z3.950 F3600.000
; Region: 0
; perimeter_start
G1 X82.337 Y82.813
G1 F1800.000 E4.50000
G1 X82.337 Y83.450 F900.000 E4.52105
G1 X37.650 Y83.450 E6.00711
G1 X37.650 Y82.813 E6.02815
G1 X82.138 Y82.813 E7.50757
G1 X82.738 Y82.413
G1 X82.738 Y83.850 E7.55522
G1 X37.250 Y83.850 E9.06789
G1 X37.250 Y82.413 E9.11554
G1 X82.537 Y82.413 E10.62156
G1 X82.337 Y83.113
G1 F1800.000 E6.12156
G92 E0
G1 X62.800 Y62.100 F3600.000
G1 F1800.000 E4.50000
G1 X61.975 Y62.838 F900.000 E4.53709
G1 X61.225 Y63.238 E4.56498
G1 X60.413 Y63.438 E4.59286
G1 X59.575 Y63.438 E4.62075
G1 X58.763 Y63.238 E4.64864
G1 X58.013 Y62.838 E4.67652
G1 X57.188 Y62.100 E4.71362
G1 X57.075 Y61.763 E4.72555
G1 X57.700 Y61.425 E4.74912
G1 X57.975 Y61.813 E4.76487
G1 X58.488 Y62.263 E4.78732
G1 X59.088 Y62.563 E4.80978
G1 X60.000 Y62.763 E4.84067
G1 X60.900 Y62.563 E4.87157
G1 X61.500 Y62.263 E4.89402
G1 X62.013 Y61.813 E4.91648
G1 X62.288 Y61.425 E4.93223
G1 X62.913 Y61.763 E4.95579
G1 X62.863 Y61.913 E4.96108
G1 X62.013 Y61.988
G1 F1800.000 E0.46108
G92 E0
G1 X62.288 Y58.563 F3600.000
G1 F1800.000 E4.50000
G1 X62.013 Y58.175 F900.000 E4.51575
G1 X61.500 Y57.725 E4.53820
G1 X60.900 Y57.425 E4.56066
G1 X60.000 Y57.225 E4.59156
G1 X59.088 Y57.425 E4.62245
G1 X58.488 Y57.725 E4.64491
G1 X57.975 Y58.175 E4.66736
G1 X57.700 Y58.563 E4.68311
G1 X57.075 Y58.225 E4.70668
G1 X57.188 Y57.888 E4.71861
G1 X58.013 Y57.150 E4.75571
G1 X58.763 Y56.750 E4.78359
G1 X59.575 Y56.550 E4.81147
G1 X60.413 Y56.550 E4.83936
G1 X61.225 Y56.750 E4.86725
G1 X61.975 Y57.150 E4.89513
G1 X62.800 Y57.888 E4.93223
G1 X62.913 Y58.225 E4.94416
G1 X62.463 Y58.463 E4.96108
G1 X62.263 Y58.088
G1 F1800.000 E0.46108
G92 E0
G1 X82.337 Y37.175 F3600.000
G1 F1800.000 E4.50000
G1 X37.650 Y37.175 F900.000 E5.98606
G1 X37.650 Y36.538 E6.00711
G1 X82.337 Y36.538 E7.49317
G1 X82.337 Y36.975 E7.50757
G1 X82.738 Y37.575
G1 X37.250 Y37.575 E9.02024
G1 X37.250 Y36.138 E9.06789
G1 X82.738 Y36.138 E10.58056
G1 X82.738 Y37.375 E10.62156
G1 X82.038 Y37.175
G1 F1800.000 E6.12156
G92 E0
G1 X62.888 Y57.750 F3600.000
G1 F1800.000 E4.50000
G1 X78.500 Y46.250 F900.000 E5.14482
G1 X70.650 Y41.700 E5.44643
G1 X62.438 Y53.813 E5.93307
G1 X61.325 Y53.513 E5.97119
G1 X60.000 Y53.350 E6.01587
G1 X58.663 Y53.513 E6.06054
G1 X57.550 Y53.813 E6.09866
G1 X49.338 Y41.700 E6.58530
G1 X41.487 Y46.250 E6.88692
G1 X57.100 Y57.750 E7.53173
G1 X56.950 Y58.163
G1 X37.288 Y58.163 E8.18602
G1 X37.288 Y61.825 E8.30798
G1 X56.950 Y61.825 E8.96228
G1 X57.100 Y62.238
G1 X41.487 Y73.738 E9.60709
G1 X49.338 Y78.287 E9.90870
G1 X57.550 Y66.175 E10.39534
G1 X59.525 Y66.613 E10.46225
G1 X60.238 Y66.625
G1 X59.525 Y66.612 E10.48601
G1 X57.475 Y82.188 E11.00844
G1 F1800.000 E6.50844
G92 E0
G1 X62.513 Y82.188 F3600.000
G1 F1800.000 E4.50000
G1 X60.463 Y66.613 F900.000 E5.02261
G1 X62.438 Y66.175 E5.08975
G1 X70.650 Y78.287 E5.57639
G1 X78.500 Y73.738 E5.87800
G1 X62.888 Y62.238 E6.52282
G1 X63.038 Y61.825
G1 X82.700 Y61.825 E7.17711
G1 X82.700 Y58.163 E7.29907
G1 X63.038 Y58.163 E7.95336
G1 F1800.000 E3.45336
G92 E0
G1 X60.000 Y57.450 F3600.000
G1 F1800.000 E4.50000
G1 X59.988 Y62.538 F900.000 E4.66891
G1 F1800.000 E0.16891
G92 E0
G1 X59.500 Y53.137 F3600.000
G1 F1800.000 E4.50000
G1 X57.475 Y37.800 F900.000 E5.01467
G1 F1800.000 E0.51467
G92 E0
G1 X62.513 Y37.800 F3600.000
G1 F1800.000 E4.50000
G1 X60.487 Y53.137 F900.000 E5.01467
; perimeter_end
; infill_start
G1 F1800.000 E0.51467
G92 E0
G1 X82.000 Y36.850 F3600.000
G1 F1800.000 E4.50000
G1 X37.988 Y36.850 F600.000 E5.48317
G1 F1800.000 E0.98317
G92 E0
G1 X57.588 Y58.075 F3600.000
G1 F1800.000 E4.50000
G1 X58.288 Y57.400 F600.000 E4.52813
G1 X58.963 Y57.063 E4.54967
G1 X59.538 Y56.913 E4.56669
G1 X60.288 Y56.900 E4.58836
G1 X61.025 Y57.063 E4.60993
G1 X61.700 Y57.400 E4.63150
G1 X62.538 Y58.175 E4.66440
G1 F1800.000 E0.16440
G92 E0
G1 X62.400 Y61.913 F3600.000
G1 F1800.000 E4.50000
G1 X61.700 Y62.588 F600.000 E4.52809
G1 X61.025 Y62.925 E4.54960
G1 X60.288 Y63.100 E4.57122
G1 X59.700 Y63.088 E4.58821
G1 X58.963 Y62.925 E4.60974
G1 X58.288 Y62.588 E4.63128
G1 X57.450 Y61.813 E4.66414
G1 F1800.000 E0.16414
G92 E0
G1 X37.988 Y83.138 F3600.000
G1 F1800.000 E4.50000
G1 X82.000 Y83.138 F600.000 E5.48317
; infill_end
G1 F1800.000 E0.98317
G92 E0
; Layer: 20 Time: 66
G1 Z4.150 F3600.000
; Region: 0
; perimeter_start
G1 X82.337 Y82.813
G1 F1800.000 E4.50000
G1 X82.337 Y83.450 F900.000 E4.52105
G1 X37.650 Y83.450 E6.00711
G1 X37.650 Y82.813 E6.02815
G1 X82.138 Y82.813 E7.50757
G1 X82.738 Y82.413
G1 X82.738 Y83.850 E7.55522
G1 X37.250 Y83.850 E9.06789
G1 X37.250 Y82.413 E9.11554
G1 X82.537 Y82.413 E10.62156
G1 X82.337 Y83.113
G1 F1800.000 E6.12156
G92 E0
G1 X62.800 Y62.100 F3600.000
G1 F1800.000 E4.50000
G1 X61.975 Y62.838 F900.000 E4.53709
G1 X61.225 Y63.238 E4.56498
G1 X60.413 Y63.438 E4.59286
G1 X59.575 Y63.438 E4.62075
G1 X58.763 Y63.238 E4.64864
G1 X58.013 Y62.838 E4.67652
G1 X57.188 Y62.100 E4.71362
G1 X57.075 Y61.763 E4.72555
G1 X57.700 Y61.425 E4.74912
G1 X57.975 Y61.813 E4.76487
G1 X58.488 Y62.263 E4.78732
G1 X59.088 Y62.563 E4.80978
G1 X60.000 Y62.763 E4.84067
G1 X60.900 Y62.563 E4.87157
G1 X61.500 Y62.263 E4.89402
G1 X62.013 Y61.813 E4.91648
G1 X62.288 Y61.425 E4.93223
G1 X62.913 Y61.763 E4.95579
G1 X62.863 Y61.913 E4.96108
G1 X62.013 Y61.988
G1 F1800.000 E0.46108
G92 E0
G1 X62.288 Y58.563 F3600.000
G1 F1800.000 E4.50000
G1 X62.013 Y58.175 F900.000 E4.51575
G1 X61.500 Y57.725 E4.53820
G1 X60.900 Y57.425 E4.56066
G1 X60.000 Y57.225 E4.59156
G1 X59.088 Y57.425 E4.62245
G1 X58.488 Y57.725 E4.64491
G1 X57.975 Y58.175 E4.66736
G1 X57.700 Y58.563 E4.68311
G1 X57.075 Y58.225 E4.70668
G1 X57.188 Y57.888 E4.71861
G1 X58.013 Y57.150 E4.75571
G1 X58.763 Y56.750 E4.78359
G1 X59.575 Y56.550 E4.81147
G1 X60.413 Y56.550 E4.83936
G1 X61.225 Y56.750 E4.86725
G1 X61.975 Y57.150 E4.89513
G1 X62.800 Y57.888 E4.93223
G1 X62.913 Y58.225 E4.94416
G1 X62.463 Y58.463 E4.96108
G1 X62.263 Y58.088
G1 F1800.000 E0.46108
G92 E0
G1 X82.337 Y37.175 F3600.000
G1 F1800.000 E4.50000
G1 X37.650 Y37.175 F900.000 E5.98606
G1 X37.650 Y36.538 E6.00711
G1 X82.337 Y36.538 E7.49317
G1 X82.337 Y36.975 E7.50757
G1 X82.738 Y37.575
G1 X37.250 Y37.575 E9.02024
G1 X37.250 Y36.138 E9.06789
G1 X82.738 Y36.138 E10.58056
G1 X82.738 Y37.375 E10.62156
G1 X82.038 Y37.175
G1 F1800.000 E6.12156
G92 E0
G1 X62.888 Y57.750 F3600.000
G1 F1800.000 E4.50000
G1 X78.500 Y46.250 F900.000 E5.14482
G1 X70.650 Y41.700 E5.44643
G1 X62.438 Y53.813 E5.93307
G1 X61.325 Y53.513 E5.97119
G1 X60.000 Y53.350 E6.01587
G1 X58.663 Y53.513 E6.06054
G1 X57.550 Y53.813 E6.09866
G1 X49.338 Y41.700 E6.58530
G1 X41.487 Y46.250 E6.88692
G1 X57.100 Y57.750 E7.53173
G1 X56.950 Y58.163
G1 X37.288 Y58.163 E8.18602
G1 X37.288 Y61.825 E8.30798
G1 X56.950 Y61.825 E8.96228
G1 X57.100 Y62.238
G1 X41.487 Y73.738 E9.60709
G1 X49.338 Y78.287 E9.90870
G1 X57.550 Y66.175 E10.39534
G1 X59.525 Y66.613 E10.46225
G1 X60.238 Y66.625
G1 X59.525 Y66.612 E10.48601
G1 X57.475 Y82.188 E11.00844
G1 F1800.000 E6.50844
G92 E0
G1 X62.513 Y82.188 F3600.000
G1 F1800.000 E4.50000
G1 X60.463 Y66.613 F900.000 E5.02261
G1 X62.438 Y66.175 E5.08975
G1 X70.650 Y78.287 E5.57639
G1 X78.500 Y73.738 E5.87800
G1 X62.888 Y62.238 E6.52282
G1 X63.038 Y61.825
G1 X82.700 Y61.825 E7.17711
G1 X82.700 Y58.163 E7.29907
G1 X63.038 Y58.163 E7.95336
G1 F1800.000 E3.45336
G92 E0
G1 X60.000 Y57.450 F3600.000
G1 F1800.000 E4.50000
G1 X59.988 Y62.538 F900.000 E4.66891
G1 F1800.000 E0.16891
G92 E0
G1 X59.500 Y53.137 F3600.000
G1 F1800.000 E4.50000
G1 X57.475 Y37.800 F900.000 E5.01467
G1 F1800.000 E0.51467
G92 E0
G1 X62.513 Y37.800 F3600.000
G1 F1800.000 E4.50000
G1 X60.487 Y53.137 F900.000 E5.01467
; perimeter_end
; infill_start
G1 F1800.000 E0.51467
G92 E0
G1 X82.000 Y36.850 F3600.000
G1 F1800.000 E4.50000
G1 X37.988 Y36.850 F600.000 E5.48317
G1 F1800.000 E0.98317
G92 E0
G1 X57.588 Y58.075 F3600.000
G1 F1800.000 E4.50000
G1 X58.288 Y57.400 F600.000 E4.52813
G1 X58.963 Y57.063 E4.54967
G1 X59.538 Y56.913 E4.56669
G1 X60.288 Y56.900 E4.58836
G1 X61.025 Y57.063 E4.60993
G1 X61.700 Y57.400 E4.63150
G1 X62.538 Y58.175 E4.66440
G1 F1800.000 E0.16440
G92 E0
G1 X62.400 Y61.913 F3600.000
G1 F1800.000 E4.50000
G1 X61.700 Y62.588 F600.000 E4.52809
G1 X61.025 Y62.925 E4.54960
G1 X60.288 Y63.100 E4.57122
G1 X59.700 Y63.088 E4.58821
G1 X58.963 Y62.925 E4.60974
G1 X58.288 Y62.588 E4.63128
G1 X57.450 Y61.813 E4.66414
G1 F1800.000 E0.16414
G92 E0
G1 X37.988 Y83.138 F3600.000
G1 F1800.000 E4.50000
G1 X82.000 Y83.138 F600.000 E5.48317
; infill_end
G1 F1800.000 E0.98317
G92 E0
; Layer: 21 Time: 66
G1 Z4.350 F3600.000
; Region: 0
; perimeter_start
G1 X82.337 Y82.813
G1 F1800.000 E4.50000
G1 X82.337 Y83.450 F900.000 E4.52105
G1 X37.650 Y83.450 E6.00711
G1 X37.650 Y82.813 E6.02815
G1 X82.138 Y82.813 E7.50757
G1 X82.738 Y82.413
G1 X82.738 Y83.850 E7.55522
G1 X37.250 Y83.850 E9.06789
G1 X37.250 Y82.413 E9.11554
G1 X82.537 Y82.413 E10.62156
G1 X82.337 Y83.113
G1 F1800.000 E6.12156
G92 E0
G1 X62.800 Y62.100 F3600.000
G1 F1800.000 E4.50000
G1 X61.975 Y62.838 F900.000 E4.53709
G1 X61.225 Y63.238 E4.56498
G1 X60.413 Y63.438 E4.59286
G1 X59.575 Y63.438 E4.62075
G1 X58.763 Y63.238 E4.64864
G1 X58.013 Y62.838 E4.67652
G1 X57.188 Y62.100 E4.71362
G1 X57.075 Y61.763 E4.72555
G1 X57.700 Y61.425 E4.74912
G1 X57.975 Y61.813 E4.76487
G1 X58.488 Y62.263 E4.78732
G1 X59.088 Y62.563 E4.80978
G1 X60.000 Y62.763 E4.84067
G1 X60.900 Y62.563 E4.87157
G1 X61.500 Y62.263 E4.89402
G1 X62.013 Y61.813 E4.91648
G1 X62.288 Y61.425 E4.93223
G1 X62.913 Y61.763 E4.95579
G1 X62.863 Y61.913 E4.96108
G1 X62.013 Y61.988
G1 F1800.000 E0.46108
G92 E0
G1 X62.288 Y58.563 F3600.000
G1 F1800.000 E4.50000
G1 X62.013 Y58.175 F900.000 E4.51575
G1 X61.500 Y57.725 E4.53820
G1 X60.900 Y57.425 E4.56066
G1 X60.000 Y57.225 E4.59156
G1 X59.088 Y57.425 E4.62245
G1 X58.488 Y57.725 E4.64491
G1 X57.975 Y58.175 E4.66736
G1 X57.700 Y58.563 E4.68311
G1 X57.075 Y58.225 E4.70668
G1 X57.188 Y57.888 E4.71861
G1 X58.013 Y57.150 E4.75571
G1 X58.763 Y56.750 E4.78359
G1 X59.575 Y56.550 E4.81147
G1 X60.413 Y56.550 E4.83936
G1 X61.225 Y56.750 E4.86725
G1 X61.975 Y57.150 E4.89513
G1 X62.800 Y57.888 E4.93223
G1 X62.913 Y58.225 E4.94416
G1 X62.463 Y58.463 E4.96108
G1 X62.263 Y58.088
G1 F1800.000 E0.46108
G92 E0
G1 X82.337 Y37.175 F3600.000
G1 F1800.000 E4.50000
G1 X37.650 Y37.175 F900.000 E5.98606
G1 X37.650 Y36.538 E6.00711
G1 X82.337 Y36.538 E7.49317
G1 X82.337 Y36.975 E7.50757
G1 X82.738 Y37.575
G1 X37.250 Y37.575 E9.02024
G1 X37.250 Y36.138 E9.06789
G1 X82.738 Y36.138 E10.58056
G1 X82.738 Y37.375 E10.62156
G1 X82.038 Y37.175
G1 F1800.000 E6.12156
G92 E0
G1 X62.888 Y57.750 F3600.000
G1 F1800.000 E4.50000
G1 X78.500 Y46.250 F900.000 E5.14482
G1 X70.650 Y41.700 E5.44643
G1 X62.438 Y53.813 E5.93307
G1 X61.325 Y53.513 E5.97119
G1 X60.000 Y53.350 E6.01587
G1 X58.663 Y53.513 E6.06054
G1 X57.550 Y53.813 E6.09866
G1 X49.338 Y41.700 E6.58530
G1 X41.487 Y46.250 E6.88692
G1 X57.100 Y57.750 E7.53173
G1 X56.950 Y58.163
G1 X37.288 Y58.163 E8.18602
G1 X37.288 Y61.825 E8.30798
G1 X56.950 Y61.825 E8.96228
G1 X57.100 Y62.238
G1 X41.487 Y73.738 E9.60709
G1 X49.338 Y78.287 E9.90870
G1 X57.550 Y66.175 E10.39534
G1 X59.525 Y66.613 E10.46225
G1 X60.238 Y66.625
G1 X59.525 Y66.612 E10.48601
G1 X57.475 Y82.188 E11.00844
G1 F1800.000 E6.50844
G92 E0
G1 X62.513 Y82.188 F3600.000
G1 F1800.000 E4.50000
G1 X60.463 Y66.613 F900.000 E5.02261
G1 X62.438 Y66.175 E5.08975
G1 X70.650 Y78.287 E5.57639
G1 X78.500 Y73.738 E5.87800
G1 X62.888 Y62.238 E6.52282
G1 X63.038 Y61.825
G1 X82.700 Y61.825 E7.17711
G1 X82.700 Y58.163 E7.29907
G1 X63.038 Y58.163 E7.95336
G1 F1800.000 E3.45336
G92 E0
G1 X60.000 Y57.450 F3600.000
G1 F1800.000 E4.50000
G1 X59.988 Y62.538 F900.000 E4.66891
G1 F1800.000 E0.16891
G92 E0
G1 X59.500 Y53.137 F3600.000
G1 F1800.000 E4.50000
G1 X57.475 Y37.800 F900.000 E5.01467
G1 F1800.000 E0.51467
G92 E0
G1 X62.513 Y37.800 F3600.000
G1 F1800.000 E4.50000
G1 X60.487 Y53.137 F900.000 E5.01467
; perimeter_end
; infill_start
G1 F1800.000 E0.51467
G92 E0
G1 X82.000 Y36.850 F3600.000
G1 F1800.000 E4.50000
G1 X37.988 Y36.850 F600.000 E5.48317
G1 F1800.000 E0.98317
G92 E0
G1 X57.588 Y58.075 F3600.000
G1 F1800.000 E4.50000
G1 X58.288 Y57.400 F600.000 E4.52813
G1 X58.963 Y57.063 E4.54967
G1 X59.538 Y56.913 E4.56669
G1 X60.288 Y56.900 E4.58836
G1 X61.025 Y57.063 E4.60993
G1 X61.700 Y57.400 E4.63150
G1 X62.538 Y58.175 E4.66440
G1 F1800.000 E0.16440
G92 E0
G1 X62.400 Y61.913 F3600.000
G1 F1800.000 E4.50000
G1 X61.700 Y62.588 F600.000 E4.52809
G1 X61.025 Y62.925 E4.54960
G1 X60.288 Y63.100 E4.57122
G1 X59.700 Y63.088 E4.58821
G1 X58.963 Y62.925 E4.60974
G1 X58.288 Y62.588 E4.63128
G1 X57.450 Y61.813 E4.66414
G1 F1800.000 E0.16414
G92 E0
G1 X37.988 Y83.138 F3600.000
G1 F1800.000 E4.50000
G1 X82.000 Y83.138 F600.000 E5.48317
; infill_end
G1 F1800.000 E0.98317
G92 E0
; Layer: 22 Time: 66
G1 Z4.550 F3600.000
; Region: 0
; perimeter_start
G1 X82.337 Y82.813
G1 F1800.000 E4.50000
G1 X82.337 Y83.450 F900.000 E4.52105
G1 X37.650 Y83.450 E6.00711
G1 X37.650 Y82.813 E6.02815
G1 X82.138 Y82.813 E7.50757
G1 X82.738 Y82.413
G1 X82.738 Y83.850 E7.55522
G1 X37.250 Y83.850 E9.06789
G1 X37.250 Y82.413 E9.11554
G1 X82.537 Y82.413 E10.62156
G1 X82.337 Y83.113
G1 F1800.000 E6.12156
G92 E0
G1 X62.800 Y62.100 F3600.000
G1 F1800.000 E4.50000
G1 X61.975 Y62.838 F900.000 E4.53709
G1 X61.225 Y63.238 E4.56498
G1 X60.413 Y63.438 E4.59286
G1 X59.575 Y63.438 E4.62075
G1 X58.763 Y63.238 E4.64864
G1 X58.013 Y62.838 E4.67652
G1 X57.188 Y62.100 E4.71362
G1 X57.075 Y61.763 E4.72555
G1 X57.700 Y61.425 E4.74912
G1 X57.975 Y61.813 E4.76487
G1 X58.488 Y62.263 E4.78732
G1 X59.088 Y62.563 E4.80978
G1 X60.000 Y62.763 E4.84067
G1 X60.900 Y62.563 E4.87157
G1 X61.500 Y62.263 E4.89402
G1 X62.013 Y61.813 E4.91648
G1 X62.288 Y61.425 E4.93223
G1 X62.913 Y61.763 E4.95579
G1 X62.863 Y61.913 E4.96108
G1 X62.013 Y61.988
G1 F1800.000 E0.46108
G92 E0
G1 X62.288 Y58.563 F3600.000
G1 F1800.000 E4.50000
G1 X62.013 Y58.175 F900.000 E4.51575
G1 X61.500 Y57.725 E4.53820
G1 X60.900 Y57.425 E4.56066
G1 X60.000 Y57.225 E4.59156
G1 X59.088 Y57.425 E4.62245
G1 X58.488 Y57.725 E4.64491
G1 X57.975 Y58.175 E4.66736
G1 X57.700 Y58.563 E4.68311
G1 X57.075 Y58.225 E4.70668
G1 X57.188 Y57.888 E4.71861
G1 X58.013 Y57.150 E4.75571
G1 X58.763 Y56.750 E4.78359
G1 X59.575 Y56.550 E4.81147
G1 X60.413 Y56.550 E4.83936
G1 X61.225 Y56.750 E4.86725
G1 X61.975 Y57.150 E4.89513
G1 X62.800 Y57.888 E4.93223
G1 X62.913 Y58.225 E4.94416
G1 X62.463 Y58.463 E4.96108
G1 X62.263 Y58.088
G1 F1800.000 E0.46108
G92 E0
G1 X82.337 Y37.175 F3600.000
G1 F1800.000 E4.50000
G1 X37.650 Y37.175 F900.000 E5.98606
G1 X37.650 Y36.538 E6.00711
G1 X82.337 Y36.538 E7.49317
G1 X82.337 Y36.975 E7.50757
G1 X82.738 Y37.575
G1 X37.250 Y37.575 E9.02024
G1 X37.250 Y36.138 E9.06789
G1 X82.738 Y36.138 E10.58056
G1 X82.738 Y37.375 E10.62156
G1 X82.038 Y37.175
G1 F1800.000 E6.12156
G92 E0
G1 X62.888 Y57.750 F3600.000
G1 F1800.000 E4.50000
G1 X78.500 Y46.250 F900.000 E5.14482
G1 X70.650 Y41.700 E5.44643
G1 X62.438 Y53.813 E5.93307
G1 X61.325 Y53.513 E5.97119
G1 X60.000 Y53.350 E6.01587
G1 X58.663 Y53.513 E6.06054
G1 X57.550 Y53.813 E6.09866
G1 X49.338 Y41.700 E6.58530
G1 X41.487 Y46.250 E6.88692
G1 X57.100 Y57.750 E7.53173
G1 X56.950 Y58.163
G1 X37.288 Y58.163 E8.18602
G1 X37.288 Y61.825 E8.30798
G1 X56.950 Y61.825 E8.96228
G1 X57.100 Y62.238
G1 X41.487 Y73.738 E9.60709
G1 X49.338 Y78.287 E9.90870
G1 X57.550 Y66.175 E10.39534
G1 X59.525 Y66.613 E10.46225
G1 X60.238 Y66.625
G1 X59.525 Y66.612 E10.48601
G1 X57.475 Y82.188 E11.00844
G1 F1800.000 E6.50844
G92 E0
G1 X62.513 Y82.188 F3600.000
G1 F1800.000 E4.50000
G1 X60.463 Y66.613 F900.000 E5.02261
G1 X62.438 Y66.175 E5.08975
G1 X70.650 Y78.287 E5.57639
G1 X78.500 Y73.738 E5.87800
G1 X62.888 Y62.238 E6.52282
G1 X63.038 Y61.825
G1 X82.700 Y61.825 E7.17711
G1 X82.700 Y58.163 E7.29907
G1 X63.038 Y58.163 E7.95336
G1 F1800.000 E3.45336
G92 E0
G1 X60.000 Y57.450 F3600.000
G1 F1800.000 E4.50000
G1 X59.988 Y62.538 F900.000 E4.66891
G1 F1800.000 E0.16891
G92 E0
G1 X59.500 Y53.137 F3600.000
G1 F1800.000 E4.50000
G1 X57.475 Y37.800 F900.000 E5.01467
G1 F1800.000 E0.51467
G92 E0
G1 X62.513 Y37.800 F3600.000
G1 F1800.000 E4.50000
G1 X60.487 Y53.137 F900.000 E5.01467
; perimeter_end
; infill_start
G1 F1800.000 E0.51467
G92 E0
G1 X82.000 Y36.850 F3600.000
G1 F1800.000 E4.50000
G1 X37.988 Y36.850 F600.000 E5.48317
G1 F1800.000 E0.98317
G92 E0
G1 X57.588 Y58.075 F3600.000
G1 F1800.000 E4.50000
G1 X58.288 Y57.400 F600.000 E4.52813
G1 X58.963 Y57.063 E4.54967
G1 X59.538 Y56.913 E4.56669
G1 X60.288 Y56.900 E4.58836
G1 X61.025 Y57.063 E4.60993
G1 X61.700 Y57.400 E4.63150
G1 X62.538 Y58.175 E4.66440
G1 F1800.000 E0.16440
G92 E0
G1 X62.400 Y61.913 F3600.000
G1 F1800.000 E4.50000
G1 X61.700 Y62.588 F600.000 E4.52809
G1 X61.025 Y62.925 E4.54960
G1 X60.288 Y63.100 E4.57122
G1 X59.700 Y63.088 E4.58821
G1 X58.963 Y62.925 E4.60974
G1 X58.288 Y62.588 E4.63128
G1 X57.450 Y61.813 E4.66414
G1 F1800.000 E0.16414
G92 E0
G1 X37.988 Y83.138 F3600.000
G1 F1800.000 E4.50000
G1 X82.000 Y83.138 F600.000 E5.48317
; infill_end
G1 F1800.000 E0.98317
G92 E0
; Layer: 23 Time: 66
G1 Z4.750 F3600.000
; Region: 0
; perimeter_start
G1 X82.337 Y82.813
G1 F1800.000 E4.50000
G1 X82.337 Y83.450 F900.000 E4.52105
G1 X37.650 Y83.450 E6.00711
G1 X37.650 Y82.813 E6.02815
G1 X82.138 Y82.813 E7.50757
G1 X82.738 Y82.413
G1 X82.738 Y83.850 E7.55522
G1 X37.250 Y83.850 E9.06789
G1 X37.250 Y82.413 E9.11554
G1 X82.537 Y82.413 E10.62156
G1 X82.337 Y83.113
G1 F1800.000 E6.12156
G92 E0
G1 X62.800 Y62.100 F3600.000
G1 F1800.000 E4.50000
G1 X61.975 Y62.838 F900.000 E4.53709
G1 X61.225 Y63.238 E4.56498
G1 X60.413 Y63.438 E4.59286
G1 X59.575 Y63.438 E4.62075
G1 X58.763 Y63.238 E4.64864
G1 X58.013 Y62.838 E4.67652
G1 X57.188 Y62.100 E4.71362
G1 X57.075 Y61.763 E4.72555
G1 X57.700 Y61.425 E4.74912
G1 X57.975 Y61.813 E4.76487
G1 X58.488 Y62.263 E4.78732
G1 X59.088 Y62.563 E4.80978
