; filename = 1.3w
; print_time = 637
; machine = dv1NW0A000
; facets = 2622
; total_layers = 3
; version = 20100610
; total_filament = 405.15
; nozzle_diameter = 0.40
; nozzle_type = 57
; first_layer_height = 0.35
; layer_height = 0.20
; avoid_crossing_perimeters = 0
; bridge_detect = 0
; bridge_flow_ratio = 0.90
; support_material = 0
; extruder_filament = 405.15:0.00
; extruder = 1
; temperature = 210
; bed_temperature = 0
; non_double_speed = 1
; preheating_time = 0,0,0
; filamentid = 50,50
; materialid = 0
; fill_density = 0.10
; infill_expand = 0.000
; raft_layers = 0
; shells = 2
; speed = 20.000
; brim_width = 0.000
; dimension = 50.00:87.44:0.75
; original_dimension = 50.00:87.44:1.43
; boundingbox_x1 = 35.00
; boundingbox_y1 = 16.28
; boundingbox_x2 = 85.00
; boundingbox_y2 = 103.72
; resolution = 0.0400
; top_solid_layers = 5
; bottom_solid_layers = 3
; fill_pattern = rectilinear
; perimeter_speed = 15.000
; external_perimeter_speed = 15.000
; small_perimeter_speed = 15.000
; top_solid_infill_speed = 20.000
; solid_infill_speed = 20.000
; bridge_speed = 10.000
; travel_speed = 60.000
; retract_speed = 30
; retract_length = 4.500
; retract_before_travel = 2.000
; retract_lift = 0.000
; retract_restart_extra = 0.000
; retract_layer_change = 1
; only_retract_when_crossing_perimeters = 1
; first_layer_speed = 10.000
; extrusion_multiplier_perimeter = 1.000
; extrusion_multiplier_infill = 1.000
; extrusion_multiplier_gapfill = 1.000
; extrusion_multiplier_solid_infill = 1.000
; extrusion_multiplier_top_infill = 1.000
; Call_From_APP = XYZprint V2.0.5_2A14512
; speed_limit_open = 0

; infill_type = 0
; Seam_Corner_Preference = 0
G21 ; set units to millimeters
M107
M104 S210 ; set temperature
M109 S210 ; wait for temperature to be reached
M191
G90 ; use absolute coordinates
G92 E0
M82 ; use absolute distances for extrusion
G1 F1800.000 E-4.50000
G92 E0
; Layer: 1 Time: 216
G1 Z0.350 F3600.000
; skirt start
G1 X3.000 Y1.000
G1 F1800.000 E4.50000
G1 X5.000 Y1.000 F600.000 E4.96245
G1 X5.000 Y101.000 E28.08519
G1 X3.000 Y101.000 E28.54765
G1 X3.000 Y1.788 E51.48667
; skirt end
; Region: 0
; perimeter_start
G1 F1800.000 E46.98667
G92 E0
G1 X58.275 Y47.688 F3600.000
G1 F1800.000 E4.50000
G1 X58.275 Y24.100 F600.000 E6.68182
G1 X59.075 Y18.400 E7.21397
G1 X59.175 Y17.363 E7.30967
G1 X59.463 Y17.275 E7.33760
G1 X60.125 Y17.238 E7.39988
G1 X60.825 Y17.350 E7.46502
G1 X61.150 Y20.413 E7.74990
G1 X61.738 Y24.250 E8.10911
G1 X61.738 Y47.700 E10.27807
G1 X60.788 Y47.600 E10.36726
G1 X58.588 Y47.650 E10.57066
G1 X58.825 Y48.250
G1 X57.638 Y48.400 E10.68188
G1 X57.638 Y24.050 E12.93422
G1 X58.450 Y18.325 E13.46906
G1 X58.575 Y16.888 E13.60279
G1 X59.338 Y16.650 E13.67695
G1 X60.163 Y16.588 E13.75287
G1 X61.025 Y16.738 E13.83419
G1 X61.413 Y16.875 E13.87198
G1 X61.788 Y20.325 E14.19328
G1 X62.375 Y24.200 E14.55563
G1 X62.375 Y48.413 E16.79469
G1 X60.750 Y48.225 E16.94588
G1 X59.150 Y48.250 E17.09457
G1 X58.138 Y47.275
; perimeter_end
; infill_start
G1 X58.963 Y47.163
G1 X58.725 Y46.925 E17.12459
G1 X58.725 Y46.025 E17.20964
G1 X59.850 Y47.150 E17.35839
G1 X60.750 Y47.138 E17.44235
G1 X58.725 Y45.113 E17.70983
G1 X58.725 Y44.200 E17.79488
G1 X61.288 Y46.750 E18.13235
G1 X61.288 Y45.850 E18.21740
G1 X58.725 Y43.300 E18.55487
G1 X58.725 Y42.388 E18.63992
G1 X61.288 Y44.938 E18.97739
G1 X61.288 Y44.025 E19.06244
G1 X58.725 Y41.475 E19.39991
G1 X58.725 Y40.563 E19.48496
G1 X61.288 Y43.113 E19.82243
G1 X61.288 Y42.213 E19.90748
G1 X58.725 Y39.663 E20.24495
G1 X58.725 Y38.750 E20.33000
G1 X61.288 Y41.300 E20.66747
G1 X61.288 Y40.388 E20.75252
G1 X58.725 Y37.838 E21.08999
G1 X58.725 Y36.925 E21.17504
G1 X61.288 Y39.488 E21.51251
G1 X61.288 Y38.575 E21.59756
G1 X58.725 Y36.025 E21.93503
G1 X58.725 Y35.113 E22.02008
G1 X61.288 Y37.663 E22.35755
G1 X61.288 Y36.750 E22.44260
G1 X58.725 Y34.200 E22.78007
G1 X58.725 Y33.300 E22.86512
G1 X61.288 Y35.850 E23.20259
G1 X61.288 Y34.938 E23.28764
G1 X58.725 Y32.388 E23.62511
G1 X58.725 Y31.475 E23.71016
G1 X61.288 Y34.025 E24.04763
G1 X61.288 Y33.113 E24.13268
G1 X58.725 Y30.563 E24.47015
G1 X58.725 Y29.663 E24.55520
G1 X61.288 Y32.213 E24.89267
G1 X61.288 Y31.300 E24.97772
G1 X58.725 Y28.750 E25.31519
G1 X58.725 Y27.838 E25.40024
G1 X61.288 Y30.388 E25.73771
G1 X61.288 Y29.475 E25.82276
G1 X58.725 Y26.925 E26.16023
G1 X58.725 Y26.025 E26.24528
G1 X61.288 Y28.575 E26.58275
G1 X61.288 Y27.663 E26.66780
G1 X58.725 Y25.113 E27.00527
G1 X58.725 Y24.200 E27.09032
G1 X61.288 Y26.750 E27.42779
G1 X61.288 Y25.850 E27.51284
G1 X58.838 Y23.400 E27.83664
G1 X58.950 Y22.600 E27.91189
G1 X61.288 Y24.938 E28.22078
G1 X61.238 Y23.975 E28.31034
G1 X59.063 Y21.800 E28.59810
G1 X59.175 Y21.013 E28.67335
G1 X61.075 Y22.900 E28.92440
G1 X60.900 Y21.825 E29.02605
G1 X59.288 Y20.213 E29.24037
G1 X59.400 Y19.413 E29.31562
G1 X60.738 Y20.763 E29.49323
G1 X60.613 Y19.725 E29.59056
G1 X59.513 Y18.613 E29.73687
G1 X60.150 Y18.350 E29.80204
G1 X60.513 Y18.700 E29.84868
G1 X60.250 Y17.900
G1 X59.763 Y17.888 E29.89093
; infill_end
; perimeter_start
G1 F1800.000 E25.39093
G92 E0
G1 X63.888 Y48.700 F3600.000
G1 F1800.000 E4.50000
G1 X63.838 Y32.125 F600.000 E6.03345
G1 X63.425 Y28.800 E6.34333
; perimeter_end
; perimeter_start
G1 F1800.000 E1.84333
G92 E0
G1 X64.975 Y34.463 F3600.000
G1 F1800.000 E4.50000
G1 X65.363 Y36.388 F600.000 E4.68169
G1 X65.438 Y49.150 E5.86281
; perimeter_end
; perimeter_start
G1 X66.975 Y49.738 F3600.000
G1 X66.863 Y49.313 F600.000 E5.90386
G1 X66.888 Y38.938 E6.86338
G1 X66.625 Y37.963 E6.95648
; perimeter_end
; perimeter_start
G1 F1800.000 E2.45648
G92 E0
G1 X68.063 Y39.788 F3600.000
G1 F1800.000 E4.50000
G1 X68.413 Y40.763 F600.000 E4.59527
G1 X68.375 Y49.950 E5.44555
G1 X68.513 Y50.438 E5.49212
; perimeter_end
; perimeter_start
G1 X70.138 Y51.575 F3600.000
G1 X69.900 Y50.725 F600.000 E5.57408
G1 X69.925 Y42.225 E6.36067
G1 X69.713 Y41.688 E6.41389
; perimeter_end
; perimeter_start
G1 X71.138 Y42.800 F3600.000
G1 X71.438 Y43.413 F600.000 E6.47798
G1 X71.425 Y51.588 E7.23380
G1 X71.663 Y52.475 E7.31821
; perimeter_end
; perimeter_start
G1 X73.188 Y53.438 F3600.000
G1 X72.950 Y52.525 F600.000 E7.40567
G1 X72.988 Y44.750 E8.12432
G1 X72.738 Y43.838 E8.21152
; perimeter_end
; perimeter_start
G1 F1800.000 E3.71152
G92 E0
G1 X76.563 Y49.963 F3600.000
G1 F1800.000 E4.50000
G1 X77.075 Y49.875 F600.000 E4.52368
G1 X77.238 Y50.338 E4.54625
G1 X78.663 Y54.338 E4.93908
G1 X78.675 Y54.388 E4.94431
G1 X78.600 Y54.675 E4.97128
G1 X78.500 Y54.788 E4.98496
G1 X78.025 Y54.963 E5.03157
G1 X77.450 Y55.200 E5.08956
G1 X77.138 Y54.988 E5.12406
G1 X76.563 Y54.588 E5.18887
G1 X76.563 Y54.288 E5.21655
G1 X76.563 Y53.288 E5.30904
G1 X76.563 Y52.288 E5.40153
G1 X76.563 Y51.288 E5.49403
G1 X76.563 Y50.288 E5.54027
G1 X77.338 Y48.763 F3600.000
G1 X79.250 Y54.000 F600.000 E6.05575
G1 X79.325 Y54.375 E6.09037
G1 X79.275 Y54.713 E6.12266
G1 X79.125 Y55.038 E6.15495
G1 X78.888 Y55.288 E6.18725
G1 X78.563 Y55.475 E6.22189
G1 X77.350 Y55.913 E6.34122
G1 X75.925 Y54.913 E6.50173
G1 X75.925 Y46.763 E7.25589
G1 X76.138 Y46.700 E7.27654
G1 X76.825 Y47.650 E7.38524
G1 X77.213 Y48.475 E7.46943
G1 X76.550 Y49.763
; perimeter_end
; infill_start
G1 X76.775 Y49.525
G1 X76.275 Y47.550 E7.63543
G1 X76.900 Y50.438 F3600.000
G1 X77.350 Y52.938 F600.000 E7.81536
G1 X77.038 Y53.388 E7.85353
G1 X77.350 Y52.938
G1 X77.513 Y53.063 E7.87518
G1 X78.100 Y54.038 F3600.000
G1 X77.575 Y53.525 F600.000 E7.94466
G1 X77.025 Y53.900 E8.00851
G1 X77.738 Y54.600 E8.10387
; infill_end
; perimeter_start
G1 F1800.000 E3.60387
G92 E0
G1 X74.275 Y44.775 F3600.000
G1 F1800.000 E4.50000
G1 X74.513 Y45.675 F600.000 E4.58557
G1 X74.475 Y53.513 E5.31132
G1 X74.713 Y54.450 E5.40060
; perimeter_end
; perimeter_start
G1 F1800.000 E0.90060
G92 E0
G1 X79.325 Y57.350 F3600.000
G1 F1800.000 E4.50000
G1 X84.000 Y57.350 F600.000 E4.93234
G1 X84.000 Y62.638 E5.42078
G1 X79.325 Y62.638 E5.85312
G1 X79.325 Y57.675 E6.31217
G1 X78.700 Y56.713 F450.000
G1 X84.225 Y56.713 F600.000 E6.82356
G1 X84.500 Y56.813 E6.85047
G1 X84.638 Y57.000 E6.87246
G1 X84.638 Y62.988 E7.42628
G1 X84.500 Y63.175 E7.44827
G1 X84.225 Y63.275 E7.47518
G1 X78.700 Y63.275 E7.98657
G1 X78.700 Y57.038 E8.56320
G1 X79.800 Y57.350
; perimeter_end
; infill_start
G1 X83.238 Y57.813 F3600.000
G1 X83.550 Y58.113 F600.000 E8.60453
G1 X83.550 Y59.050 E8.69513
G1 X82.300 Y57.813 E8.86458
G1 X81.363 Y57.813 E8.95517
G1 X83.550 Y59.988 E9.25274
G1 X83.550 Y60.938 E9.34334
G1 X80.425 Y57.813 E9.76903
G1 X79.788 Y58.113 E9.83697
G1 X83.550 Y61.875 E10.34937
G1 X82.913 Y62.175 E10.41731
G1 X79.788 Y59.050 E10.84300
G1 X79.788 Y60.000 E10.93359
G1 X81.975 Y62.175 E11.23116
G1 X81.038 Y62.175 E11.32176
G1 X79.788 Y60.938 E11.49121
G1 X79.788 Y61.875 E11.58180
G1 X80.100 Y62.175 E11.62314
; infill_end
; perimeter_start
G1 F1800.000 E7.12314
G92 E0
G1 X75.925 Y56.475 F3600.000
G1 F1800.000 E4.50000
G1 X76.300 Y56.725 F600.000 E4.54193
G1 X76.300 Y63.263 E5.14552
G1 X75.925 Y63.513 E5.18744
G1 X75.925 Y56.788 E5.80977
G1 X75.713 Y64.000 F3600.000
G1 X76.113 Y63.163 F600.000 E5.89582
G1 X76.125 Y57.088 E6.45762
G1 X75.750 Y55.975 E6.56584
; perimeter_end
; perimeter_start
G1 X74.188 Y54.975 F3600.000
G1 X74.500 Y55.575 F600.000 E6.62799
G1 X74.513 Y56.563 E6.71954
G1 X74.513 Y64.113 E7.41775
G1 X74.263 Y65.038 E7.50588
; perimeter_end
; perimeter_start
G1 X72.738 Y66.050 F3600.000
G1 X72.988 Y65.150 F600.000 E7.59263
G1 X72.988 Y54.850 E8.54522
G1 X72.738 Y53.938 E8.63270
; perimeter_end
; perimeter_start
G1 X71.213 Y52.963 F3600.000
G1 X71.463 Y53.863 F600.000 E8.71799
G1 X71.463 Y66.138 E9.85368
G1 X71.225 Y67.025 E9.93818
; perimeter_end
; perimeter_start
G1 X69.700 Y67.913 F3600.000
G1 X69.925 Y67.050 F600.000 E10.02017
G1 X69.938 Y52.938 E11.32542
G1 X69.700 Y52.075 E11.40828
; perimeter_end
; perimeter_start
G1 X68.275 Y51.613 F3600.000
G1 X68.400 Y52.100 F600.000 E11.45491
G1 X68.400 Y67.888 E12.91505
G1 X68.275 Y68.375 E12.96071
; perimeter_end
; perimeter_start
G1 X66.763 Y69.063 F3600.000
G1 X66.875 Y68.625 F600.000 E13.00205
G1 X66.863 Y51.375 E14.59741
G1 X66.763 Y50.925 E14.63971
; perimeter_end
; perimeter_start
G1 X65.250 Y50.363 F3600.000
G1 X65.350 Y50.763 F600.000 E14.67753
G1 X65.350 Y69.238 E16.38573
G1 X65.250 Y69.613 E16.42251
; perimeter_end
; perimeter_start
G1 X63.750 Y70.038 F3600.000
G1 X63.738 Y49.950 F600.000 E18.28053
; perimeter_end
; perimeter_start
G1 F1800.000 E13.78053
G92 E0
G1 X61.738 Y50.250 F3600.000
G1 F1800.000 E4.50000
G1 X61.738 Y69.738 F600.000 E6.30175
G1 X61.025 Y69.825 E6.36856
G1 X59.288 Y69.850 E6.52955
G1 X58.275 Y69.725 E6.62407
G1 X58.275 Y50.263 E8.42480
G1 X59.288 Y50.138 E8.51933
G1 X61.425 Y50.213 E8.71754
G1 X61.075 Y49.525
G1 X62.375 Y49.688 E8.83955
G1 X62.375 Y70.300 E10.74502
G1 X61.075 Y70.463 E10.86704
G1 X59.250 Y70.475 E11.03504
G1 X57.638 Y70.300 E11.18572
G1 X57.638 Y49.688 E13.09139
G1 X59.250 Y49.513 E13.24207
G1 X60.750 Y49.525 E13.38067
G1 X61.613 Y50.675
; perimeter_end
; infill_start
G1 X60.913 Y50.625
G1 X61.288 Y51.000 E13.43129
G1 X61.288 Y51.925 E13.52099
G1 X59.963 Y50.613 E13.69993
G1 X59.050 Y50.638 E13.78757
G1 X61.288 Y52.863 E14.09041
G1 X61.288 Y53.800 E14.18010
G1 X58.725 Y51.250 E14.52667
G1 X58.725 Y52.175 E14.61636
G1 X61.288 Y54.725 E14.96293
G1 X61.288 Y55.663 E15.05262
G1 X58.725 Y53.113 E15.39919
G1 X58.725 Y54.050 E15.48888
G1 X61.288 Y56.600 E15.83545
G1 X61.288 Y57.525 E15.92514
G1 X58.725 Y54.975 E16.27170
G1 X58.725 Y55.913 E16.36140
G1 X61.288 Y58.463 E16.70796
G1 X61.288 Y59.400 E16.79766
G1 X58.725 Y56.850 E17.14422
G1 X58.725 Y57.775 E17.23391
G1 X61.288 Y60.338 E17.58048
G1 X61.288 Y61.263 E17.67017
G1 X58.725 Y58.713 E18.01674
G1 X58.725 Y59.650 E18.10643
G1 X61.288 Y62.200 E18.45300
G1 X61.288 Y63.138 E18.54269
G1 X58.725 Y60.588 E18.88926
G1 X58.725 Y61.513 E18.97895
G1 X61.288 Y64.063 E19.32551
G1 X61.288 Y65.000 E19.41521
G1 X58.725 Y62.450 E19.76177
G1 X58.725 Y63.388 E19.85146
G1 X61.288 Y65.938 E20.19803
G1 X61.288 Y66.863 E20.28772
G1 X58.725 Y64.313 E20.63429
G1 X58.725 Y65.250 E20.72398
G1 X61.288 Y67.800 E21.07055
G1 X61.288 Y68.738 E21.16024
G1 X58.725 Y66.188 E21.50681
G1 X58.725 Y67.113 E21.59650
G1 X60.975 Y69.363 E21.90165
G1 X60.050 Y69.375 E21.99033
G1 X58.725 Y68.050 E22.17008
G1 X58.725 Y68.988 E22.25978
G1 X59.100 Y69.363 E22.31071
; infill_end
; perimeter_start
G1 F1800.000 E17.81071
G92 E0
G1 X56.263 Y49.950 F3600.000
G1 F1800.000 E4.50000
G1 X56.275 Y70.050 F600.000 E6.35908
; perimeter_end
; perimeter_start
G1 X54.763 Y69.625 F3600.000
G1 X54.663 Y69.238 F600.000 E6.39686
G1 X54.663 Y50.750 E8.10665
G1 X54.763 Y50.363 E8.14339
; perimeter_end
; perimeter_start
G1 F1800.000 E3.64339
G92 E0
G1 X51.738 Y68.388 F3600.000
G1 F1800.000 E4.50000
G1 X51.613 Y67.900 F600.000 E4.54664
G1 X51.613 Y52.088 E6.00903
G1 X51.738 Y51.600 E6.05471
; perimeter_end
; perimeter_start
G1 F1800.000 E1.55471
G92 E0
G1 X47.275 Y53.913 F3600.000
G1 F1800.000 E4.50000
G1 X47.025 Y54.825 F600.000 E4.58689
G1 X47.025 Y65.150 E5.54229
G1 X47.275 Y66.075 E5.62990
; perimeter_end
; perimeter_start
G1 F1800.000 E1.12990
G92 E0
G1 X40.663 Y57.350 F3600.000
G1 F1800.000 E4.50000
G1 X40.663 Y62.625 F600.000 E4.98793
G1 X35.950 Y62.600 E5.42339
G1 X35.975 Y57.350 E5.90883
G1 X40.337 Y57.350 E6.31202
G1 X41.288 Y56.713 F450.000
G1 X41.288 Y63.263 F600.000 E6.91787
G1 X35.600 Y63.238 E7.44486
G1 X35.400 Y63.100 E7.46696
G1 X35.313 Y62.825 E7.49375
G1 X35.350 Y57.000 E8.03194
G1 X35.488 Y56.813 E8.05403
G1 X35.763 Y56.713 E8.08093
G1 X40.975 Y56.713 E8.56293
G1 X40.663 Y57.813
; perimeter_end
; infill_start
G1 X39.888 Y57.813
G1 X40.200 Y58.113 E8.60428
G1 X40.200 Y59.050 E8.69490
G1 X38.950 Y57.813 E8.86440
G1 X38.013 Y57.813 E8.95501
G1 X40.200 Y60.000 E9.25265
G1 X40.200 Y60.938 E9.34327
G1 X37.075 Y57.813 E9.76906
G1 X36.438 Y58.113 E9.83733
G1 X40.200 Y61.875 E10.35075
G1 X39.550 Y62.163 E10.41930
G1 X36.425 Y59.038 E10.84505
G1 X36.425 Y59.975 E10.93514
G1 X38.600 Y62.150 E11.23275
G1 X37.663 Y62.150 E11.32389
G1 X36.425 Y60.913 E11.49337
G1 X36.413 Y61.838 E11.58346
G1 X36.713 Y62.150 E11.62480
; infill_end
; perimeter_start
G1 F1800.000 E7.12480
G92 E0
G1 X44.088 Y56.450 F3600.000
G1 F1800.000 E4.50000
G1 X44.088 Y63.538 F600.000 E5.15497
G1 X43.688 Y63.263 E5.19974
G1 X43.688 Y56.725 E5.80333
G1 X43.825 Y56.638 E5.81870
G1 X44.300 Y55.988
G1 X43.888 Y56.838 E5.90587
G1 X43.875 Y62.900 E6.46720
G1 X44.263 Y64.013 E6.57607
; perimeter_end
; perimeter_start
G1 X45.663 Y64.713 F3600.000
G1 X45.500 Y63.775 F600.000 E6.66389
G1 X45.500 Y55.863 E7.39656
G1 X45.750 Y54.938 E7.48490
; perimeter_end
; perimeter_start
G1 F1800.000 E2.98490
G92 E0
G1 X42.538 Y64.788 F3600.000
G1 F1800.000 E4.50000
G1 X43.363 Y65.363 F600.000 E4.54625
G1 X43.450 Y65.425 E4.55590
G1 X43.450 Y69.713 E4.95336
G1 X43.450 Y70.088 E4.98772
G1 X42.938 Y70.175 E5.03507
G1 X42.900 Y70.063 E5.04586
G1 X42.563 Y69.125 E5.13835
G1 X42.213 Y68.188 E5.23084
G1 X41.875 Y67.250 E5.32333
G1 X41.538 Y66.313 E5.41582
G1 X41.350 Y65.813 E5.46464
G1 X41.325 Y65.450 E5.49857
G1 X41.388 Y65.363 E5.50831
G1 X41.488 Y65.200 E5.51694
G1 X42.238 Y64.900 E5.55456
G1 X42.638 Y64.075
G1 X44.088 Y65.088 E5.71790
G1 X44.088 Y73.263 E6.47375
G1 X43.875 Y73.325 E6.49440
G1 X43.163 Y72.338 E6.60713
G1 X42.650 Y71.225 E6.72072
G1 X40.738 Y65.988 E7.23619
G1 X40.663 Y65.613 E7.27082
G1 X40.713 Y65.275 E7.30311
G1 X40.863 Y64.950 E7.33539
G1 X41.100 Y64.700 E7.36769
G1 X41.425 Y64.513 E7.40234
G1 X42.338 Y64.188 E7.49228
G1 X42.925 Y65.313
; perimeter_end
; infill_start
G1 X42.988 Y66.125
G1 X42.250 Y65.388 E7.59384
G1 X41.913 Y65.988 E7.66139
G1 X42.450 Y66.525 E7.73552
G1 X42.975 Y66.675
G1 X42.663 Y67.113 E7.77369
G1 X43.113 Y69.625 E7.95362
G1 X43.125 Y70.500
G1 X43.613 Y72.225 E8.11411
G1 X42.663 Y67.113 F3600.000
G1 X42.500 Y67.000 F600.000 E8.13574
; infill_end
; perimeter_start
G1 F1800.000 E3.63574
G92 E0
G1 X45.738 Y75.225 F3600.000
G1 F1800.000 E4.50000
G1 X45.500 Y74.338 F600.000 E4.58542
G1 X45.538 Y66.488 E5.31118
G1 X45.300 Y65.550 E5.40043
; perimeter_end
; perimeter_start
G1 X46.825 Y66.575 F3600.000
G1 X47.063 Y67.488 F600.000 E5.48786
G1 X47.025 Y75.250 E6.20646
G1 X47.275 Y76.163 E6.29374
; perimeter_end
; perimeter_start
G1 X48.875 Y77.213 F3600.000
G1 X48.575 Y76.588 F600.000 E6.35789
G1 X48.588 Y68.413 E7.11401
G1 X48.350 Y67.538 E7.19842
; perimeter_end
; perimeter_start
G1 X49.888 Y68.425 F3600.000
G1 X50.113 Y69.275 F600.000 E7.28036
G1 X50.088 Y77.788 E8.06769
G1 X50.300 Y78.325 E8.12104
; perimeter_end
; perimeter_start
G1 F1800.000 E3.62104
G92 E0
G1 X51.950 Y80.225 F3600.000
G1 F1800.000 E4.50000
G1 X51.600 Y79.263 F600.000 E4.59553
G1 X51.638 Y70.050 E5.44707
G1 X51.500 Y69.563 E5.49366
; perimeter_end
; perimeter_start
G1 F1800.000 E0.99366
G92 E0
G1 X55.050 Y85.613 F3600.000
G1 F1800.000 E4.50000
G1 X54.650 Y83.650 F600.000 E4.68441
G1 X54.688 Y71.213 E5.83462
G1 X54.575 Y70.838 E5.87081
; perimeter_end
; perimeter_start
G1 X56.125 Y71.288 F3600.000
G1 X56.175 Y87.963 F600.000 E7.41272
G1 X56.575 Y91.675 E7.75834
; perimeter_end
; perimeter_start
G1 F1800.000 E3.25834
G92 E0
G1 X58.275 Y72.300 F3600.000
G1 F1800.000 E4.50000
G1 X58.788 Y72.363 F600.000 E4.54803
G1 X60.788 Y72.388 E4.73290
G1 X61.738 Y72.288 E4.82209
G1 X61.738 Y95.738 E6.99105
G1 X61.150 Y99.575 E7.35025
G1 X60.825 Y102.638 E7.63514
G1 X60.125 Y102.750 E7.70027
G1 X59.463 Y102.713 E7.76255
G1 X59.175 Y102.625 E7.79048
G1 X59.075 Y101.588 E7.88618
G1 X58.275 Y95.888 E8.41833
G1 X58.275 Y72.625 E10.57076
G1 X58.825 Y71.738 F450.000
G1 X60.750 Y71.763 F600.000 E10.74884
G1 X62.375 Y71.575 E10.90003
G1 X62.375 Y95.788 E13.13909
G1 X61.788 Y99.663 E13.50144
G1 X61.413 Y103.113 E13.82274
G1 X61.025 Y103.250 E13.86053
G1 X60.163 Y103.400 E13.94185
G1 X59.338 Y103.338 E14.01777
G1 X58.575 Y103.100 E14.09193
G1 X58.450 Y101.663 E14.22566
G1 X57.638 Y95.938 E14.76050
G1 X57.638 Y71.588 E17.01284
G1 X58.513 Y71.688 E17.09466
G1 X59.413 Y72.863
; perimeter_end
; infill_start
G1 X61.063 Y72.825 F3600.000
G1 X61.288 Y73.038 F600.000 E17.12298
G1 X61.288 Y73.950 E17.20817
G1 X60.175 Y72.850 E17.35423
G1 X59.263 Y72.838 E17.44055
G1 X61.288 Y74.863 E17.70867
G1 X61.288 Y75.763 E17.79386
G1 X58.725 Y73.213 E18.13161
G1 X58.725 Y74.125 E18.21680
G1 X61.288 Y76.675 E18.55455
G1 X61.288 Y77.588 E18.63974
G1 X58.725 Y75.038 E18.97749
G1 X58.725 Y75.950 E19.06268
G1 X61.288 Y78.500 E19.40043
G1 X61.288 Y79.413 E19.48562
G1 X58.725 Y76.863 E19.82337
G1 X58.725 Y77.763 E19.90856
G1 X61.288 Y80.313 E20.24631
G1 X61.288 Y81.225 E20.33150
G1 X58.725 Y78.675 E20.66925
G1 X58.725 Y79.588 E20.75444
G1 X61.288 Y82.138 E21.09219
G1 X61.288 Y83.050 E21.17738
G1 X58.725 Y80.500 E21.51513
G1 X58.725 Y81.413 E21.60032
G1 X61.288 Y83.963 E21.93807
G1 X61.288 Y84.863 E22.02326
G1 X58.725 Y82.313 E22.36101
G1 X58.725 Y83.225 E22.44620
G1 X61.288 Y85.775 E22.78395
G1 X61.288 Y86.688 E22.86914
G1 X58.725 Y84.138 E23.20689
G1 X58.725 Y85.050 E23.29208
G1 X61.288 Y87.600 E23.62983
G1 X61.288 Y88.513 E23.71502
G1 X58.725 Y85.950 E24.05277
G1 X58.725 Y86.863 E24.13796
G1 X61.288 Y89.413 E24.47571
G1 X61.288 Y90.325 E24.56090
G1 X58.725 Y87.775 E24.89865
G1 X58.725 Y88.688 E24.98384
G1 X61.288 Y91.238 E25.32159
G1 X61.288 Y92.150 E25.40678
G1 X58.725 Y89.600 E25.74453
G1 X58.725 Y90.500 E25.82972
G1 X61.288 Y93.063 E26.16747
G1 X61.288 Y93.963 E26.25266
G1 X58.725 Y91.413 E26.59041
G1 X58.725 Y92.325 E26.67560
G1 X61.288 Y94.875 E27.01335
G1 X61.275 Y95.775 E27.09750
G1 X58.725 Y93.238 E27.43377
G1 X58.725 Y94.150 E27.51896
G1 X61.150 Y96.563 E27.83920
G1 X61.025 Y97.350 E27.91392
G1 X58.725 Y95.050 E28.21813
G1 X58.750 Y95.988 E28.30494
G1 X60.913 Y98.138 E28.59084
G1 X60.788 Y98.925 E28.66556
G1 X58.900 Y97.038 E28.91558
G1 X59.050 Y98.100 E29.01579
G1 X60.675 Y99.725 E29.23105
G1 X60.588 Y100.550 E29.30843
G1 X59.200 Y99.163 E29.49218
G1 X59.350 Y100.225 E29.59239
G1 X60.500 Y101.375 E29.74463
G1 X59.850 Y101.638
G1 X59.500 Y101.288 E29.79206
G1 X59.788 Y101.950
G1 X60.213 Y102.063 E29.83004
; infill_end
; perimeter_start
G1 F1800.000 E25.33004
G92 E0
G1 X63.888 Y71.288 F3600.000
G1 F1800.000 E4.50000
G1 X63.838 Y87.875 F600.000 E6.03372
G1 X63.425 Y91.188 E6.34290
; perimeter_end
; perimeter_start
G1 F1800.000 E1.84290
G92 E0
G1 X65.425 Y70.838 F3600.000
G1 F1800.000 E4.50000
G1 X65.363 Y83.613 F600.000 E5.68151
G1 X64.975 Y85.525 E5.86257
; perimeter_end
; perimeter_start
G1 F1800.000 E1.36257
G92 E0
G1 X66.625 Y82.025 F3600.000
G1 F1800.000 E4.50000
G1 X66.888 Y81.063 F600.000 E4.59252
G1 X66.863 Y70.675 E5.55350
G1 X66.975 Y70.250 E5.59361
; perimeter_end
; perimeter_start
G1 X68.500 Y69.550 F3600.000
G1 X68.388 Y70.025 F600.000 E5.63921
G1 X68.413 Y79.238 E6.49093
G1 X68.063 Y80.200 E6.58564
; perimeter_end
; perimeter_start
G1 F1800.000 E2.08564
G92 E0
G1 X69.713 Y78.300 F3600.000
G1 F1800.000 E4.50000
G1 X69.925 Y77.775 F600.000 E4.55278
G1 X69.900 Y69.263 E5.34048
G1 X70.125 Y68.413 E5.42154
; perimeter_end
; perimeter_start
G1 X71.663 Y67.513 F3600.000
G1 X71.425 Y68.388 F600.000 E5.50516
G1 X71.450 Y76.575 E6.26213
G1 X71.138 Y77.188 E6.32587
; perimeter_end
; perimeter_start
G1 X72.738 Y76.150 F3600.000
G1 X72.988 Y75.250 F600.000 E6.41233
G1 X72.950 Y67.463 E7.13240
G1 X73.188 Y66.550 E7.21911
; perimeter_end
; perimeter_start
G1 F1800.000 E2.71911
G92 E0
G1 X76.563 Y70.025 F3600.000
G1 F1800.000 E4.50000
G1 X76.563 Y69.025 F600.000 E4.54625
G1 X76.563 Y65.400 E4.88079
G1 X77.088 Y65.038 E4.93908
G1 X77.450 Y64.788 E4.98010
G1 X77.963 Y64.988 E5.03157
G1 X78.500 Y65.200 E5.08470
G1 X78.600 Y65.313 E5.09838
G1 X78.675 Y65.575 E5.12406
G1 X78.675 Y65.600 E5.12536
G1 X78.350 Y66.525 E5.21655
G1 X78.013 Y67.463 E5.30904
G1 X77.675 Y68.413 E5.40153
G1 X77.338 Y69.350 E5.49403
G1 X77.075 Y70.113 E5.53129
G1 X76.875 Y70.075 E5.54027
G1 X77.338 Y71.225 F450.000
G1 X76.825 Y72.338 F600.000 E5.65386
G1 X76.138 Y73.288 E5.76255
G1 X75.925 Y73.225 E5.78320
G1 X75.925 Y65.075 E6.53737
G1 X77.350 Y64.075 E6.69788
G1 X78.563 Y64.513 E6.81720
G1 X78.888 Y64.700 E6.85185
G1 X79.125 Y64.950 E6.88415
G1 X79.275 Y65.275 E6.91644
G1 X79.325 Y65.613 E6.94872
G1 X79.250 Y65.988 E6.98335
G1 X77.450 Y70.925 E7.46943
G1 X76.125 Y71.363
; perimeter_end
; infill_start
G1 X76.275 Y72.438 F3600.000
G1 X76.775 Y70.463 F600.000 E7.63549
G1 X76.913 Y69.563
G1 X77.350 Y67.050 E7.81513
G1 X77.038 Y66.600 E7.85405
G1 X77.538 Y66.450
G1 X77.025 Y65.950 E7.92862
G1 X77.438 Y65.350 E8.00318
G1 X78.075 Y65.988 E8.09657
; infill_end
; perimeter_start
G1 F1800.000 E3.59657
G92 E0
G1 X74.713 Y65.538 F3600.000
G1 F1800.000 E4.50000
G1 X74.475 Y66.463 F600.000 E4.58857
G1 X74.513 Y74.325 E5.31574
G1 X74.275 Y75.213 E5.40050
; perimeter_end
; perimeter_start
G1 F1800.000 E0.90050
G92 E0
G1 X53.038 Y70.263 F3600.000
G1 F1800.000 E4.50000
G1 X53.150 Y70.688 F600.000 E4.54112
G1 X53.125 Y81.088 E5.50281
G1 X53.388 Y82.063 E5.59640
; perimeter_end
; perimeter_start
G1 F1800.000 E1.09640
G92 E0
G1 X50.313 Y52.063 F3600.000
G1 F1800.000 E4.50000
G1 X50.088 Y52.925 F600.000 E4.58203
G1 X50.075 Y67.063 E5.88979
G1 X50.313 Y67.925 E5.97270
; perimeter_end
; perimeter_start
G1 X48.788 Y67.038 F3600.000
G1 X48.550 Y66.150 F600.000 E6.05808
G1 X48.550 Y53.838 E7.19648
G1 X48.788 Y52.950 E7.28106
; perimeter_end
; perimeter_start
G1 F1800.000 E2.78106
G92 E0
G1 X43.450 Y49.900 F3600.000
G1 F1800.000 E4.50000
G1 X43.450 Y50.900 F600.000 E4.54625
G1 X43.450 Y54.563 E4.88557
G1 X42.850 Y54.988 E4.95351
G1 X42.538 Y55.200 E4.98772
G1 X41.963 Y54.963 E5.04600
G1 X41.488 Y54.788 E5.09232
G1 X41.388 Y54.675 E5.10600
G1 X41.313 Y54.388 E5.13298
G1 X41.325 Y54.338 E5.13849
G1 X41.663 Y53.400 E5.23098
G1 X42.000 Y52.450 E5.32347
G1 X42.338 Y51.513 E5.41596
G1 X42.675 Y50.575 E5.50845
G1 X42.938 Y49.813 E5.54572
G1 X43.138 Y49.838 E5.55470
G1 X42.650 Y48.763 F450.000
G1 X43.163 Y47.650 F600.000 E5.66828
G1 X43.875 Y46.663 E5.78102
G1 X44.088 Y46.725 E5.80167
G1 X44.088 Y54.900 E6.55751
G1 X42.638 Y55.913 E6.72086
G1 X41.425 Y55.475 E6.84019
G1 X41.100 Y55.288 E6.87484
G1 X40.863 Y55.038 E6.90714
G1 X40.713 Y54.713 E6.93943
G1 X40.663 Y54.375 E6.97171
G1 X40.738 Y54.000 E7.00634
G1 X42.538 Y49.063 E7.49242
G1 X43.863 Y48.625
; perimeter_end
; infill_start
G1 X43.613 Y47.763
G1 X43.138 Y49.488 E7.65223
G1 X43.100 Y50.363
G1 X42.663 Y52.875 E7.83202
G1 X42.213 Y53.175 E7.87018
G1 X42.663 Y52.875
G1 X42.775 Y53.038 E7.89186
G1 X42.988 Y54.013 F3600.000
G1 X42.425 Y53.450 F600.000 E7.97661
G1 X41.913 Y53.988 E8.05591
G1 X42.563 Y54.625 E8.15372
; infill_end
; perimeter_start
G1 F1800.000 E3.65372
G92 E0
G1 X45.300 Y54.438 F3600.000
G1 F1800.000 E4.50000
G1 X45.538 Y53.513 F600.000 E4.58854
G1 X45.500 Y45.650 E5.31572
G1 X45.738 Y44.763 E5.40033
; perimeter_end
; perimeter_start
G1 X47.275 Y43.825 F3600.000
G1 X47.025 Y44.725 F600.000 E5.48686
G1 X47.063 Y52.513 E6.20688
G1 X46.825 Y53.413 E6.29357
; perimeter_end
; perimeter_start
G1 X48.350 Y52.450 F3600.000
G1 X48.588 Y51.588 F600.000 E6.37716
G1 X48.563 Y43.400 E7.13444
G1 X48.875 Y42.775 E7.19826
; perimeter_end
; perimeter_start
G1 X50.300 Y41.663 F3600.000
G1 X50.088 Y42.188 F600.000 E7.25116
G1 X50.113 Y50.713 E8.03960
G1 X49.888 Y51.563 E8.12066
; perimeter_end
; perimeter_start
G1 X51.513 Y50.425 F3600.000
G1 X51.625 Y49.950 F600.000 E8.16628
G1 X51.600 Y40.725 E9.01926
G1 X51.950 Y39.763 E9.11423
; perimeter_end
; perimeter_start
G1 F1800.000 E4.61423
G92 E0
G1 X53.388 Y37.925 F3600.000
G1 F1800.000 E4.50000
G1 X53.125 Y38.888 F600.000 E4.59304
G1 X53.150 Y49.300 E5.55616
G1 X53.050 Y49.725 E5.59633
; perimeter_end
; perimeter_start
G1 F1800.000 E1.09633
G92 E0
G1 X56.575 Y28.313 F3600.000
G1 F1800.000 E4.50000
G1 X56.175 Y32.013 F600.000 E4.84504
G1 X56.125 Y48.688 E6.38724
; perimeter_end
; perimeter_start
G1 X54.588 Y49.150 F3600.000
G1 X54.650 Y36.325 F600.000 E7.57275
G1 X55.050 Y34.388 E7.75623
; perimeter_end
; perimeter_start
G1 F1800.000 E3.25623
G92 E0
G1 X53.250 Y50.925 F3600.000
G1 F1800.000 E4.50000
G1 X53.138 Y51.350 F600.000 E4.54132
G1 X53.150 Y68.625 E6.13862
G1 X53.250 Y69.075 E6.18092
; perimeter_end
G1 F1800.000 E1.68092
G92 E0
; Layer: 2 Time: 208
G1 Z0.550 F3600.000
; Region: 0
; perimeter_start
G1 X57.913 Y48.088
G1 F1800.000 E4.50000
G1 X57.913 Y24.075 F900.000 E5.29869
G1 X58.725 Y18.363 E5.49059
G1 X58.838 Y17.100 E5.53261
G1 X59.400 Y16.925 E5.55190
G1 X60.150 Y16.875 E5.57702
G1 X61.150 Y17.088 E5.61111
G1 X61.500 Y20.363 E5.72096
G1 X62.100 Y24.225 E5.85076
G1 X62.100 Y48.100 E6.64475
G1 X60.763 Y47.950 E6.68922
G1 X58.813 Y47.975 E6.75434
G1 X58.113 Y48.063 E6.77759
G1 X57.512 Y48.538
G1 X57.512 Y24.038 E7.59225
G1 X58.325 Y18.313 E7.78475
G1 X58.463 Y16.800 E7.83538
G1 X59.325 Y16.538 E7.86513
G1 X60.163 Y16.475 E7.89334
G1 X61.063 Y16.625 E7.92339
G1 X61.525 Y16.788 E7.93979
G1 X61.900 Y20.313 E8.05770
G1 X62.500 Y24.188 E8.18821
G1 X62.500 Y48.538 E8.99806
G1 X60.750 Y48.350 E9.05656
G1 X58.838 Y48.375 E9.12015
G1 X57.713 Y48.513 E9.15771
G1 X57.888 Y47.825
; perimeter_end
; infill_start
G1 X61.800 Y47.600 F3600.000
G1 X61.650 Y47.750 F1200.000 E9.16513
G1 X61.100 Y47.688 E9.18543
G1 X61.800 Y46.988 E9.22139
G1 X61.800 Y46.363 E9.24378
G1 X60.513 Y47.650 E9.30980
G1 X59.888 Y47.663 E9.33249
G1 X61.800 Y45.750 E9.43059
G1 X61.800 Y45.138 E9.45298
G1 X59.263 Y47.675 E9.58317
G1 X58.613 Y47.700 E9.60657
G1 X61.800 Y44.513 E9.76981
G1 X61.800 Y43.900 E9.79221
G1 X58.213 Y47.488 E9.97619
G1 X58.213 Y46.863 E9.99858
G1 X61.800 Y43.288 E10.18257
G1 X61.800 Y42.663 E10.20496
G1 X58.213 Y46.250 E10.38894
G1 X58.213 Y45.638 E10.41133
G1 X61.800 Y42.050 E10.59532
G1 X61.800 Y41.438 E10.61771
G1 X58.213 Y45.013 E10.80169
G1 X58.213 Y44.400 E10.82409
G1 X61.800 Y40.813 E11.00807
G1 X61.800 Y40.200 E11.03046
G1 X58.213 Y43.788 E11.21444
G1 X58.213 Y43.163 E11.23684
G1 X61.800 Y39.575 E11.42082
G1 X61.800 Y38.963 E11.44321
G1 X58.213 Y42.550 E11.62719
G1 X58.213 Y41.925 E11.64959
G1 X61.800 Y38.350 E11.83357
G1 X61.800 Y37.725 E11.85596
G1 X58.213 Y41.313 E12.03994
G1 X58.213 Y40.700 E12.06234
G1 X61.800 Y37.113 E12.24632
G1 X61.800 Y36.500 E12.26871
G1 X58.213 Y40.075 E12.45269
G1 X58.213 Y39.463 E12.47509
G1 X61.800 Y35.875 E12.65907
G1 X61.800 Y35.263 E12.68146
G1 X58.213 Y38.850 E12.86545
G1 X58.213 Y38.225 E12.88784
G1 X61.800 Y34.638 E13.07182
G1 X61.800 Y34.025 E13.09421
G1 X58.213 Y37.613 E13.27820
G1 X58.213 Y37.000 E13.30059
G1 X61.800 Y33.413 E13.48457
G1 X61.800 Y32.788 E13.50696
G1 X58.213 Y36.375 E13.69095
G1 X58.213 Y35.763 E13.71334
G1 X61.800 Y32.175 E13.89732
G1 X61.800 Y31.563 E13.91972
G1 X58.213 Y35.138 E14.10370
G1 X58.213 Y34.525 E14.12609
G1 X61.800 Y30.938 E14.31007
G1 X61.800 Y30.325 E14.33247
G1 X58.213 Y33.913 E14.51645
G1 X58.213 Y33.288 E14.53884
G1 X61.800 Y29.700 E14.72282
G1 X61.800 Y29.088 E14.74522
G1 X58.213 Y32.675 E14.92920
G1 X58.213 Y32.063 E14.95159
G1 X61.800 Y28.475 E15.13557
G1 X61.800 Y27.850 E15.15797
G1 X58.213 Y31.438 E15.34195
G1 X58.213 Y30.825 E15.36434
G1 X61.800 Y27.238 E15.54833
G1 X61.800 Y26.625 E15.57072
G1 X58.213 Y30.200 E15.75470
G1 X58.213 Y29.588 E15.77709
G1 X61.800 Y26.000 E15.96108
G1 X61.800 Y25.388 E15.98347
G1 X58.213 Y28.975 E16.16745
G1 X58.213 Y28.350 E16.18984
G1 X61.800 Y24.763 E16.37383
G1 X61.788 Y24.163 E16.39577
G1 X58.213 Y27.738 E16.57911
G1 X58.213 Y27.125 E16.60150
G1 X61.700 Y23.625 E16.78062
G1 X61.625 Y23.100 E16.80027
G1 X58.213 Y26.500 E16.97517
G1 X58.213 Y25.888 E16.99757
G1 X61.538 Y22.563 E17.16826
G1 X61.463 Y22.025 E17.18790
G1 X58.213 Y25.263 E17.35438
G1 X58.213 Y24.650 E17.37678
G1 X61.375 Y21.488 E17.53904
G1 X61.288 Y20.950 E17.55868
G1 X58.225 Y24.025 E17.71626
G1 X58.325 Y23.300 E17.74260
G1 X61.213 Y20.425 E17.89074
G1 X61.150 Y19.863 E17.91107
G1 X58.425 Y22.588 E18.05089
G1 X58.525 Y21.863 E18.07724
G1 X61.088 Y19.300 E18.20878
G1 X61.038 Y18.750 E18.22912
G1 X58.625 Y21.150 E18.35238
G1 X58.738 Y20.425 E18.37873
G1 X60.975 Y18.188 E18.49370
G1 X60.913 Y17.638 E18.51405
G1 X58.838 Y19.713 E18.62074
G1 X58.938 Y18.988 E18.64708
G1 X60.663 Y17.263 E18.73577
G1 X60.138 Y17.175 E18.75522
G1 X59.025 Y18.275 E18.81188
G1 X59.088 Y17.600 E18.83663
G1 X59.475 Y17.225 E18.85612
; infill_end
; perimeter_start
G1 F1800.000 E14.35612
G92 E0
G1 X64.025 Y48.838 F3600.000
G1 F1800.000 E4.50000
G1 X63.612 Y48.750 F900.000 E4.51386
G1 X63.612 Y30.913 E5.10676
G1 X63.788 Y30.900 E5.11249
G1 X64.025 Y31.963 E5.14883
G1 X64.025 Y48.638 E5.70340
G1 X63.700 Y48.575
G1 X63.675 Y30.725 F3600.000
G1 X63.463 Y28.575 F900.000 E5.77529
; perimeter_end
; perimeter_start
G1 F1800.000 E1.27529
G92 E0
G1 X65.550 Y49.288 F3600.000
G1 F1800.000 E4.50000
G1 X65.138 Y49.150 F900.000 E4.51419
G1 X65.138 Y35.675 E4.96222
G1 X65.300 Y35.650 E4.96745
G1 X65.550 Y36.250 E4.98915
G1 X65.550 Y49.088 E5.41594
G1 X65.225 Y49.000
G1 X65.138 Y35.288 F3600.000
G1 X64.950 Y34.350 F900.000 E5.44761
; perimeter_end
; perimeter_start
G1 F1800.000 E0.94761
G92 E0
G1 X67.075 Y49.850 F3600.000
G1 F1800.000 E4.50000
G1 X66.662 Y49.688 F900.000 E4.51458
G1 X66.662 Y38.450 E4.88831
G1 X66.800 Y38.413 E4.89306
G1 X67.075 Y38.813 E4.90925
G1 X67.075 Y49.650 E5.26974
G1 X66.763 Y49.550
; perimeter_end
; perimeter_start
G1 F1800.000 E0.76974
G92 E0
G1 X68.600 Y50.550 F3600.000
G1 F1800.000 E4.50000
G1 X68.188 Y50.350 F900.000 E4.51499
G1 X68.188 Y40.200 E4.85250
G1 X68.600 Y40.663 E4.87276
G1 X68.600 Y50.350 E5.19506
G1 X68.288 Y50.213
; perimeter_end
; perimeter_start
G1 F1800.000 E0.69506
G92 E0
G1 X70.125 Y51.350 F3600.000
G1 F1800.000 E4.50000
G1 X69.713 Y51.125 F900.000 E4.51540
G1 X69.713 Y41.750 E4.82727
G1 X70.125 Y42.113 E4.84539
G1 X70.125 Y51.150 E5.14593
G1 X69.813 Y51.000
; perimeter_end
; perimeter_start
G1 F1800.000 E0.64593
G92 E0
G1 X71.650 Y52.238 F3600.000
G1 F1800.000 E4.50000
G1 X71.238 Y51.988 F900.000 E4.51577
G1 X71.238 Y43.013 E4.81447
G1 X71.650 Y43.313 E4.83132
G1 X71.650 Y52.038 E5.12144
G1 X71.350 Y51.863
; perimeter_end
; perimeter_start
G1 F1800.000 E0.62144
G92 E0
G1 X73.163 Y53.200 F3600.000
G1 F1800.000 E4.50000
G1 X72.763 Y52.938 F900.000 E4.51607
G1 X72.763 Y44.075 E4.81066
G1 X73.163 Y44.338 E4.82669
G1 X73.163 Y53.000 E5.11470
G1 X72.875 Y52.813
; perimeter_end
; perimeter_start
G1 F1800.000 E0.61470
G92 E0
G1 X76.475 Y47.663 F3600.000
G1 F1800.000 E4.50000
G1 X77.075 Y48.875 F900.000 E4.54504
G1 X78.975 Y54.075 E4.72925
G1 X79.038 Y54.375 E4.73947
G1 X79.000 Y54.638 E4.74811
G1 X78.888 Y54.875 E4.75675
G1 X78.713 Y55.063 E4.76539
G1 X77.388 Y55.600 E4.81281
G1 X76.212 Y54.775 E4.86076
G1 X76.212 Y47.750 E5.09433
G1 X76.288 Y47.725 E5.09703
G1 X76.925 Y47.600
G1 X77.450 Y48.725 E5.13839
G1 X79.363 Y53.975 E5.32424
G1 X79.438 Y54.363 E5.33763
G1 X79.388 Y54.750 E5.35048
G1 X79.225 Y55.100 E5.36333
G1 X78.963 Y55.388 E5.37619
G1 X78.613 Y55.575 E5.38957
G1 X77.338 Y56.038 E5.43483
G1 X75.813 Y54.975 E5.49663
G1 X75.813 Y46.175 E5.78918
G1 X76.213 Y46.588 E5.80803
G1 X76.813 Y47.438 E5.84250
G1 X76.500 Y48.275
; perimeter_end
; infill_start
G1 X76.438 Y48.013
G1 X76.713 Y49.263 F600.000 E5.88009
G1 X76.538 Y49.525 E5.88904
G1 X76.513 Y49.975
G1 X76.825 Y49.675 F1200.000 E5.90586
G1 X77.163 Y49.975 E5.92358
G1 X76.513 Y50.638 E5.95916
G1 X76.513 Y51.288 E5.98417
G1 X77.338 Y50.450 E6.02919
G1 X77.513 Y50.938 E6.04870
G1 X76.513 Y51.938 E6.10316
G1 X76.513 Y52.588 E6.12817
G1 X77.688 Y51.413 E6.19207
G1 X77.863 Y51.888 E6.21158
G1 X76.513 Y53.238 E6.28493
G1 X76.513 Y53.888 E6.30993
G1 X78.038 Y52.363 E6.39272
G1 X78.213 Y52.850 E6.41223
G1 X76.513 Y54.550 E6.50446
G1 X76.850 Y54.850 E6.52217
G1 X78.388 Y53.325 E6.60523
G1 X78.563 Y53.800 E6.62474
G1 X77.238 Y55.125 E6.69645
G1 X77.925 Y55.088 E6.72291
G1 X78.713 Y54.300 E6.76576
G1 X76.225 Y47.313 F3600.000
G1 X76.100 Y46.950 F600.000 E6.77635
; infill_end
; perimeter_start
G1 F1800.000 E2.27635
G92 E0
G1 X74.288 Y45.013 F3600.000
G1 F1800.000 E4.50000
G1 X74.688 Y45.250 F900.000 E4.51572
G1 X74.688 Y54.213 E4.81358
G1 X74.288 Y53.938 E4.82987
G1 X74.288 Y45.213 E5.12002
G1 X74.588 Y45.375
; perimeter_end
; perimeter_start
G1 F1800.000 E0.62002
G92 E0
G1 X78.975 Y57.000 F3600.000
G1 F1800.000 E4.50000
G1 X84.175 Y57.000 F900.000 E4.67303
G1 X84.362 Y57.063 E4.67929
G1 X84.362 Y62.925 E4.87458
G1 X84.175 Y62.987 E4.88084
G1 X78.975 Y62.987 E5.05386
G1 X78.975 Y57.200 E5.24637
G1 X78.575 Y56.600
G1 X84.238 Y56.600 E5.43481
G1 X84.575 Y56.713 E5.44637
G1 X84.763 Y56.963 E5.45683
G1 X84.763 Y63.025 E5.65854
G1 X84.575 Y63.275 E5.66899
G1 X84.238 Y63.388 E5.68056
G1 X78.575 Y63.388 E5.86900
G1 X78.575 Y56.800 E6.08811
G1 X79.275 Y57.000
; perimeter_end
; infill_start
G1 X79.275 Y57.475
G1 X79.463 Y57.300 F1200.000 E6.09737
G1 X80.075 Y57.300 E6.11946
G1 X79.275 Y58.088 E6.15999
G1 X79.275 Y58.700 E6.18210
G1 X80.688 Y57.300 E6.25388
G1 X81.300 Y57.300 E6.27598
G1 X79.275 Y59.325 E6.37901
G1 X79.275 Y59.938 E6.40113
G1 X81.913 Y57.300 E6.53543
G1 X82.525 Y57.300 E6.55752
G1 X79.275 Y60.550 E6.72308
G1 X79.275 Y61.163 E6.74519
G1 X83.138 Y57.300 E6.94201
G1 X83.750 Y57.300 E6.96410
G1 X79.275 Y61.775 E7.19217
G1 X79.275 Y62.388 E7.21429
G1 X84.063 Y57.600 E7.45835
G1 X84.063 Y58.213 E7.48046
G1 X79.588 Y62.688 E7.70874
G1 X80.200 Y62.688 E7.73086
G1 X84.063 Y58.825 E7.92785
G1 X84.063 Y59.438 E7.94996
G1 X80.813 Y62.688 E8.11567
G1 X81.425 Y62.688 E8.13779
G1 X84.063 Y60.050 E8.27221
G1 X84.063 Y60.663 E8.29432
G1 X82.038 Y62.688 E8.39746
G1 X82.650 Y62.688 E8.41958
G1 X84.063 Y61.275 E8.49143
G1 X84.063 Y61.888 E8.51354
G1 X83.263 Y62.688 E8.55411
G1 X83.875 Y62.688 E8.57623
G1 X84.063 Y62.500 E8.58551
; infill_end
; perimeter_start
G1 F1800.000 E4.08551
G92 E0
G1 X75.813 Y56.250 F3600.000
G1 F1800.000 E4.50000
G1 X76.425 Y56.675 F900.000 E4.52465
G1 X76.425 Y63.313 E4.74578
G1 X75.813 Y63.738 E4.77042
G1 X75.813 Y56.450 E5.01319
G1 X76.250 Y56.838
; perimeter_end
; infill_start
G1 X76.113 Y56.813
G1 X76.113 Y63.175 F600.000 E5.14474
; infill_end
; perimeter_start
G1 F1800.000 E0.64474
G92 E0
G1 X74.288 Y55.188 F3600.000
G1 F1800.000 E4.50000
G1 X74.688 Y55.463 F900.000 E4.51633
G1 X74.688 Y64.525 E4.81745
G1 X74.288 Y64.800 E4.83378
G1 X74.288 Y55.388 E5.14667
G1 X74.588 Y55.588
; perimeter_end
; perimeter_start
G1 F1800.000 E0.64667
G92 E0
G1 X72.763 Y54.175 F3600.000
G1 F1800.000 E4.50000
G1 X73.163 Y54.438 F900.000 E4.51613
G1 X73.163 Y65.550 E4.88575
G1 X72.763 Y65.813 E4.90188
G1 X72.763 Y54.375 E5.28253
G1 X73.063 Y54.550
; perimeter_end
; perimeter_start
G1 F1800.000 E0.78253
G92 E0
G1 X71.238 Y53.200 F3600.000
G1 F1800.000 E4.50000
G1 X71.650 Y53.450 F900.000 E4.51584
G1 X71.650 Y66.538 E4.95085
G1 X71.238 Y66.788 E4.96669
G1 X71.238 Y53.400 E5.41166
G1 X71.538 Y53.575
; perimeter_end
; perimeter_start
G1 F1800.000 E0.91166
G92 E0
G1 X69.713 Y52.313 F3600.000
G1 F1800.000 E4.50000
G1 X70.125 Y52.538 F900.000 E4.51548
G1 X70.125 Y67.450 E5.01142
G1 X69.713 Y67.675 E5.02689
G1 X69.713 Y52.513 E5.53136
G1 X70.013 Y52.663
; perimeter_end
; perimeter_start
G1 F1800.000 E1.03136
G92 E0
G1 X68.188 Y51.513 F3600.000
G1 F1800.000 E4.50000
G1 X68.600 Y51.713 F900.000 E4.51507
G1 X68.600 Y68.275 E5.06615
G1 X68.188 Y68.475 E5.08122
G1 X68.188 Y51.713 E5.63909
G1 X68.500 Y51.838
; perimeter_end
; perimeter_start
G1 F1800.000 E1.13909
G92 E0
G1 X66.662 Y50.813 F3600.000
G1 F1800.000 E4.50000
G1 X67.075 Y50.988 F900.000 E4.51464
G1 X67.075 Y69.000 E5.11394
G1 X66.662 Y69.175 E5.12859
G1 X66.662 Y51.013 E5.73264
G1 X66.975 Y51.125
; perimeter_end
; perimeter_start
G1 F1800.000 E1.23264
G92 E0
G1 X65.138 Y50.238 F3600.000
G1 F1800.000 E4.50000
G1 X65.550 Y50.375 F900.000 E4.51424
G1 X65.550 Y69.613 E5.15373
G1 X65.138 Y69.750 E5.16797
G1 X65.138 Y50.438 E5.80994
G1 X65.450 Y50.538
; perimeter_end
; perimeter_start
G1 X63.612 Y49.813 F3600.000
G1 X64.025 Y49.913 F900.000 E5.82382
G1 X64.025 Y70.075 E6.49456
G1 X63.612 Y70.175 E6.50845
G1 X63.612 Y50.013 E7.17916
G1 X63.938 Y50.075
; perimeter_end
; perimeter_start
G1 X62.100 Y49.938 F3600.000
G1 X62.100 Y70.050 F900.000 E7.84782
G1 X61.050 Y70.175 E7.88288
G1 X59.263 Y70.200 E7.94218
G1 X57.913 Y70.050 E7.98739
G1 X57.913 Y49.938 E8.65593
G1 X59.263 Y49.788 E8.70115
G1 X61.050 Y49.813 E8.76044
G1 X61.900 Y49.913 E8.78885
G1 X62.500 Y49.588
G1 X62.500 Y70.400 E9.48098
G1 X61.075 Y70.575 E9.52854
G1 X59.250 Y70.600 E9.58942
G1 X57.512 Y70.400 E9.64735
G1 X57.512 Y49.588 E10.33963
G1 X59.250 Y49.388 E10.39756
G1 X61.075 Y49.413 E10.45844
G1 X62.300 Y49.563 E10.49934
G1 X62.063 Y50.263
; perimeter_end
; infill_start
G1 X58.450 Y50.188 F3600.000
G1 X58.213 Y50.413 F1200.000 E10.51125
G1 X58.213 Y51.025 E10.53347
G1 X59.138 Y50.100 E10.58085
G1 X59.763 Y50.088 E10.60345
G1 X58.213 Y51.650 E10.68279
G1 X58.213 Y52.263 E10.70501
G1 X60.375 Y50.100 E10.81541
G1 X60.988 Y50.113 E10.83738
G1 X58.213 Y52.875 E10.97884
G1 X58.213 Y53.488 E11.00106
G1 X61.538 Y50.175 E11.17069
G1 X61.800 Y50.513 E11.18654
G1 X58.213 Y54.100 E11.36980
G1 X58.213 Y54.713 E11.39202
G1 X61.800 Y51.138 E11.57528
G1 X61.800 Y51.750 E11.59750
G1 X58.213 Y55.338 E11.78076
G1 X58.213 Y55.950 E11.80298
G1 X61.800 Y52.363 E11.98624
G1 X61.800 Y52.975 E12.00846
G1 X58.213 Y56.563 E12.19172
G1 X58.213 Y57.175 E12.21394
G1 X61.800 Y53.588 E12.39720
G1 X61.800 Y54.213 E12.41942
G1 X58.213 Y57.788 E12.60268
G1 X58.213 Y58.413 E12.62490
G1 X61.800 Y54.825 E12.80817
G1 X61.800 Y55.438 E12.83038
G1 X58.213 Y59.025 E13.01365
G1 X58.213 Y59.638 E13.03586
G1 X61.800 Y56.050 E13.21913
G1 X61.800 Y56.663 E13.24135
G1 X58.213 Y60.250 E13.42461
G1 X58.213 Y60.863 E13.44683
G1 X61.800 Y57.275 E13.63009
G1 X61.800 Y57.900 E13.65231
G1 X58.213 Y61.475 E13.83557
G1 X58.213 Y62.100 E13.85779
G1 X61.800 Y58.513 E14.04105
G1 X61.800 Y59.125 E14.06327
G1 X58.213 Y62.713 E14.24653
G1 X58.213 Y63.325 E14.26875
G1 X61.800 Y59.738 E14.45201
G1 X61.800 Y60.350 E14.47423
G1 X58.213 Y63.938 E14.65749
G1 X58.213 Y64.550 E14.67971
G1 X61.800 Y60.963 E14.86298
G1 X61.800 Y61.588 E14.88519
G1 X58.213 Y65.163 E15.06846
G1 X58.213 Y65.788 E15.09067
G1 X61.800 Y62.200 E15.27394
G1 X61.800 Y62.813 E15.29616
G1 X58.213 Y66.400 E15.47942
G1 X58.213 Y67.013 E15.50164
G1 X61.800 Y63.425 E15.68490
G1 X61.800 Y64.038 E15.70712
G1 X58.213 Y67.625 E15.89038
G1 X58.213 Y68.238 E15.91260
G1 X61.800 Y64.663 E16.09586
G1 X61.800 Y65.275 E16.11808
G1 X58.213 Y68.863 E16.30134
G1 X58.213 Y69.475 E16.32356
G1 X61.800 Y65.888 E16.50682
G1 X61.800 Y66.500 E16.52904
G1 X58.488 Y69.813 E16.69818
G1 X59.038 Y69.875 E16.71825
G1 X61.800 Y67.113 E16.85918
G1 X61.800 Y67.725 E16.88140
G1 X59.638 Y69.900 E16.99210
G1 X60.250 Y69.888 E17.01458
G1 X61.800 Y68.350 E17.09349
G1 X61.800 Y68.963 E17.11571
G1 X60.875 Y69.888 E17.16283
G1 X61.563 Y69.813 E17.18765
G1 X61.800 Y69.575 E17.19986
; infill_end
; perimeter_start
G1 F1800.000 E12.69986
G92 E0
G1 X56.400 Y70.188 F3600.000
G1 F1800.000 E4.50000
G1 X55.988 Y70.088 F900.000 E4.51388
G1 X55.988 Y49.900 E5.18505
G1 X56.400 Y49.800 E5.19894
G1 X56.400 Y69.988 E5.87005
G1 X56.075 Y69.925
; perimeter_end
; perimeter_start
G1 X54.875 Y69.750 F3600.000
G1 X54.462 Y69.613 F900.000 E5.88428
G1 X54.462 Y50.375 E6.52437
G1 X54.875 Y50.238 E6.53860
G1 X54.875 Y69.550 E7.18111
G1 X54.563 Y69.463
; perimeter_end
; perimeter_start
G1 F1800.000 E2.68111
G92 E0
G1 X51.825 Y68.488 F3600.000
G1 F1800.000 E4.50000
G1 X51.412 Y68.288 F900.000 E4.51506
G1 X51.412 Y51.700 E5.06700
G1 X51.825 Y51.500 E5.08206
G1 X51.825 Y68.288 E5.64075
G1 X51.513 Y68.163
; perimeter_end
; perimeter_start
G1 F1800.000 E1.14075
G92 E0
G1 X47.250 Y65.838 F3600.000
G1 F1800.000 E4.50000
G1 X46.850 Y65.563 F900.000 E4.51612
G1 X46.850 Y54.425 E4.88686
G1 X47.250 Y54.150 E4.90298
G1 X47.250 Y65.638 E5.28473
G1 X46.950 Y65.450
; perimeter_end
; perimeter_start
G1 F1800.000 E0.78473
G92 E0
G1 X41.012 Y62.988 F3600.000
G1 F1800.000 E4.50000
G1 X35.650 Y62.950 F900.000 E4.67821
G1 X35.600 Y62.775 E4.68443
G1 X35.625 Y57.063 E4.87459
G1 X35.813 Y57.000 E4.88089
G1 X41.012 Y57.000 E5.05391
G1 X41.012 Y62.788 E5.24630
G1 X41.413 Y63.388
G1 X35.550 Y63.350 E5.44101
G1 X35.300 Y63.163 E5.45149
G1 X35.200 Y62.838 E5.46303
G1 X35.225 Y56.963 E5.65846
G1 X35.413 Y56.713 E5.66894
G1 X35.750 Y56.600 E5.68051
G1 X41.413 Y56.600 E5.86895
G1 X41.413 Y63.188 E6.08802
G1 X40.725 Y62.988
; perimeter_end
; infill_start
G1 X40.713 Y62.500
G1 X40.538 Y62.688 F1200.000 E6.09713
G1 X39.925 Y62.675 E6.11907
G1 X40.713 Y61.888 E6.15920
G1 X40.713 Y61.275 E6.18131
G1 X39.313 Y62.675 E6.25246
G1 X38.713 Y62.675 E6.27440
G1 X40.713 Y60.663 E6.37658
G1 X40.713 Y60.050 E6.39869
G1 X38.100 Y62.663 E6.53189
G1 X37.488 Y62.663 E6.55383
G1 X40.713 Y59.438 E6.71805
G1 X40.713 Y58.825 E6.74016
G1 X36.888 Y62.650 E6.93540
G1 X36.275 Y62.650 E6.95734
G1 X40.713 Y58.213 E7.18361
G1 X40.713 Y57.600 E7.20572
G1 X35.888 Y62.425 E7.45144
G1 X35.900 Y61.800 E7.47368
G1 X40.400 Y57.300 E7.70339
G1 X39.788 Y57.300 E7.72552
G1 X35.900 Y61.188 E7.92375
G1 X35.900 Y60.575 E7.94599
G1 X39.175 Y57.300 E8.11276
G1 X38.563 Y57.300 E8.13488
G1 X35.913 Y59.950 E8.27017
G1 X35.913 Y59.338 E8.29241
G1 X37.950 Y57.300 E8.39623
G1 X37.338 Y57.300 E8.41835
G1 X35.913 Y58.713 E8.49070
G1 X35.925 Y58.100 E8.51294
G1 X36.725 Y57.300 E8.55381
G1 X36.113 Y57.300 E8.57594
G1 X35.925 Y57.488 E8.58534
; infill_end
; perimeter_start
G1 F1800.000 E4.08534
G92 E0
G1 X44.200 Y63.763 F3600.000
G1 F1800.000 E4.50000
G1 X43.563 Y63.313 F900.000 E4.52567
G1 X43.563 Y56.675 E4.74680
G1 X44.200 Y56.225 E4.77247
G1 X44.200 Y63.563 E5.01641
G1 X43.738 Y63.138
; perimeter_end
; infill_start
G1 X43.888 Y63.175
G1 X43.875 Y56.813 F600.000 E5.15827
; infill_end
; perimeter_start
G1 F1800.000 E0.65827
G92 E0
G1 X45.725 Y64.813 F3600.000
G1 F1800.000 E4.50000
G1 X45.325 Y64.538 F900.000 E4.51633
G1 X45.325 Y55.450 E4.81860
G1 X45.725 Y55.175 E4.83493
G1 X45.725 Y64.613 E5.14896
G1 X45.425 Y64.425
; perimeter_end
; perimeter_start
G1 F1800.000 E0.64896
G92 E0
G1 X43.538 Y72.363 F3600.000
G1 F1800.000 E4.50000
G1 X42.913 Y71.113 F900.000 E4.54647
G1 X41.013 Y65.913 E4.73068
G1 X40.950 Y65.613 E4.74091
G1 X40.988 Y65.350 E4.74954
G1 X41.100 Y65.113 E4.75818
G1 X41.275 Y64.925 E4.76682
G1 X42.600 Y64.388 E4.81425
G1 X43.800 Y65.238 E4.86321
G1 X43.800 Y72.275 E5.09739
G1 X43.725 Y72.300 E5.10009
G1 X43.063 Y72.388
G1 X42.538 Y71.263 E5.14146
G1 X40.625 Y66.013 E5.32730
G1 X40.550 Y65.625 E5.34069
G1 X40.600 Y65.238 E5.35354
G1 X40.763 Y64.888 E5.36639
G1 X41.025 Y64.600 E5.37925
G1 X41.375 Y64.413 E5.39264
G1 X42.650 Y63.950 E5.43790
G1 X44.200 Y65.025 E5.50071
G1 X44.200 Y73.825 E5.79347
G1 X43.775 Y73.400 E5.81346
G1 X43.175 Y72.550 E5.84793
G1 X43.488 Y71.713
; perimeter_end
; infill_start
G1 X43.588 Y72.025
G1 X43.313 Y70.763 F600.000 E5.88548
G1 X43.038 Y70.613 E5.89458
G1 X43.500 Y70.063
G1 X43.188 Y70.388 F1200.000 E5.91213
G1 X42.838 Y70.063 E5.93026
G1 X43.500 Y69.413 E5.96649
G1 X43.500 Y68.750 E5.99211
G1 X42.663 Y69.588 E6.03802
G1 X42.488 Y69.100 E6.05800
G1 X43.500 Y68.088 E6.11358
G1 X43.500 Y67.425 E6.13919
G1 X42.313 Y68.613 E6.20444
G1 X42.138 Y68.138 E6.22443
G1 X43.500 Y66.763 E6.29935
G1 X43.500 Y66.113 E6.32496
G1 X41.963 Y67.650 E6.40955
G1 X41.788 Y67.163 E6.42954
G1 X43.500 Y65.450 E6.52380
G1 X43.150 Y65.138 E6.54196
G1 X41.613 Y66.688 E6.62644
G1 X41.438 Y66.200 E6.64643
G1 X42.763 Y64.875 E6.71928
G1 X42.075 Y64.900 E6.74593
G1 X41.275 Y65.700 E6.78990
G1 X43.788 Y72.700 F3600.000
G1 X43.913 Y73.063 F600.000 E6.80044
; infill_end
; perimeter_start
G1 F1800.000 E2.30044
G92 E0
G1 X45.725 Y74.988 F3600.000
G1 F1800.000 E4.50000
G1 X45.325 Y74.750 F900.000 E4.51570
G1 X45.325 Y65.800 E4.81355
G1 X45.725 Y66.075 E4.82983
G1 X45.725 Y74.788 E5.11994
G1 X45.425 Y74.625
; perimeter_end
; perimeter_start
G1 F1800.000 E0.61994
G92 E0
G1 X47.250 Y75.925 F3600.000
G1 F1800.000 E4.50000
G1 X46.850 Y75.663 F900.000 E4.51604
G1 X46.850 Y66.813 E4.81068
G1 X47.250 Y67.075 E4.82674
G1 X47.250 Y75.725 E5.11469
G1 X46.950 Y75.550
; perimeter_end
; perimeter_start
G1 F1800.000 E0.61469
G92 E0
G1 X48.775 Y77.000 F3600.000
G1 F1800.000 E4.50000
G1 X48.362 Y76.688 F900.000 E4.51687
G1 X48.362 Y67.763 E4.81373
G1 X48.775 Y68.013 E4.82949
G1 X48.775 Y76.800 E5.12168
G1 X48.475 Y76.588
; perimeter_end
; perimeter_start
G1 F1800.000 E0.62168
G92 E0
G1 X50.300 Y78.263 F3600.000
G1 F1800.000 E4.50000
G1 X49.887 Y77.900 F900.000 E4.51815
G1 X49.887 Y68.650 E4.82560
G1 X50.300 Y68.875 E4.84099
G1 X50.300 Y78.063 E5.14652
G1 X50.013 Y77.800
; perimeter_end
; perimeter_start
G1 F1800.000 E0.64652
G92 E0
G1 X51.825 Y79.813 F3600.000
G1 F1800.000 E4.50000
G1 X51.412 Y79.350 F900.000 E4.52030
G1 X51.412 Y69.450 E4.84973
G1 X51.825 Y69.650 E4.86471
G1 X51.825 Y79.613 E5.19613
G1 X51.538 Y79.275
; perimeter_end
; perimeter_start
G1 F1800.000 E0.69613
G92 E0
G1 X54.713 Y84.400 F3600.000
G1 F1800.000 E4.50000
G1 X54.462 Y83.788 F900.000 E4.52184
G1 X54.462 Y70.713 E4.95675
G1 X54.875 Y70.850 E4.97093
G1 X54.875 Y84.325 E5.41922
G1 X54.550 Y83.763
G1 X55.038 Y85.500 F3600.000
G1 X54.825 Y84.650 F900.000 E5.44826
; perimeter_end
; perimeter_start
G1 F1800.000 E0.94826
G92 E0
G1 X56.225 Y89.200 F3600.000
G1 F1800.000 E4.50000
G1 X55.988 Y88.113 F900.000 E4.53667
G1 X55.988 Y71.150 E5.10089
G1 X56.400 Y71.250 E5.11474
G1 X56.400 Y89.150 E5.71009
G1 X56.113 Y88.400
G1 X56.588 Y91.763 F3600.000
G1 X56.338 Y89.413 F900.000 E5.78846
; perimeter_end
; perimeter_start
G1 F1800.000 E1.28846
G92 E0
G1 X57.913 Y71.900 F3600.000
G1 F1800.000 E4.50000
G1 X58.813 Y72.013 F900.000 E4.52991
G1 X60.763 Y72.038 E4.59503
G1 X62.100 Y71.888 E4.63950
G1 X62.100 Y95.763 E5.43348
G1 X61.500 Y99.625 E5.56328
G1 X61.150 Y102.900 E5.67314
G1 X60.150 Y103.113 E5.70722
G1 X59.400 Y103.063 E5.73235
G1 X58.838 Y102.888 E5.75164
G1 X58.725 Y101.625 E5.79365
G1 X57.913 Y95.913 E5.98555
G1 X57.913 Y72.100 E6.77759
G1 X57.512 Y71.450
G1 X58.838 Y71.613 E6.82180
G1 X60.750 Y71.638 E6.88539
G1 X62.500 Y71.450 E6.94389
G1 X62.500 Y95.800 E7.75374
G1 X61.900 Y99.675 E7.88425
G1 X61.525 Y103.200 E8.00216
G1 X61.063 Y103.363 E8.01856
G1 X60.163 Y103.513 E8.04861
G1 X59.325 Y103.450 E8.07682
G1 X58.463 Y103.188 E8.10657
G1 X58.325 Y101.675 E8.15720
G1 X57.512 Y95.950 E8.34971
G1 X57.512 Y71.650 E9.15771
G1 X58.175 Y71.913
; perimeter_end
; infill_start
G1 X58.350 Y72.263
G1 X58.213 Y72.400 F1200.000 E9.16493
G1 X58.213 Y73.013 E9.18732
G1 X58.913 Y72.313 E9.22340
G1 X59.525 Y72.325 E9.24551
G1 X58.213 Y73.638 E9.31285
G1 X58.213 Y74.250 E9.33524
G1 X60.138 Y72.325 E9.43385
G1 X60.750 Y72.338 E9.45595
G1 X58.213 Y74.863 E9.58581
G1 X58.213 Y75.488 E9.60820
G1 X61.438 Y72.263 E9.77339
G1 X61.800 Y72.513 E9.78949
G1 X58.213 Y76.100 E9.97347
G1 X58.213 Y76.713 E9.99586
G1 X61.800 Y73.138 E10.17983
G1 X61.800 Y73.750 E10.20223
G1 X58.213 Y77.338 E10.38620
G1 X58.213 Y77.950 E10.40859
G1 X61.800 Y74.363 E10.59257
G1 X61.800 Y74.988 E10.61496
G1 X58.213 Y78.575 E10.79893
G1 X58.213 Y79.188 E10.82132
G1 X61.800 Y75.600 E11.00530
G1 X61.800 Y76.213 E11.02769
G1 X58.213 Y79.800 E11.21166
G1 X58.213 Y80.425 E11.23405
G1 X61.800 Y76.838 E11.41803
G1 X61.800 Y77.450 E11.44042
G1 X58.213 Y81.038 E11.62440
G1 X58.213 Y81.650 E11.64679
G1 X61.800 Y78.075 E11.83076
G1 X61.800 Y78.688 E11.85315
G1 X58.213 Y82.275 E12.03713
G1 X58.213 Y82.888 E12.05952
G1 X61.800 Y79.300 E12.24349
G1 X61.800 Y79.925 E12.26588
G1 X58.213 Y83.500 E12.44986
G1 X58.213 Y84.125 E12.47225
G1 X61.800 Y80.538 E12.65623
G1 X61.800 Y81.150 E12.67862
G1 X58.213 Y84.738 E12.86259
G1 X58.213 Y85.363 E12.88498
G1 X61.800 Y81.775 E13.06896
G1 X61.800 Y82.388 E13.09135
G1 X58.213 Y85.975 E13.27532
G1 X58.213 Y86.588 E13.29771
G1 X61.800 Y83.000 E13.48169
G1 X61.800 Y83.625 E13.50408
G1 X58.213 Y87.213 E13.68805
G1 X58.213 Y87.825 E13.71045
G1 X61.800 Y84.238 E13.89442
G1 X61.800 Y84.863 E13.91681
G1 X58.213 Y88.438 E14.10079
G1 X58.213 Y89.063 E14.12318
G1 X61.800 Y85.475 E14.30715
G1 X61.800 Y86.088 E14.32954
G1 X58.213 Y89.675 E14.51352
G1 X58.213 Y90.300 E14.53591
G1 X61.800 Y86.713 E14.71988
G1 X61.800 Y87.325 E14.74228
G1 X58.213 Y90.913 E14.92625
G1 X58.213 Y91.525 E14.94864
G1 X61.800 Y87.938 E15.13262
G1 X61.800 Y88.563 E15.15501
G1 X58.213 Y92.150 E15.33898
G1 X58.213 Y92.763 E15.36137
G1 X61.800 Y89.175 E15.54535
G1 X61.800 Y89.800 E15.56774
G1 X58.213 Y93.375 E15.75171
G1 X58.213 Y94.000 E15.77411
G1 X61.800 Y90.413 E15.95808
G1 X61.800 Y91.025 E15.98047
G1 X58.213 Y94.613 E16.16445
G1 X58.213 Y95.225 E16.18684
G1 X61.800 Y91.650 E16.37081
G1 X61.800 Y92.263 E16.39320
G1 X58.213 Y95.850 E16.57718
G1 X58.288 Y96.400 E16.59718
G1 X61.800 Y92.875 E16.77754
G1 X61.800 Y93.500 E16.79993
G1 X58.363 Y96.938 E16.97637
G1 X58.438 Y97.475 E16.99618
G1 X61.800 Y94.113 E17.16869
G1 X61.800 Y94.738 E17.19108
G1 X58.513 Y98.013 E17.35967
G1 X58.588 Y98.563 E17.37948
G1 X61.800 Y95.350 E17.54414
G1 X61.763 Y96.000 E17.56805
G1 X58.663 Y99.100 E17.72670
G1 X58.738 Y99.638 E17.74651
G1 X61.650 Y96.738 E17.89550
G1 X61.538 Y97.463 E17.92226
G1 X58.825 Y100.175 E18.06158
G1 X58.900 Y100.725 E18.08139
G1 X61.425 Y98.188 E18.21104
G1 X61.313 Y98.925 E18.23780
G1 X58.975 Y101.263 E18.35779
G1 X59.038 Y101.813 E18.37789
G1 X61.200 Y99.650 E18.48887
G1 X61.125 Y100.338 E18.51409
G1 X59.088 Y102.375 E18.61862
G1 X59.350 Y102.738 E18.63466
G1 X61.050 Y101.025 E18.72212
G1 X60.975 Y101.725 E18.74734
G1 X59.900 Y102.800 E18.80248
G1 X60.588 Y102.725 E18.82742
G1 X60.913 Y102.413 E18.84367
; infill_end
; perimeter_start
G1 F1800.000 E14.34367
G92 E0
G1 X64.025 Y71.150 F3600.000
G1 F1800.000 E4.50000
G1 X64.025 Y88.025 F900.000 E5.06122
G1 X63.788 Y89.088 E5.09756
G1 X63.612 Y89.075 E5.10329
G1 X63.612 Y71.238 E5.69619
G1 X63.825 Y71.188 E5.70340
G1 X63.675 Y71.875
G1 X63.675 Y89.263 F3600.000
G1 X63.463 Y91.413 F900.000 E5.77524
; perimeter_end
; perimeter_start
G1 F1800.000 E1.27524
G92 E0
G1 X65.550 Y70.700 F3600.000
G1 F1800.000 E4.50000
G1 X65.550 Y83.738 F900.000 E4.93344
G1 X65.300 Y84.338 E4.95513
G1 X65.138 Y84.313 E4.96037
G1 X65.138 Y70.838 E5.40840
G1 X65.350 Y70.763 E5.41593
G1 X65.225 Y71.438
G1 X65.138 Y84.713 F3600.000
G1 X64.950 Y85.638 F900.000 E5.44755
; perimeter_end
; perimeter_start
G1 F1800.000 E0.94755
G92 E0
G1 X67.075 Y70.138 F3600.000
G1 F1800.000 E4.50000
G1 X67.075 Y81.175 F900.000 E4.86714
G1 X66.800 Y81.575 E4.88333
G1 X66.662 Y81.538 E4.88808
G1 X66.662 Y70.300 E5.26181
G1 X66.888 Y70.213 E5.26974
G1 X66.763 Y70.875
G1 X66.662 Y81.888 F3600.000
G1 X66.675 Y82.250 F900.000 E5.28181
; perimeter_end
; perimeter_start
G1 F1800.000 E0.78181
G92 E0
G1 X68.600 Y69.438 F3600.000
G1 F1800.000 E4.50000
G1 X68.600 Y79.325 F900.000 E4.82895
G1 X68.188 Y79.788 E4.84920
G1 X68.188 Y69.638 E5.18672
G1 X68.413 Y69.525 E5.19506
G1 X68.300 Y70.188
; perimeter_end
; perimeter_start
G1 F1800.000 E0.69506
G92 E0
G1 X70.125 Y68.638 F3600.000
G1 F1800.000 E4.50000
G1 X70.125 Y77.875 F900.000 E4.80720
G1 X69.713 Y78.238 E4.82532
G1 X69.713 Y68.863 E5.13719
G1 X69.950 Y68.738 E5.14593
G1 X69.838 Y69.388
; perimeter_end
; perimeter_start
G1 F1800.000 E0.64593
G92 E0
G1 X71.650 Y67.750 F3600.000
G1 F1800.000 E4.50000
G1 X71.650 Y76.675 F900.000 E4.79677
G1 X71.238 Y76.975 E4.81362
G1 X71.238 Y68.000 E5.11232
G1 X71.475 Y67.850 E5.12144
G1 X71.375 Y68.500
; perimeter_end
; perimeter_start
G1 F1800.000 E0.62144
G92 E0
G1 X73.163 Y66.788 F3600.000
G1 F1800.000 E4.50000
G1 X73.163 Y75.650 F900.000 E4.79466
G1 X72.763 Y75.913 E4.81069
G1 X72.763 Y67.050 E5.10528
G1 X73.000 Y66.900 E5.11470
G1 X72.913 Y67.550
; perimeter_end
; perimeter_start
G1 F1800.000 E0.61470
G92 E0
G1 X76.475 Y72.325 F3600.000
G1 F1800.000 E4.50000
G1 X76.212 Y72.238 F900.000 E4.50935
G1 X76.212 Y65.213 E4.74292
G1 X77.388 Y64.388 E4.79087
G1 X78.713 Y64.925 E4.83829
G1 X78.888 Y65.113 E4.84693
G1 X79.000 Y65.350 E4.85557
G1 X79.038 Y65.613 E4.86421
G1 X78.975 Y65.913 E4.87443
G1 X77.075 Y71.113 E5.05864
G1 X76.588 Y72.163 E5.09710
G1 X76.925 Y72.388
G1 X76.213 Y73.400 E5.13822
G1 X75.813 Y73.813 E5.15707
G1 X75.813 Y65.013 E5.44962
G1 X77.338 Y63.950 E5.51142
G1 X78.613 Y64.413 E5.55668
G1 X78.963 Y64.600 E5.57007
G1 X79.225 Y64.888 E5.58292
G1 X79.388 Y65.238 E5.59578
G1 X79.438 Y65.625 E5.60863
G1 X79.363 Y66.013 E5.62201
G1 X77.450 Y71.263 E5.80786
G1 X77.013 Y72.213 E5.84257
G1 X76.125 Y72.363
; perimeter_end
; infill_start
G1 X76.438 Y71.975
G1 X76.713 Y70.725 F600.000 E5.87980
G1 X76.538 Y70.425 E5.88992
G1 X76.838 Y70.325
G1 X77.175 Y69.988 F1200.000 E5.90744
G1 X76.513 Y70.025
G1 X77.538 Y69.000 E5.96042
G1 X77.888 Y68.025 F3600.000
G1 X76.513 Y69.400 F1200.000 E6.03185
G1 X76.513 Y68.775
G1 X78.250 Y67.050 E6.12174
G1 X78.600 Y66.063 F3600.000
G1 X76.513 Y68.163 F1200.000 E6.23009
G1 X76.513 Y67.538 E6.25288
G1 X78.688 Y65.363 E6.36534
G1 X78.363 Y65.063 E6.38146
G1 X76.513 Y66.913 E6.47714
G1 X76.513 Y66.288 E6.49993
G1 X77.900 Y64.900 E6.57222
G1 X77.450 Y64.725 E6.59001
G1 X76.513 Y65.663 E6.63867
G1 X76.200 Y72.638 F3600.000
G1 X76.138 Y73.013 F600.000 E6.64918
; infill_end
; perimeter_start
G1 F1800.000 E2.14918
G92 E0
G1 X74.288 Y74.975 F3600.000
G1 F1800.000 E4.50000
G1 X74.288 Y66.050 F900.000 E4.79681
G1 X74.688 Y65.775 E4.81309
G1 X74.688 Y74.738 E5.11095
G1 X74.463 Y74.875 E5.12002
G1 X74.563 Y74.225
; perimeter_end
; perimeter_start
G1 F1800.000 E0.62002
G92 E0
G1 X52.938 Y70.138 F3600.000
G1 F1800.000 E4.50000
G1 X53.350 Y70.313 F900.000 E4.51457
G1 X53.350 Y81.575 E4.88921
G1 X53.213 Y81.613 E4.89397
G1 X52.938 Y81.200 E4.91021
G1 X52.938 Y70.338 E5.27151
G1 X53.250 Y70.450
; perimeter_end
; perimeter_start
G1 F1800.000 E0.77151
G92 E0
G1 X50.300 Y67.688 F3600.000
G1 F1800.000 E4.50000
G1 X49.887 Y67.463 F900.000 E4.51547
G1 X49.887 Y52.525 E5.01237
G1 X50.300 Y52.300 E5.02784
G1 X50.300 Y67.488 E5.53324
G1 X50.000 Y67.338
; perimeter_end
; perimeter_start
G1 X48.775 Y66.800 F3600.000
G1 X48.362 Y66.550 F900.000 E5.54908
G1 X48.362 Y53.438 E5.98513
G1 X48.775 Y53.188 E6.00097
G1 X48.775 Y66.600 E6.44697
G1 X48.475 Y66.425
; perimeter_end
; perimeter_start
G1 F1800.000 E1.94697
G92 E0
G1 X43.538 Y47.625 F3600.000
G1 F1800.000 E4.50000
G1 X43.800 Y47.713 F900.000 E4.50935
G1 X43.800 Y54.750 E4.74353
G1 X42.600 Y55.600 E4.79250
G1 X41.275 Y55.063 E4.83992
G1 X41.100 Y54.875 E4.84856
G1 X40.988 Y54.638 E4.85720
G1 X40.950 Y54.375 E4.86583
G1 X41.013 Y54.075 E4.87606
G1 X42.913 Y48.875 E5.06027
G1 X43.413 Y47.788 E5.10018
G1 X43.063 Y47.600
G1 X43.775 Y46.588 E5.14129
G1 X44.200 Y46.163 E5.16129
G1 X44.200 Y54.963 E5.45404
G1 X42.650 Y56.038 E5.51686
G1 X41.375 Y55.575 E5.56212
G1 X41.025 Y55.388 E5.57551
G1 X40.763 Y55.100 E5.58836
G1 X40.600 Y54.750 E5.60122
G1 X40.550 Y54.363 E5.61407
G1 X40.625 Y53.975 E5.62745
G1 X42.538 Y48.725 E5.81330
G1 X42.975 Y47.775 E5.84801
G1 X43.863 Y47.625
; perimeter_end
; infill_start
G1 X43.738 Y47.288
G1 X43.925 Y46.925 F600.000 E5.85934
G1 X43.563 Y48.163 F3600.000
G1 X43.300 Y49.225 F600.000 E5.89362
G1 X43.038 Y49.375 E5.90333
G1 X43.175 Y49.600
G1 X42.838 Y49.950 F1200.000 E5.92139
G1 X43.500 Y49.900
G1 X42.475 Y50.938 E5.97511
G1 X42.113 Y51.925 F3600.000
G1 X43.500 Y50.525 F1200.000 E6.04760
G1 X43.500 Y51.163
G1 X41.750 Y52.913 E6.13885
G1 X41.400 Y53.888 F3600.000
G1 X43.500 Y51.788 F1200.000 E6.24888
G1 X43.500 Y52.413 E6.27205
G1 X41.300 Y54.613 E6.38696
G1 X41.625 Y54.925 E6.40335
G1 X43.500 Y53.038 E6.50140
G1 X43.500 Y53.675 E6.52457
G1 X42.075 Y55.088 E6.59888
G1 X42.538 Y55.263 E6.61696
G1 X43.500 Y54.300 E6.66724
; infill_end
; perimeter_start
G1 F1800.000 E2.16724
G92 E0
G1 X45.725 Y45.000 F3600.000
G1 F1800.000 E4.50000
G1 X45.725 Y53.913 F900.000 E4.79676
G1 X45.325 Y54.188 E4.81304
G1 X45.325 Y45.238 E5.11089
G1 X45.550 Y45.100 E5.11994
G1 X45.450 Y45.750
; perimeter_end
; perimeter_start
G1 F1800.000 E0.61994
G92 E0
G1 X47.250 Y44.063 F3600.000
G1 F1800.000 E4.50000
G1 X47.250 Y52.913 F900.000 E4.79460
G1 X46.850 Y53.175 E4.81066
G1 X46.850 Y44.325 E5.10530
G1 X47.088 Y44.163 E5.11469
G1 X46.988 Y44.813
; perimeter_end
; perimeter_start
G1 F1800.000 E0.61469
G92 E0
G1 X48.775 Y42.988 F3600.000
G1 F1800.000 E4.50000
G1 X48.775 Y51.975 F900.000 E4.79884
G1 X48.362 Y52.225 E4.81460
G1 X48.362 Y43.300 E5.11147
G1 X48.613 Y43.113 E5.12168
G1 X48.525 Y43.750
; perimeter_end
; perimeter_start
G1 F1800.000 E0.62168
G92 E0
G1 X50.300 Y41.725 F3600.000
G1 F1800.000 E4.50000
G1 X50.300 Y51.113 F900.000 E4.81218
G1 X49.887 Y51.338 E4.82757
G1 X49.887 Y42.088 E5.13502
G1 X50.150 Y41.863 E5.14652
G1 X50.075 Y42.488
; perimeter_end
; perimeter_start
G1 F1800.000 E0.64652
G92 E0
G1 X51.825 Y40.175 F3600.000
G1 F1800.000 E4.50000
G1 X51.825 Y50.338 F900.000 E4.83807
G1 X51.412 Y50.538 E4.85306
G1 X51.412 Y40.638 E5.18248
G1 X51.688 Y40.325 E5.19613
G1 X51.638 Y40.950
; perimeter_end
; perimeter_start
G1 F1800.000 E0.69613
G92 E0
G1 X53.213 Y38.375 F3600.000
G1 F1800.000 E4.50000
G1 X53.350 Y38.413 F900.000 E4.50475
G1 X53.350 Y49.675 E4.87940
G1 X52.938 Y49.850 E4.89397
G1 X52.938 Y38.788 E5.26192
G1 X53.100 Y38.538 E5.27151
G1 X53.300 Y38.488
; perimeter_end
; perimeter_start
G1 F1800.000 E0.77151
G92 E0
G1 X56.225 Y30.788 F3600.000
G1 F1800.000 E4.50000
G1 X56.400 Y30.813 F900.000 E4.50574
G1 X56.400 Y48.738 E5.10200
G1 X55.988 Y48.838 E5.11586
G1 X55.988 Y31.875 E5.68008
G1 X56.188 Y30.988 E5.71009
G1 X56.363 Y30.900
G1 X56.588 Y28.225 F3600.000
G1 X56.338 Y30.575 F900.000 E5.78841
; perimeter_end
; perimeter_start
G1 F1800.000 E1.28841
G92 E0
G1 X54.713 Y35.588 F3600.000
G1 F1800.000 E4.50000
G1 X54.875 Y35.625 F900.000 E4.50524
G1 X54.875 Y49.138 E4.95494
G1 X54.462 Y49.275 E4.96912
G1 X54.462 Y36.200 E5.40403
G1 X54.638 Y35.775 E5.41922
G1 X54.825 Y35.700
G1 X55.050 Y34.288 F3600.000
G1 X54.875 Y35.288 F900.000 E5.45293
; perimeter_end
; perimeter_start
G1 F1800.000 E0.95293
G92 E0
G1 X53.350 Y50.800 F3600.000
G1 F1800.000 E4.50000
G1 X53.350 Y69.188 F900.000 E5.11141
G1 X52.938 Y69.013 E5.12604
G1 X52.938 Y50.975 E5.72607
G1 X53.163 Y50.875 E5.73406
G1 X53.038 Y51.538
G1 F1800.000 E1.23406
G92 E0
G1 X53.338 Y37.700 F3600.000
G1 F1800.000 E4.50000
G1 X53.350 Y38.063 F900.000 E4.51223
G1 F1800.000 E0.01223
G92 E0
G1 X66.662 Y37.737 F3600.000
G1 F1800.000 E4.50000
G1 X66.688 Y38.100 F900.000 E4.51208
G1 F1800.000 E0.01208
G92 E0
G1 X53.350 Y82.287 F3600.000
G1 F1800.000 E4.50000
G1 X53.325 Y81.925 F900.000 E4.51223
; perimeter_end
G1 F1800.000 E0.01223
G92 E0
; Layer: 3 Time: 213
G1 Z0.750 F3600.000
; Region: 0
; perimeter_start
G1 X57.913 Y48.088
G1 F1800.000 E4.50000
G1 X57.913 Y24.075 F900.000 E5.29869
G1 X58.725 Y18.363 E5.49059
G1 X58.838 Y17.100 E5.53261
G1 X59.400 Y16.925 E5.55190
G1 X60.150 Y16.875 E5.57702
G1 X61.150 Y17.088 E5.61111
G1 X61.500 Y20.363 E5.72096
G1 X62.100 Y24.225 E5.85076
G1 X62.100 Y48.100 E6.64475
G1 X60.763 Y47.950 E6.68922
G1 X58.813 Y47.975 E6.75434
G1 X58.113 Y48.063 E6.77759
G1 X57.512 Y48.538
G1 X57.512 Y24.038 E7.59225
G1 X58.325 Y18.313 E7.78475
G1 X58.463 Y16.800 E7.83538
G1 X59.325 Y16.538 E7.86513
G1 X60.163 Y16.475 E7.89334
G1 X61.063 Y16.625 E7.92339
G1 X61.525 Y16.788 E7.93979
G1 X61.900 Y20.313 E8.05770
G1 X62.500 Y24.188 E8.18821
G1 X62.500 Y48.538 E8.99806
G1 X60.750 Y48.350 E9.05656
G1 X58.838 Y48.375 E9.12015
G1 X57.713 Y48.513 E9.15771
G1 X57.888 Y47.825
; perimeter_end
; infill_start
G1 X58.350 Y47.725
G1 X58.213 Y47.588 F1200.000 E9.16494
G1 X58.213 Y46.975 E9.18734
G1 X58.913 Y47.675 E9.22346
G1 X59.525 Y47.663 E9.24558
G1 X58.213 Y46.350 E9.31298
G1 X58.213 Y45.738 E9.33539
G1 X60.138 Y47.663 E9.43406
G1 X60.750 Y47.650 E9.45618
G1 X58.213 Y45.125 E9.58614
G1 X58.213 Y44.500 E9.60854
G1 X61.438 Y47.725 E9.77385
G1 X61.800 Y47.475 E9.78995
G1 X58.213 Y43.888 E9.97399
G1 X58.213 Y43.263 E9.99640
G1 X61.800 Y46.850 E10.18043
G1 X61.800 Y46.238 E10.20284
G1 X58.213 Y42.650 E10.38687
G1 X58.213 Y42.038 E10.40928
G1 X61.800 Y45.625 E10.59331
G1 X61.800 Y45.000 E10.61572
G1 X58.213 Y41.413 E10.79976
G1 X58.213 Y40.800 E10.82216
G1 X61.800 Y44.388 E11.00620
G1 X61.800 Y43.763 E11.02860
G1 X58.213 Y40.188 E11.21264
G1 X58.213 Y39.563 E11.23505
G1 X61.800 Y43.150 E11.41908
G1 X61.800 Y42.538 E11.44149
G1 X58.213 Y38.950 E11.62552
G1 X58.213 Y38.325 E11.64793
G1 X61.800 Y41.913 E11.83196
G1 X61.800 Y41.300 E11.85437
G1 X58.213 Y37.713 E12.03841
G1 X58.213 Y37.100 E12.06081
G1 X61.800 Y40.675 E12.24485
G1 X61.800 Y40.063 E12.26725
G1 X58.213 Y36.475 E12.45129
G1 X58.213 Y35.863 E12.47369
G1 X61.800 Y39.450 E12.65773
G1 X61.800 Y38.825 E12.68014
G1 X58.213 Y35.238 E12.86417
G1 X58.213 Y34.625 E12.88658
G1 X61.800 Y38.213 E13.07061
G1 X61.800 Y37.588 E13.09302
G1 X58.213 Y34.013 E13.27705
G1 X58.213 Y33.388 E13.29946
G1 X61.800 Y36.975 E13.48350
G1 X61.800 Y36.363 E13.50590
G1 X58.213 Y32.775 E13.68994
G1 X58.213 Y32.163 E13.71234
G1 X61.800 Y35.738 E13.89638
G1 X61.800 Y35.125 E13.91879
G1 X58.213 Y31.538 E14.10282
G1 X58.213 Y30.925 E14.12523
G1 X61.800 Y34.513 E14.30926
G1 X61.800 Y33.888 E14.33167
G1 X58.213 Y30.300 E14.51570
G1 X58.213 Y29.688 E14.53811
G1 X61.800 Y33.275 E14.72215
G1 X61.800 Y32.650 E14.74455
G1 X58.213 Y29.075 E14.92859
G1 X58.213 Y28.450 E14.95099
G1 X61.800 Y32.038 E15.13503
G1 X61.800 Y31.425 E15.15743
G1 X58.213 Y27.838 E15.34147
G1 X58.213 Y27.213 E15.36388
G1 X61.800 Y30.800 E15.54791
G1 X61.800 Y30.188 E15.57032
G1 X58.213 Y26.600 E15.75435
G1 X58.213 Y25.988 E15.77676
G1 X61.800 Y29.563 E15.96079
G1 X61.800 Y28.950 E15.98320
G1 X58.213 Y25.363 E16.16724
G1 X58.213 Y24.750 E16.18964
G1 X61.800 Y28.338 E16.37368
G1 X61.800 Y27.713 E16.39608
G1 X58.213 Y24.138 E16.58012
G1 X58.288 Y23.588 E16.60010
G1 X61.800 Y27.100 E16.78047
G1 X61.800 Y26.488 E16.80288
G1 X58.363 Y23.050 E16.97932
G1 X58.438 Y22.500 E16.99914
G1 X61.800 Y25.863 E17.17165
G1 X61.800 Y25.250 E17.19406
G1 X58.513 Y21.963 E17.36265
G1 X58.588 Y21.425 E17.38247
G1 X61.800 Y24.625 E17.54713
G1 X61.763 Y23.975 E17.57112
G1 X58.663 Y20.888 E17.72968
G1 X58.750 Y20.338 E17.74950
G1 X61.650 Y23.238 E17.89839
G1 X61.538 Y22.513 E17.92517
G1 X58.825 Y19.800 E18.06439
G1 X58.900 Y19.263 E18.08421
G1 X61.425 Y21.788 E18.21375
G1 X61.313 Y21.050 E18.24053
G1 X58.975 Y18.713 E18.36040
G1 X59.038 Y18.163 E18.38053
G1 X61.200 Y20.325 E18.49144
G1 X61.125 Y19.638 E18.51668
G1 X59.088 Y17.600 E18.62113
G1 X59.363 Y17.250 E18.63713
G1 X61.050 Y18.950 E18.72413
G1 X60.975 Y18.250 E18.74936
G1 X59.913 Y17.188 E18.80394
G1 X60.600 Y17.250 E18.82871
G1 X60.900 Y17.563 E18.84461
; infill_end
; perimeter_start
G1 F1800.000 E14.34461
G92 E0
G1 X64.025 Y48.838 F3600.000
G1 F1800.000 E4.50000
G1 X63.612 Y48.750 F900.000 E4.51386
G1 X63.612 Y30.913 E5.10676
G1 X63.788 Y30.900 E5.11249
G1 X64.025 Y31.963 E5.14883
G1 X64.025 Y48.638 E5.70340
G1 X63.700 Y48.575
G1 F1800.000 E1.20340
G92 E0
G1 X63.675 Y30.725 F3600.000
G1 F1800.000 E4.50000
G1 X63.463 Y28.575 F900.000 E4.57189
; perimeter_end
; perimeter_start
G1 F1800.000 E0.07189
G92 E0
G1 X65.550 Y49.288 F3600.000
G1 F1800.000 E4.50000
G1 X65.138 Y49.150 F900.000 E4.51419
G1 X65.138 Y35.675 E4.96222
G1 X65.300 Y35.650 E4.96745
G1 X65.550 Y36.250 E4.98915
G1 X65.550 Y49.088 E5.41594
G1 X65.225 Y49.000
G1 F1800.000 E0.91594
G92 E0
G1 X65.138 Y35.288 F3600.000
G1 F1800.000 E4.50000
G1 X64.950 Y34.350 F900.000 E4.53168
; perimeter_end
; perimeter_start
G1 F1800.000 E0.03168
G92 E0
G1 X67.075 Y49.850 F3600.000
G1 F1800.000 E4.50000
G1 X66.662 Y49.688 F900.000 E4.51458
G1 X66.662 Y38.450 E4.88831
G1 X66.800 Y38.413 E4.89306
G1 X67.075 Y38.813 E4.90925
G1 X67.075 Y49.650 E5.26974
G1 X66.763 Y49.550
; perimeter_end
; perimeter_start
G1 F1800.000 E0.76974
G92 E0
G1 X68.600 Y50.550 F3600.000
G1 F1800.000 E4.50000
G1 X68.188 Y50.350 F900.000 E4.51499
G1 X68.188 Y40.200 E4.85250
G1 X68.600 Y40.663 E4.87276
G1 X68.600 Y50.350 E5.19506
G1 X68.288 Y50.213
; perimeter_end
; perimeter_start
G1 F1800.000 E0.69506
G92 E0
G1 X70.125 Y51.350 F3600.000
G1 F1800.000 E4.50000
G1 X69.713 Y51.125 F900.000 E4.51540
G1 X69.713 Y41.750 E4.82727
G1 X70.125 Y42.113 E4.84539
G1 X70.125 Y51.150 E5.14593
G1 X69.813 Y51.000
; perimeter_end
; perimeter_start
G1 F1800.000 E0.64593
G92 E0
G1 X71.650 Y52.238 F3600.000
G1 F1800.000 E4.50000
G1 X71.238 Y51.988 F900.000 E4.51577
G1 X71.238 Y43.013 E4.81447
G1 X71.650 Y43.313 E4.83132
G1 X71.650 Y52.038 E5.12144
G1 X71.350 Y51.863
; perimeter_end
; perimeter_start
G1 F1800.000 E0.62144
G92 E0
G1 X73.163 Y53.200 F3600.000
G1 F1800.000 E4.50000
G1 X72.763 Y52.938 F900.000 E4.51607
G1 X72.763 Y44.075 E4.81066
G1 X73.163 Y44.338 E4.82669
G1 X73.163 Y53.000 E5.11470
G1 X72.875 Y52.813
; perimeter_end
; perimeter_start
G1 F1800.000 E0.61470
G92 E0
G1 X76.475 Y47.663 F3600.000
G1 F1800.000 E4.50000
G1 X77.075 Y48.875 F900.000 E4.54504
G1 X78.975 Y54.075 E4.72925
G1 X79.038 Y54.375 E4.73947
G1 X79.000 Y54.638 E4.74792
G1 X78.713 Y55.063 E4.76515
G1 X77.388 Y55.600 E4.81258
G1 X76.212 Y54.775 E4.86053
G1 X76.212 Y47.750 E5.09410
G1 X76.288 Y47.725 E5.09679
G1 X76.925 Y47.600
G1 X77.450 Y48.725 E5.13816
G1 X79.363 Y53.975 E5.32401
G1 X79.438 Y54.363 E5.33739
G1 X79.388 Y54.750 E5.35018
G1 X79.213 Y55.125 E5.36393
G1 X78.963 Y55.388 E5.37591
G1 X78.613 Y55.575 E5.38930
G1 X77.338 Y56.038 E5.43456
G1 X75.813 Y54.975 E5.49636
G1 X75.813 Y46.175 E5.78891
G1 X76.213 Y46.588 E5.80775
G1 X76.813 Y47.438 E5.84222
G1 X76.500 Y48.275
; perimeter_end
; infill_start
G1 X76.438 Y48.013
G1 X76.713 Y49.263 F600.000 E5.87981
G1 X76.538 Y49.525 E5.88876
G1 F1800.000 E1.38876
G92 E0
G1 X76.225 Y47.313 F3600.000
G1 F1800.000 E4.50000
G1 X76.100 Y46.950 F600.000 E4.51060
G1 F1800.000 E0.01060
G92 E0
G1 X76.838 Y49.663 F3600.000
G1 F1800.000 E4.50000
G1 X77.175 Y50.000 F1200.000 E4.51753
G1 X76.513 Y49.963
G1 X77.538 Y50.988 E4.57050
G1 X77.888 Y51.963 F3600.000
G1 X76.513 Y50.588 F1200.000 E4.64193
G1 X76.513 Y51.213
G1 X78.250 Y52.938 E4.73182
G1 F1800.000 E0.23182
G92 E0
G1 X76.513 Y51.825 F3600.000
G1 F1800.000 E4.50000
G1 X78.600 Y53.925 F1200.000 E4.60835
G1 X78.675 Y54.625 E4.63408
G1 X76.513 Y52.450 E4.74637
G1 X76.513 Y53.075 E4.76916
G1 X78.363 Y54.925 E4.86484
G1 X77.900 Y55.088 E4.88252
G1 X76.513 Y53.700 E4.95481
G1 X76.513 Y54.325 E4.97760
G1 X77.450 Y55.263 E5.02626
; infill_end
; perimeter_start
G1 F1800.000 E0.52626
G92 E0
G1 X74.288 Y45.013 F3600.000
G1 F1800.000 E4.50000
G1 X74.688 Y45.250 F900.000 E4.51572
G1 X74.688 Y54.213 E4.81358
G1 X74.288 Y53.938 E4.82987
G1 X74.288 Y45.213 E5.12002
G1 X74.588 Y45.375
; perimeter_end
; perimeter_start
G1 F1800.000 E0.62002
G92 E0
G1 X78.975 Y57.000 F3600.000
G1 F1800.000 E4.50000
G1 X84.175 Y57.000 F900.000 E4.67303
G1 X84.362 Y57.063 E4.67929
G1 X84.362 Y62.925 E4.87458
G1 X84.175 Y62.987 E4.88084
G1 X78.975 Y62.987 E5.05386
G1 X78.975 Y57.200 E5.24637
G1 X78.575 Y56.600
G1 X84.238 Y56.600 E5.43481
G1 X84.575 Y56.713 E5.44637
G1 X84.763 Y56.963 E5.45683
G1 X84.763 Y63.025 E5.65854
G1 X84.575 Y63.275 E5.66899
G1 X84.238 Y63.388 E5.68056
G1 X78.575 Y63.388 E5.86900
G1 X78.575 Y56.800 E6.08811
G1 X79.275 Y57.000
; perimeter_end
; infill_start
G1 F1800.000 E1.58811
G92 E0
G1 X83.875 Y57.300 F3600.000
G1 F1800.000 E4.50000
G1 X84.063 Y57.475 F1200.000 E4.50929
G1 X84.063 Y58.088 E4.53142
G1 X83.263 Y57.300 E4.57202
G1 X82.650 Y57.300 E4.59415
G1 X84.063 Y58.700 E4.66604
G1 X84.063 Y59.325 E4.68817
G1 X82.038 Y57.300 E4.79137
G1 X81.425 Y57.300 E4.81350
G1 X84.063 Y59.938 E4.94799
G1 X84.063 Y60.550 E4.97012
G1 X80.813 Y57.300 E5.13592
G1 X80.200 Y57.300 E5.15805
G1 X84.063 Y61.163 E5.35514
G1 X84.063 Y61.775 E5.37728
G1 X79.588 Y57.300 E5.60567
G1 X79.275 Y57.600 E5.62132
G1 X84.063 Y62.388 E5.86554
G1 X83.750 Y62.688 E5.88119
G1 X79.275 Y58.213 E6.10942
G1 X79.275 Y58.825 E6.13155
G1 X83.138 Y62.688 E6.32850
G1 X82.525 Y62.688 E6.35062
G1 X79.275 Y59.438 E6.51629
G1 X79.275 Y60.050 E6.53842
G1 X81.913 Y62.688 E6.67282
G1 X81.300 Y62.688 E6.69493
G1 X79.275 Y60.663 E6.79805
G1 X79.275 Y61.288 E6.82018
G1 X80.688 Y62.688 E6.89202
G1 X80.075 Y62.688 E6.91413
G1 X79.275 Y61.900 E6.95469
G1 X79.275 Y62.513 E6.97682
G1 X79.450 Y62.688 E6.98610
; infill_end
; perimeter_start
G1 F1800.000 E2.48610
G92 E0
G1 X75.813 Y56.250 F3600.000
G1 F1800.000 E4.50000
G1 X76.425 Y56.675 F900.000 E4.52465
G1 X76.425 Y63.313 E4.74578
G1 X75.813 Y63.738 E4.77042
G1 X75.813 Y56.450 E5.01319
G1 X76.250 Y56.838
; perimeter_end
; infill_start
G1 X76.113 Y56.813
G1 X76.113 Y63.175 F600.000 E5.14474
; infill_end
; perimeter_start
G1 F1800.000 E0.64474
G92 E0
G1 X74.288 Y55.188 F3600.000
G1 F1800.000 E4.50000
G1 X74.688 Y55.463 F900.000 E4.51633
G1 X74.688 Y64.525 E4.81745
G1 X74.288 Y64.800 E4.83378
G1 X74.288 Y55.388 E5.14667
G1 X74.588 Y55.588
; perimeter_end
; perimeter_start
G1 F1800.000 E0.64667
G92 E0
G1 X72.763 Y54.175 F3600.000
G1 F1800.000 E4.50000
G1 X73.163 Y54.438 F900.000 E4.51613
G1 X73.163 Y65.550 E4.88575
G1 X72.763 Y65.813 E4.90188
G1 X72.763 Y54.375 E5.28253
G1 X73.063 Y54.550
; perimeter_end
; perimeter_start
G1 F1800.000 E0.78253
G92 E0
G1 X71.238 Y53.200 F3600.000
G1 F1800.000 E4.50000
G1 X71.650 Y53.450 F900.000 E4.51584
G1 X71.650 Y66.538 E4.95085
G1 X71.238 Y66.788 E4.96669
G1 X71.238 Y53.400 E5.41166
G1 X71.538 Y53.575
; perimeter_end
; perimeter_start
G1 F1800.000 E0.91166
G92 E0
G1 X69.713 Y52.313 F3600.000
G1 F1800.000 E4.50000
G1 X70.125 Y52.538 F900.000 E4.51548
G1 X70.125 Y67.450 E5.01142
G1 X69.713 Y67.675 E5.02689
G1 X69.713 Y52.513 E5.53136
G1 X70.013 Y52.663
; perimeter_end
; perimeter_start
G1 F1800.000 E1.03136
G92 E0
G1 X68.188 Y51.513 F3600.000
G1 F1800.000 E4.50000
G1 X68.600 Y51.713 F900.000 E4.51507
G1 X68.600 Y68.275 E5.06615
G1 X68.188 Y68.475 E5.08122
G1 X68.188 Y51.713 E5.63909
G1 X68.500 Y51.838
; perimeter_end
; perimeter_start
G1 F1800.000 E1.13909
G92 E0
G1 X66.662 Y50.813 F3600.000
G1 F1800.000 E4.50000
G1 X67.075 Y50.988 F900.000 E4.51464
G1 X67.075 Y69.000 E5.11394
G1 X66.662 Y69.175 E5.12859
G1 X66.662 Y51.013 E5.73264
G1 X66.975 Y51.125
; perimeter_end
; perimeter_start
G1 F1800.000 E1.23264
G92 E0
G1 X65.138 Y50.238 F3600.000
G1 F1800.000 E4.50000
G1 X65.550 Y50.375 F900.000 E4.51424
G1 X65.550 Y69.613 E5.15373
G1 X65.138 Y69.750 E5.16797
G1 X65.138 Y50.438 E5.80994
G1 X65.450 Y50.538
; perimeter_end
; perimeter_start
G1 X63.612 Y49.813 F3600.000
G1 X64.025 Y49.913 F900.000 E5.82382
G1 X64.025 Y70.075 E6.49456
G1 X63.612 Y70.175 E6.50845
G1 X63.612 Y50.013 E7.17916
G1 X63.938 Y50.075
; perimeter_end
; perimeter_start
G1 X62.100 Y49.938 F3600.000
G1 X62.100 Y70.050 F900.000 E7.84782
G1 X61.050 Y70.175 E7.88288
G1 X59.263 Y70.200 E7.94218
G1 X57.913 Y70.050 E7.98739
G1 X57.913 Y49.938 E8.65593
G1 X59.263 Y49.788 E8.70115
G1 X61.050 Y49.813 E8.76044
G1 X61.900 Y49.913 E8.78885
G1 X62.500 Y49.588
G1 X62.500 Y70.400 E9.48098
G1 X61.075 Y70.575 E9.52854
G1 X59.250 Y70.600 E9.58942
G1 X57.512 Y70.400 E9.64735
G1 X57.512 Y49.588 E10.33963
G1 X59.250 Y49.388 E10.39756
G1 X61.075 Y49.413 E10.45844
G1 X62.300 Y49.563 E10.49934
G1 X62.063 Y50.263
; perimeter_end
; infill_start
G1 X61.800 Y50.413
G1 X61.563 Y50.175 F1200.000 E10.51155
G1 X60.875 Y50.100 E10.53636
G1 X61.800 Y51.025 E10.58349
G1 X61.800 Y51.638 E10.60571
G1 X60.250 Y50.100 E10.68462
G1 X59.638 Y50.088 E10.70710
G1 X61.800 Y52.263 E10.81780
G1 X61.800 Y52.875 E10.84002
G1 X59.038 Y50.113 E10.98095
G1 X58.488 Y50.175 E11.00102
G1 X61.800 Y53.488 E11.17016
G1 X61.800 Y54.100 E11.19238
G1 X58.213 Y50.513 E11.37564
G1 X58.213 Y51.125 E11.39786
G1 X61.800 Y54.713 E11.58112
G1 X61.800 Y55.325 E11.60334
G1 X58.213 Y51.750 E11.78660
G1 X58.213 Y52.363 E11.80882
G1 X61.800 Y55.950 E11.99208
G1 X61.800 Y56.563 E12.01430
G1 X58.213 Y52.975 E12.19756
G1 X58.213 Y53.588 E12.21978
G1 X61.800 Y57.175 E12.40304
G1 X61.800 Y57.788 E12.42526
G1 X58.213 Y54.200 E12.60852
G1 X58.213 Y54.825 E12.63074
G1 X61.800 Y58.400 E12.81400
G1 X61.800 Y59.025 E12.83622
G1 X58.213 Y55.438 E13.01948
G1 X58.213 Y56.050 E13.04170
G1 X61.800 Y59.638 E13.22497
G1 X61.800 Y60.250 E13.24718
G1 X58.213 Y56.663 E13.43045
G1 X58.213 Y57.275 E13.45266
G1 X61.800 Y60.863 E13.63593
G1 X61.800 Y61.475 E13.65815
G1 X58.213 Y57.888 E13.84141
G1 X58.213 Y58.513 E13.86363
G1 X61.800 Y62.088 E14.04689
G1 X61.800 Y62.713 E14.06911
G1 X58.213 Y59.125 E14.25237
G1 X58.213 Y59.738 E14.27459
G1 X61.800 Y63.325 E14.45785
G1 X61.800 Y63.938 E14.48007
G1 X58.213 Y60.350 E14.66333
G1 X58.213 Y60.963 E14.68555
G1 X61.800 Y64.550 E14.86881
G1 X61.800 Y65.163 E14.89103
G1 X58.213 Y61.575 E15.07429
G1 X58.213 Y62.200 E15.09651
G1 X61.800 Y65.775 E15.27977
G1 X61.800 Y66.400 E15.30199
G1 X58.213 Y62.813 E15.48526
G1 X58.213 Y63.425 E15.50747
G1 X61.800 Y67.013 E15.69074
G1 X61.800 Y67.625 E15.71295
G1 X58.213 Y64.038 E15.89622
G1 X58.213 Y64.650 E15.91844
G1 X61.800 Y68.238 E16.10170
G1 X61.800 Y68.850 E16.12392
G1 X58.213 Y65.275 E16.30718
G1 X58.213 Y65.888 E16.32940
G1 X61.800 Y69.475 E16.51266
G1 X61.538 Y69.813 E16.52851
G1 X58.213 Y66.500 E16.69814
G1 X58.213 Y67.113 E16.72035
G1 X60.988 Y69.875 E16.86182
G1 X60.375 Y69.888 E16.88379
G1 X58.213 Y67.725 E16.99419
G1 X58.213 Y68.338 E17.01641
G1 X59.763 Y69.900 E17.09574
G1 X59.138 Y69.888 E17.11835
G1 X58.213 Y68.963 E17.16572
G1 X58.213 Y69.575 E17.18794
G1 X58.450 Y69.800 E17.19985
; infill_end
; perimeter_start
G1 F1800.000 E12.69985
G92 E0
G1 X56.400 Y70.188 F3600.000
G1 F1800.000 E4.50000
G1 X55.988 Y70.088 F900.000 E4.51388
G1 X55.988 Y49.900 E5.18505
G1 X56.400 Y49.800 E5.19894
G1 X56.400 Y69.988 E5.87005
G1 X56.075 Y69.925
; perimeter_end
; perimeter_start
G1 X54.875 Y69.750 F3600.000
G1 X54.462 Y69.613 F900.000 E5.88428
G1 X54.462 Y50.375 E6.52437
G1 X54.875 Y50.238 E6.53860
G1 X54.875 Y69.550 E7.18111
G1 X54.563 Y69.463
; perimeter_end
; perimeter_start
G1 F1800.000 E2.68111
G92 E0
G1 X51.825 Y68.488 F3600.000
G1 F1800.000 E4.50000
G1 X51.412 Y68.288 F900.000 E4.51506
G1 X51.412 Y51.700 E5.06700
G1 X51.825 Y51.500 E5.08206
G1 X51.825 Y68.288 E5.64075
G1 X51.513 Y68.163
; perimeter_end
; perimeter_start
G1 F1800.000 E1.14075
G92 E0
G1 X47.250 Y65.838 F3600.000
G1 F1800.000 E4.50000
G1 X46.850 Y65.563 F900.000 E4.51612
G1 X46.850 Y54.425 E4.88686
G1 X47.250 Y54.150 E4.90298
G1 X47.250 Y65.638 E5.28473
G1 X46.950 Y65.450
; perimeter_end
; perimeter_start
G1 F1800.000 E0.78473
G92 E0
G1 X41.012 Y62.988 F3600.000
G1 F1800.000 E4.50000
G1 X35.650 Y62.950 F900.000 E4.67821
G1 X35.600 Y62.775 E4.68443
G1 X35.625 Y57.063 E4.87459
G1 X35.813 Y57.000 E4.88089
G1 X41.012 Y57.000 E5.05391
G1 X41.012 Y62.788 E5.24630
G1 X41.413 Y63.388
G1 X35.550 Y63.350 E5.44101
G1 X35.300 Y63.163 E5.45149
G1 X35.200 Y62.838 E5.46303
G1 X35.225 Y56.963 E5.65846
G1 X35.413 Y56.713 E5.66894
G1 X35.750 Y56.600 E5.68051
G1 X41.413 Y56.600 E5.86895
G1 X41.413 Y63.188 E6.08802
G1 X40.725 Y62.988
; perimeter_end
; infill_start
G1 F1800.000 E1.58802
G92 E0
G1 X36.075 Y62.650 F3600.000
G1 F1800.000 E4.50000
G1 X35.888 Y62.463 F1200.000 E4.50930
G1 X35.900 Y61.863 E4.53126
G1 X36.688 Y62.650 E4.57187
G1 X37.313 Y62.663 E4.59414
G1 X35.900 Y61.250 E4.66605
G1 X35.900 Y60.638 E4.68802
G1 X37.925 Y62.663 E4.79124
G1 X38.550 Y62.663 E4.81351
G1 X35.913 Y60.025 E4.94804
G1 X35.913 Y59.425 E4.97001
G1 X39.163 Y62.675 E5.13585
G1 X39.788 Y62.675 E5.15812
G1 X35.913 Y58.813 E5.35527
G1 X35.913 Y58.200 E5.37724
G1 X40.400 Y62.688 E5.60569
G1 X40.713 Y62.388 E5.62132
G1 X35.925 Y57.588 E5.86555
G1 X36.250 Y57.300 E5.88119
G1 X40.713 Y61.775 E6.10901
G1 X40.713 Y61.163 E6.13110
G1 X36.863 Y57.300 E6.32769
G1 X37.475 Y57.300 E6.34977
G1 X40.713 Y60.538 E6.51513
G1 X40.713 Y59.925 E6.53723
G1 X38.088 Y57.300 E6.67136
G1 X38.700 Y57.300 E6.69344
G1 X40.713 Y59.313 E6.79636
G1 X40.713 Y58.700 E6.81845
G1 X39.313 Y57.300 E6.89014
G1 X39.925 Y57.300 E6.91222
G1 X40.713 Y58.088 E6.95269
G1 X40.713 Y57.475 E6.97478
G1 X40.538 Y57.300 E6.98403
; infill_end
; perimeter_start
G1 F1800.000 E2.48403
G92 E0
G1 X44.200 Y63.763 F3600.000
G1 F1800.000 E4.50000
G1 X43.563 Y63.313 F900.000 E4.52567
G1 X43.563 Y56.675 E4.74680
G1 X44.200 Y56.225 E4.77247
G1 X44.200 Y63.563 E5.01641
G1 X43.738 Y63.138
; perimeter_end
; infill_start
G1 X43.888 Y63.175
G1 X43.875 Y56.813 F600.000 E5.15827
; infill_end
; perimeter_start
G1 F1800.000 E0.65827
G92 E0
G1 X45.725 Y64.813 F3600.000
G1 F1800.000 E4.50000
G1 X45.325 Y64.538 F900.000 E4.51633
G1 X45.325 Y55.450 E4.81860
G1 X45.725 Y55.175 E4.83493
G1 X45.725 Y64.613 E5.14896
G1 X45.425 Y64.425
; perimeter_end
; perimeter_start
G1 F1800.000 E0.64896
G92 E0
G1 X43.538 Y72.363 F3600.000
G1 F1800.000 E4.50000
G1 X42.913 Y71.113 F900.000 E4.54647
G1 X41.013 Y65.913 E4.73068
G1 X40.950 Y65.613 E4.74091
G1 X40.988 Y65.350 E4.74954
G1 X41.100 Y65.113 E4.75818
G1 X41.275 Y64.925 E4.76682
G1 X42.600 Y64.388 E4.81425
G1 X43.800 Y65.238 E4.86321
G1 X43.800 Y72.275 E5.09739
G1 X43.725 Y72.300 E5.10009
G1 X43.063 Y72.388
G1 X42.538 Y71.263 E5.14146
G1 X40.625 Y66.013 E5.32730
G1 X40.550 Y65.625 E5.34069
G1 X40.600 Y65.238 E5.35354
G1 X40.763 Y64.888 E5.36639
G1 X41.025 Y64.600 E5.37925
G1 X41.375 Y64.413 E5.39264
G1 X42.650 Y63.950 E5.43790
G1 X44.200 Y65.025 E5.50071
G1 X44.200 Y73.825 E5.79347
G1 X43.775 Y73.400 E5.81346
G1 X43.175 Y72.550 E5.84793
G1 X43.488 Y71.713
; perimeter_end
; infill_start
G1 X43.588 Y72.025
G1 X43.313 Y70.763 F600.000 E5.88548
G1 X43.038 Y70.613 E5.89458
G1 X43.175 Y70.388
G1 X42.838 Y70.038 F1200.000 E5.91264
G1 X43.500 Y70.088
G1 X42.475 Y69.050 E5.96636
G1 X42.113 Y68.063 F3600.000
G1 X43.500 Y69.463 F1200.000 E6.03885
G1 X43.500 Y68.825
G1 X41.750 Y67.075 E6.13010
G1 X41.400 Y66.100 F3600.000
G1 X43.500 Y68.200 F1200.000 E6.24013
G1 X43.500 Y67.575 E6.26330
G1 X41.300 Y65.375 E6.37822
G1 X41.625 Y65.063 E6.39461
G1 X43.500 Y66.950 E6.49265
G1 X43.500 Y66.313 E6.51582
G1 X42.075 Y64.900 E6.59013
G1 X42.538 Y64.725 E6.60821
G1 X43.500 Y65.688 E6.65849
G1 F1800.000 E2.15849
G92 E0
G1 X43.788 Y72.700 F3600.000
G1 F1800.000 E4.50000
G1 X43.913 Y73.063 F600.000 E4.51055
; infill_end
; perimeter_start
G1 F1800.000 E0.01055
G92 E0
G1 X45.725 Y74.988 F3600.000
G1 F1800.000 E4.50000
G1 X45.325 Y74.750 F900.000 E4.51570
G1 X45.325 Y65.800 E4.81355
G1 X45.725 Y66.075 E4.82983
G1 X45.725 Y74.788 E5.11994
G1 X45.425 Y74.625
; perimeter_end
; perimeter_start
G1 F1800.000 E0.61994
G92 E0
G1 X47.250 Y75.925 F3600.000
G1 F1800.000 E4.50000
G1 X46.850 Y75.663 F900.000 E4.51604
G1 X46.850 Y66.813 E4.81068
G1 X47.250 Y67.075 E4.82674
G1 X47.250 Y75.725 E5.11469
G1 X46.950 Y75.550
; perimeter_end
; perimeter_start
G1 F1800.000 E0.61469
G92 E0
G1 X48.775 Y77.000 F3600.000
G1 F1800.000 E4.50000
G1 X48.362 Y76.688 F900.000 E4.51687
G1 X48.362 Y67.763 E4.81373
G1 X48.775 Y68.013 E4.82949
G1 X48.775 Y76.800 E5.12168
G1 X48.475 Y76.588
; perimeter_end
; perimeter_start
G1 F1800.000 E0.62168
G92 E0
G1 X50.300 Y78.263 F3600.000
G1 F1800.000 E4.50000
G1 X49.887 Y77.900 F900.000 E4.51815
G1 X49.887 Y68.650 E4.82560
G1 X50.300 Y68.875 E4.84099
G1 X50.300 Y78.063 E5.14652
G1 X50.013 Y77.800
; perimeter_end
; perimeter_start
G1 F1800.000 E0.64652
G92 E0
G1 X51.825 Y79.813 F3600.000
G1 F1800.000 E4.50000
G1 X51.412 Y79.350 F900.000 E4.52030
G1 X51.412 Y69.450 E4.84973
G1 X51.825 Y69.650 E4.86471
G1 X51.825 Y79.613 E5.19613
G1 X51.538 Y79.275
; perimeter_end
; perimeter_start
G1 F1800.000 E0.69613
G92 E0
G1 X54.713 Y84.400 F3600.000
G1 F1800.000 E4.50000
G1 X54.462 Y83.788 F900.000 E4.52184
G1 X54.462 Y70.713 E4.95675
G1 X54.875 Y70.850 E4.97093
G1 X54.875 Y84.325 E5.41922
G1 X54.550 Y83.763
G1 X55.038 Y85.500 F3600.000
G1 X54.825 Y84.650 F900.000 E5.44826
; perimeter_end
; perimeter_start
G1 F1800.000 E0.94826
G92 E0
G1 X56.225 Y89.200 F3600.000
G1 F1800.000 E4.50000
G1 X55.988 Y88.113 F900.000 E4.53667
G1 X55.988 Y71.150 E5.10089
G1 X56.400 Y71.250 E5.11474
G1 X56.400 Y89.150 E5.71009
G1 X56.113 Y88.400
G1 F1800.000 E1.21009
G92 E0
G1 X56.588 Y91.763 F3600.000
G1 F1800.000 E4.50000
G1 X56.338 Y89.413 F900.000 E4.57836
; perimeter_end
; perimeter_start
G1 F1800.000 E0.07836
G92 E0
G1 X57.913 Y71.900 F3600.000
G1 F1800.000 E4.50000
G1 X58.813 Y72.013 F900.000 E4.52991
G1 X60.763 Y72.038 E4.59503
G1 X62.100 Y71.888 E4.63950
G1 X62.100 Y95.763 E5.43348
G1 X61.500 Y99.625 E5.56328
G1 X61.150 Y102.900 E5.67314
G1 X60.150 Y103.113 E5.70722
G1 X59.400 Y103.063 E5.73235
G1 X58.838 Y102.888 E5.75164
G1 X58.725 Y101.625 E5.79365
G1 X57.913 Y95.913 E5.98555
G1 X57.913 Y72.100 E6.77759
G1 X57.512 Y71.450
G1 X58.838 Y71.613 E6.82180
G1 X60.750 Y71.638 E6.88539
G1 X62.500 Y71.450 E6.94389
G1 X62.500 Y95.800 E7.75374
G1 X61.900 Y99.675 E7.88425
G1 X61.525 Y103.200 E8.00216
G1 X61.063 Y103.363 E8.01856
G1 X60.163 Y103.513 E8.04861
G1 X59.325 Y103.450 E8.07682
G1 X58.463 Y103.188 E8.10657
G1 X58.325 Y101.675 E8.15720
G1 X57.512 Y95.950 E8.34971
G1 X57.512 Y71.650 E9.15771
G1 X58.175 Y71.913
; perimeter_end
; infill_start
G1 F1800.000 E4.65771
G92 E0
G1 X61.800 Y72.388 F3600.000
G1 F1800.000 E4.50000
G1 X61.650 Y72.238 F1200.000 E4.50743
G1 X61.100 Y72.300 E4.52772
G1 X61.800 Y73.000 E4.56368
G1 X61.800 Y73.625 E4.58607
G1 X60.513 Y72.338 E4.65209
G1 X59.888 Y72.325 E4.67478
G1 X61.800 Y74.238 E4.77288
G1 X61.800 Y74.850 E4.79528
G1 X59.263 Y72.313 E4.92547
G1 X58.613 Y72.288 E4.94886
G1 X61.800 Y75.475 E5.11211
G1 X61.800 Y76.088 E5.13450
G1 X58.213 Y72.500 E5.31848
G1 X58.213 Y73.125 E5.34088
G1 X61.800 Y76.700 E5.52486
G1 X61.800 Y77.325 E5.54725
G1 X58.213 Y73.738 E5.73124
G1 X58.213 Y74.350 E5.75363
G1 X61.800 Y77.938 E5.93761
G1 X61.800 Y78.550 E5.96000
G1 X58.213 Y74.975 E6.14399
G1 X58.213 Y75.588 E6.16638
G1 X61.800 Y79.175 E6.35036
G1 X61.800 Y79.788 E6.37275
G1 X58.213 Y76.200 E6.55674
G1 X58.213 Y76.825 E6.57913
G1 X61.800 Y80.413 E6.76311
G1 X61.800 Y81.025 E6.78550
G1 X58.213 Y77.438 E6.96949
G1 X58.213 Y78.063 E6.99188
G1 X61.800 Y81.638 E7.17586
G1 X61.800 Y82.263 E7.19826
G1 X58.213 Y78.675 E7.38224
G1 X58.213 Y79.288 E7.40463
G1 X61.800 Y82.875 E7.58861
G1 X61.800 Y83.488 E7.61101
G1 X58.213 Y79.913 E7.79499
G1 X58.213 Y80.525 E7.81738
G1 X61.800 Y84.113 E8.00136
G1 X61.800 Y84.725 E8.02376
G1 X58.213 Y81.138 E8.20774
G1 X58.213 Y81.763 E8.23013
G1 X61.800 Y85.350 E8.41411
G1 X61.800 Y85.963 E8.43651
G1 X58.213 Y82.375 E8.62049
G1 X58.213 Y82.988 E8.64288
G1 X61.800 Y86.575 E8.82686
G1 X61.800 Y87.200 E8.84926
G1 X58.213 Y83.613 E9.03324
G1 X58.213 Y84.225 E9.05563
G1 X61.800 Y87.813 E9.23961
G1 X61.800 Y88.425 E9.26201
G1 X58.213 Y84.850 E9.44599
G1 X58.213 Y85.463 E9.46838
G1 X61.800 Y89.050 E9.65237
G1 X61.800 Y89.663 E9.67476
G1 X58.213 Y86.075 E9.85874
G1 X58.213 Y86.700 E9.88113
G1 X61.800 Y90.288 E10.06512
G1 X61.800 Y90.900 E10.08751
G1 X58.213 Y87.313 E10.27149
G1 X58.213 Y87.925 E10.29388
G1 X61.800 Y91.513 E10.47787
G1 X61.800 Y92.138 E10.50026
G1 X58.213 Y88.550 E10.68424
G1 X58.213 Y89.163 E10.70663
G1 X61.800 Y92.750 E10.89062
G1 X61.800 Y93.363 E10.91301
G1 X58.213 Y89.788 E11.09699
G1 X58.213 Y90.400 E11.11939
G1 X61.800 Y93.988 E11.30337
G1 X61.800 Y94.600 E11.32576
G1 X58.213 Y91.013 E11.50974
G1 X58.213 Y91.638 E11.53214
G1 X61.800 Y95.225 E11.71612
G1 X61.788 Y95.825 E11.73806
G1 X58.213 Y92.250 E11.92140
G1 X58.213 Y92.863 E11.94379
G1 X61.700 Y96.363 E12.12292
G1 X61.625 Y96.888 E12.14256
G1 X58.213 Y93.488 E12.31747
G1 X58.213 Y94.100 E12.33986
G1 X61.538 Y97.425 E12.51055
G1 X61.463 Y97.963 E12.53019
G1 X58.213 Y94.725 E12.69668
G1 X58.213 Y95.338 E12.71907
G1 X61.375 Y98.500 E12.88134
G1 X61.288 Y99.038 E12.90098
G1 X58.225 Y95.963 E13.05855
G1 X58.325 Y96.688 E13.08489
G1 X61.213 Y99.563 E13.23304
G1 X61.150 Y100.125 E13.25336
G1 X58.425 Y97.400 E13.39318
G1 X58.525 Y98.125 E13.41953
G1 X61.088 Y100.688 E13.55107
G1 X61.038 Y101.238 E13.57141
G1 X58.625 Y98.838 E13.69467
G1 X58.738 Y99.563 E13.72102
G1 X60.975 Y101.800 E13.83599
G1 X60.913 Y102.350 E13.85634
G1 X58.838 Y100.275 E13.96303
G1 X58.938 Y101.000 E13.98937
G1 X60.663 Y102.713 E14.07774
G1 X60.138 Y102.813 E14.09702
G1 X59.025 Y101.713 E14.15367
G1 X59.088 Y102.388 E14.17842
G1 X59.475 Y102.763 E14.19790
; infill_end
; perimeter_start
G1 F1800.000 E9.69790
G92 E0
G1 X64.025 Y71.150 F3600.000
G1 F1800.000 E4.50000
G1 X64.025 Y88.025 F900.000 E5.06122
G1 X63.788 Y89.088 E5.09756
G1 X63.612 Y89.075 E5.10329
G1 X63.612 Y71.238 E5.69619
G1 X63.825 Y71.188 E5.70340
G1 X63.675 Y71.875
G1 F1800.000 E1.20340
G92 E0
G1 X63.675 Y89.263 F3600.000
G1 F1800.000 E4.50000
G1 X63.463 Y91.413 F900.000 E4.57184
; perimeter_end
; perimeter_start
G1 F1800.000 E0.07184
G92 E0
G1 X65.550 Y70.700 F3600.000
G1 F1800.000 E4.50000
G1 X65.550 Y83.738 F900.000 E4.93344
G1 X65.300 Y84.338 E4.95513
G1 X65.138 Y84.313 E4.96037
G1 X65.138 Y70.838 E5.40840
G1 X65.350 Y70.763 E5.41593
G1 X65.225 Y71.438
G1 F1800.000 E0.91593
G92 E0
G1 X65.138 Y84.713 F3600.000
G1 F1800.000 E4.50000
G1 X64.950 Y85.638 F900.000 E4.53162
; perimeter_end
; perimeter_start
G1 F1800.000 E0.03162
G92 E0
G1 X67.075 Y70.138 F3600.000
G1 F1800.000 E4.50000
G1 X67.075 Y81.175 F900.000 E4.86714
G1 X66.800 Y81.575 E4.88333
G1 X66.662 Y81.538 E4.88808
G1 X66.662 Y70.300 E5.26181
G1 X66.888 Y70.213 E5.26974
G1 X66.763 Y70.875
G1 F1800.000 E0.76974
G92 E0
G1 X66.662 Y81.888 F3600.000
G1 F1800.000 E4.50000
G1 X66.675 Y82.250 F900.000 E4.51207
; perimeter_end
; perimeter_start
G1 F1800.000 E0.01207
G92 E0
G1 X68.600 Y69.438 F3600.000
G1 F1800.000 E4.50000
G1 X68.600 Y79.325 F900.000 E4.82895
G1 X68.188 Y79.788 E4.84920
G1 X68.188 Y69.638 E5.18672
G1 X68.413 Y69.525 E5.19506
G1 X68.300 Y70.188
; perimeter_end
; perimeter_start
G1 F1800.000 E0.69506
G92 E0
G1 X70.125 Y68.638 F3600.000
G1 F1800.000 E4.50000
G1 X70.125 Y77.875 F900.000 E4.80720
G1 X69.713 Y78.238 E4.82532
G1 X69.713 Y68.863 E5.13719
G1 X69.950 Y68.738 E5.14593
G1 X69.838 Y69.388
; perimeter_end
; perimeter_start
G1 F1800.000 E0.64593
G92 E0
G1 X71.650 Y67.750 F3600.000
G1 F1800.000 E4.50000
G1 X71.650 Y76.675 F900.000 E4.79677
G1 X71.238 Y76.975 E4.81362
G1 X71.238 Y68.000 E5.11232
G1 X71.475 Y67.850 E5.12144
G1 X71.375 Y68.500
; perimeter_end
; perimeter_start
G1 F1800.000 E0.62144
G92 E0
G1 X73.163 Y66.788 F3600.000
G1 F1800.000 E4.50000
G1 X73.163 Y75.650 F900.000 E4.79466
G1 X72.763 Y75.913 E4.81069
G1 X72.763 Y67.050 E5.10528
G1 X73.000 Y66.900 E5.11470
G1 X72.913 Y67.550
; perimeter_end
; perimeter_start
G1 F1800.000 E0.61470
G92 E0
G1 X76.475 Y72.325 F3600.000
G1 F1800.000 E4.50000
G1 X76.212 Y72.238 F900.000 E4.50935
G1 X76.212 Y65.213 E4.74292
G1 X77.388 Y64.388 E4.79087
G1 X78.713 Y64.925 E4.83829
G1 X78.888 Y65.113 E4.84693
G1 X79.000 Y65.350 E4.85557
G1 X79.038 Y65.613 E4.86421
G1 X78.975 Y65.913 E4.87443
G1 X77.075 Y71.113 E5.05864
G1 X76.588 Y72.163 E5.09710
G1 X76.925 Y72.388
G1 X76.213 Y73.400 E5.13822
G1 X75.813 Y73.813 E5.15707
G1 X75.813 Y65.013 E5.44962
G1 X77.338 Y63.950 E5.51142
G1 X78.613 Y64.413 E5.55668
G1 X78.963 Y64.600 E5.57007
G1 X79.225 Y64.888 E5.58292
G1 X79.388 Y65.238 E5.59578
G1 X79.438 Y65.625 E5.60863
G1 X79.363 Y66.013 E5.62201
G1 X77.450 Y71.263 E5.80786
G1 X77.013 Y72.213 E5.84257
G1 X76.125 Y72.363
; perimeter_end
; infill_start
G1 X76.438 Y71.975
G1 X76.713 Y70.725 F600.000 E5.87980
G1 X76.538 Y70.425 E5.88992
G1 X76.825 Y70.313
G1 X76.513 Y70.013 F1200.000 E5.90674
G1 X76.513 Y69.350 E5.93175
G1 X77.163 Y70.013 E5.96733
G1 X77.338 Y69.538 E5.98684
G1 X76.513 Y68.700 E6.03186
G1 X76.513 Y68.050 E6.05687
G1 X77.513 Y69.050 E6.11133
G1 X77.688 Y68.575 E6.13084
G1 X76.513 Y67.400 E6.19474
G1 X76.513 Y66.750 E6.21975
G1 X77.863 Y68.100 E6.29309
G1 X78.038 Y67.625 E6.31260
G1 X76.513 Y66.100 E6.39539
G1 X76.513 Y65.438 E6.42040
G1 X78.213 Y67.138 E6.51263
G1 X78.388 Y66.663 E6.53214
G1 X76.850 Y65.138 E6.61520
G1 X77.238 Y64.863 E6.63316
G1 X78.563 Y66.188 E6.70486
G1 X78.713 Y65.688 E6.72478
G1 X77.925 Y64.900 E6.76763
G1 F1800.000 E2.26763
G92 E0
G1 X76.200 Y72.638 F3600.000
G1 F1800.000 E4.50000
G1 X76.138 Y73.013 F600.000 E4.51051
; infill_end
; perimeter_start
G1 F1800.000 E0.01051
G92 E0
G1 X74.288 Y74.975 F3600.000
G1 F1800.000 E4.50000
G1 X74.288 Y66.050 F900.000 E4.79681
G1 X74.688 Y65.775 E4.81309
G1 X74.688 Y74.738 E5.11095
G1 X74.463 Y74.875 E5.12002
G1 X74.563 Y74.225
; perimeter_end
; perimeter_start
G1 F1800.000 E0.62002
G92 E0
G1 X52.938 Y70.138 F3600.000
G1 F1800.000 E4.50000
G1 X53.350 Y70.313 F900.000 E4.51457
G1 X53.350 Y81.575 E4.88921
G1 X53.213 Y81.613 E4.89397
G1 X52.938 Y81.200 E4.91021
G1 X52.938 Y70.338 E5.27151
G1 X53.250 Y70.450
; perimeter_end
; perimeter_start
G1 F1800.000 E0.77151
G92 E0
G1 X50.300 Y67.688 F3600.000
G1 F1800.000 E4.50000
G1 X49.887 Y67.463 F900.000 E4.51547
G1 X49.887 Y52.525 E5.01237
G1 X50.300 Y52.300 E5.02784
G1 X50.300 Y67.488 E5.53324
G1 X50.000 Y67.338
; perimeter_end
; perimeter_start
G1 X48.775 Y66.800 F3600.000
G1 X48.362 Y66.550 F900.000 E5.54908
G1 X48.362 Y53.438 E5.98513
G1 X48.775 Y53.188 E6.00097
G1 X48.775 Y66.600 E6.44697
G1 X48.475 Y66.425
; perimeter_end
; perimeter_start
G1 F1800.000 E1.94697
G92 E0
G1 X43.538 Y47.625 F3600.000
G1 F1800.000 E4.50000
G1 X43.800 Y47.713 F900.000 E4.50935
G1 X43.800 Y54.750 E4.74353
G1 X42.600 Y55.600 E4.79250
G1 X41.275 Y55.063 E4.83992
G1 X41.100 Y54.875 E4.84856
G1 X40.988 Y54.638 E4.85720
G1 X40.950 Y54.375 E4.86583
G1 X41.013 Y54.075 E4.87606
G1 X42.913 Y48.875 E5.06027
G1 X43.413 Y47.788 E5.10018
G1 X43.063 Y47.600
G1 X43.775 Y46.588 E5.14129
G1 X44.200 Y46.163 E5.16129
G1 X44.200 Y54.963 E5.45404
G1 X42.650 Y56.038 E5.51686
G1 X41.375 Y55.575 E5.56212
G1 X41.025 Y55.388 E5.57551
G1 X40.763 Y55.100 E5.58836
G1 X40.600 Y54.750 E5.60122
G1 X40.550 Y54.363 E5.61407
G1 X40.625 Y53.975 E5.62745
G1 X42.538 Y48.725 E5.81330
G1 X42.975 Y47.775 E5.84801
G1 X43.863 Y47.625
; perimeter_end
; infill_start
G1 X43.738 Y47.288
G1 X43.925 Y46.925 F600.000 E5.85934
G1 X43.563 Y48.163 F3600.000
G1 X43.300 Y49.225 F600.000 E5.89362
G1 X43.038 Y49.375 E5.90333
G1 X43.188 Y49.600
G1 X43.500 Y49.925 F1200.000 E5.92088
G1 X43.500 Y50.575 E5.94650
G1 X42.838 Y49.925 E5.98273
G1 X42.663 Y50.400 E6.00272
G1 X43.500 Y51.238 E6.04863
G1 X43.500 Y51.900 E6.07424
G1 X42.488 Y50.888 E6.12982
G1 X42.313 Y51.375 E6.14980
G1 X43.500 Y52.563 E6.21505
G1 X43.500 Y53.225 E6.24067
G1 X42.138 Y51.850 E6.31559
G1 X41.963 Y52.338 E6.33557
G1 X43.500 Y53.875 E6.42016
G1 X43.500 Y54.538 E6.44578
G1 X41.788 Y52.825 E6.54004
G1 X41.613 Y53.300 E6.56002
G1 X43.150 Y54.850 E6.64451
G1 X42.763 Y55.113 E6.66290
G1 X41.438 Y53.788 E6.73575
G1 X41.275 Y54.288 E6.75613
G1 X42.075 Y55.088 E6.80010
; infill_end
; perimeter_start
G1 F1800.000 E2.30010
G92 E0
G1 X45.725 Y45.000 F3600.000
G1 F1800.000 E4.50000
G1 X45.725 Y53.913 F900.000 E4.79676
G1 X45.325 Y54.188 E4.81304
G1 X45.325 Y45.238 E5.11089
G1 X45.550 Y45.100 E5.11994
G1 X45.450 Y45.750
; perimeter_end
; perimeter_start
G1 F1800.000 E0.61994
G92 E0
G1 X47.250 Y44.063 F3600.000
G1 F1800.000 E4.50000
G1 X47.250 Y52.913 F900.000 E4.79460
G1 X46.850 Y53.175 E4.81066
G1 X46.850 Y44.325 E5.10530
G1 X47.088 Y44.163 E5.11469
G1 X46.988 Y44.813
; perimeter_end
; perimeter_start
G1 F1800.000 E0.61469
G92 E0
G1 X48.775 Y42.988 F3600.000
G1 F1800.000 E4.50000
G1 X48.775 Y51.975 F900.000 E4.79884
G1 X48.362 Y52.225 E4.81460
G1 X48.362 Y43.300 E5.11147
G1 X48.613 Y43.113 E5.12168
G1 X48.525 Y43.750
; perimeter_end
; perimeter_start
G1 F1800.000 E0.62168
G92 E0
G1 X50.300 Y41.725 F3600.000
G1 F1800.000 E4.50000
G1 X50.300 Y51.113 F900.000 E4.81218
G1 X49.887 Y51.338 E4.82757
G1 X49.887 Y42.088 E5.13502
G1 X50.150 Y41.863 E5.14652
G1 X50.075 Y42.488
; perimeter_end
; perimeter_start
G1 F1800.000 E0.64652
G92 E0
G1 X51.825 Y40.175 F3600.000
G1 F1800.000 E4.50000
G1 X51.825 Y50.338 F900.000 E4.83807
G1 X51.412 Y50.538 E4.85306
G1 X51.412 Y40.638 E5.18248
G1 X51.688 Y40.325 E5.19613
G1 X51.638 Y40.950
; perimeter_end
; perimeter_start
G1 F1800.000 E0.69613
G92 E0
G1 X53.213 Y38.375 F3600.000
G1 F1800.000 E4.50000
G1 X53.350 Y38.413 F900.000 E4.50475
G1 X53.350 Y49.675 E4.87940
G1 X52.938 Y49.850 E4.89397
G1 X52.938 Y38.788 E5.26192
G1 X53.100 Y38.538 E5.27151
G1 X53.300 Y38.488
; perimeter_end
; perimeter_start
G1 F1800.000 E0.77151
G92 E0
G1 X56.225 Y30.788 F3600.000
G1 F1800.000 E4.50000
G1 X56.400 Y30.813 F900.000 E4.50574
G1 X56.400 Y48.738 E5.10200
G1 X55.988 Y48.838 E5.11586
G1 X55.988 Y31.875 E5.68008
G1 X56.188 Y30.988 E5.71009
G1 X56.363 Y30.900
G1 F1800.000 E1.21009
G92 E0
G1 X56.588 Y28.225 F3600.000
G1 F1800.000 E4.50000
G1 X56.338 Y30.575 F900.000 E4.57832
; perimeter_end
; perimeter_start
G1 F1800.000 E0.07832
G92 E0
G1 X54.713 Y35.588 F3600.000
G1 F1800.000 E4.50000
G1 X54.875 Y35.625 F900.000 E4.50524
G1 X54.875 Y49.138 E4.95494
G1 X54.462 Y49.275 E4.96912
G1 X54.462 Y36.200 E5.40403
G1 X54.638 Y35.775 E5.41922
G1 X54.825 Y35.700
G1 X55.050 Y34.288 F3600.000
G1 X54.875 Y35.288 F900.000 E5.45293
; perimeter_end
; perimeter_start
G1 F1800.000 E0.95293
G92 E0
G1 X53.350 Y50.800 F3600.000
G1 F1800.000 E4.50000
G1 X53.350 Y69.188 F900.000 E5.11141
G1 X52.938 Y69.013 E5.12604
G1 X52.938 Y50.975 E5.72607
G1 X53.163 Y50.875 E5.73406
G1 X53.038 Y51.538
G1 F1800.000 E1.23406
G92 E0
G1 X53.338 Y37.700 F3600.000
G1 F1800.000 E4.50000
G1 X53.350 Y38.063 F900.000 E4.51223
G1 F1800.000 E0.01223
G92 E0
G1 X66.662 Y37.737 F3600.000
G1 F1800.000 E4.50000
G1 X66.688 Y38.100 F900.000 E4.51208
G1 F1800.000 E0.01208
G92 E0
G1 X53.350 Y82.287 F3600.000
G1 F1800.000 E4.50000
G1 X53.325 Y81.925 F900.000 E4.51223
; perimeter_end
G1 F1800.000 E0.01223
G92 E0
M84     ; disable motors

;START_GUID
; yR+yPIk83JIr0YOHRNmgUaH/eXj4FmOs0hfk8si4Nk8U4+al4MSshoTIVbRaDmDDKUzOO1mFycP2CyDKTutWN0giH/pN6yMqqIbCsyONZIKGaxZX7DBpxRZLNI3Af0fdBgtFN/Ew1t20ltLgjTWunJY+W+bfudgsGKfEQKOCMVanJxhQTGYF4jWpuAsBD0jvyfzPdbIBMd3gN7ly54YwPRFVqb7EvB2LxdmBkzA+ZNZodutIyxEyiP1RixEr69Jcwsm3luhLxR/iWihCmwVohPhOEnVdDUk6GM9aoUvfSkhhz2RSUv9wI/CUDqsMxmrZm60DDNycDcoWzKzBeXbZuaTyfHIa8oc8VQp6mcigfDOrcaQy8nJRgm10B5/yFqQUbk60FxNHJdJYrfJYsuLYhRabqR5ODRxabh+WjcJCkpNuTrQXE0cl0lit8liy4tiFl/FkIbIGpwRmVIOdiC/KUpl9b+CaAcGqHMMAgxtbw5GOUwu943Udx5FMk73889Bmw4sKvO5B3dDTk2cPLAqZOuKviQtL5xWjoEtHaafzJns+47xcDZLUkE1YBaQJBB9thmsWV+wwacUWSzSNwH9H3WcTthjqgn/qT1MXybv8fbyJc+Oh8e+5ofse3+PXcVRJqFvxExOw3MDzeQ9+IrWWLYHTpuwejI3X0KTWy5q+NZAr0myHJX28jFGs4seI9uTEj0kaUkNut7DrebnCMYJG/zK/As4PlxFAZjS1yuGJx8HQCw4Z3xdOC+dCqGDX889tpeXNehV4pxPV0sSimXZhc+lrSWZ7uau7t+iCMefCutyGaxZX7DBpxRZLNI3Af0fdxkzsZ8PIK4BAmytR5Ny9CA==
;END