; filename = 1.3w
; print_time = 5935
; machine = dv1NW0A000
; facets = 7060
; total_layers = 13
; version = 20100610
; total_filament = 3727.03
; nozzle_diameter = 0.40
; nozzle_type = 57
; first_layer_height = 0.35
; layer_height = 0.20
; avoid_crossing_perimeters = 0
; bridge_detect = 0
; bridge_flow_ratio = 0.90
; support_material = 0
; extruder_filament = 3727.03:0.00
; extruder = 1
; temperature = 210
; bed_temperature = 0
; non_double_speed = 1
; preheating_time = 0,0,0
; filamentid = 50,50
; materialid = 0
; fill_density = 0.10
; infill_expand = 0.000
; raft_layers = 0
; shells = 2
; speed = 20.000
; brim_width = 0.000
; dimension = 90.00:90.00:2.75
; original_dimension = 90.00:90.00:2.65
; boundingbox_x1 = 15.00
; boundingbox_y1 = 15.00
; boundingbox_x2 = 105.00
; boundingbox_y2 = 105.00
; resolution = 0.0400
; top_solid_layers = 5
; bottom_solid_layers = 3
; fill_pattern = rectilinear
; perimeter_speed = 15.000
; external_perimeter_speed = 15.000
; small_perimeter_speed = 15.000
; top_solid_infill_speed = 20.000
; solid_infill_speed = 20.000
; bridge_speed = 10.000
; travel_speed = 60.000
; retract_speed = 30
; retract_length = 4.500
; retract_before_travel = 2.000
; retract_lift = 0.000
; retract_restart_extra = 0.000
; retract_layer_change = 1
; only_retract_when_crossing_perimeters = 1
; first_layer_speed = 10.000
; extrusion_multiplier_perimeter = 1.000
; extrusion_multiplier_infill = 1.000
; extrusion_multiplier_gapfill = 1.000
; extrusion_multiplier_solid_infill = 1.000
; extrusion_multiplier_top_infill = 1.000
; Call_From_APP = XYZprint V2.0.5_2A14512
; speed_limit_open = 0

; infill_type = 0
; Seam_Corner_Preference = 0
G21 ; set units to millimeters
M107
M104 S210 ; set temperature
M109 S210 ; wait for temperature to be reached
M191
G90 ; use absolute coordinates
G92 E0
M82 ; use absolute distances for extrusion
G1 F1800.000 E-4.50000
G92 E0
; Layer: 1 Time: 725
G1 Z0.350 F3600.000
; skirt start
G1 X3.000 Y1.000
G1 F1800.000 E4.50000
G1 X5.000 Y1.000 F600.000 E4.96245
G1 X5.000 Y101.000 E28.08519
G1 X3.000 Y101.000 E28.54765
G1 X3.000 Y1.788 E51.48667
; skirt end
; Region: 0
; perimeter_start
G1 F1800.000 E46.98667
G92 E0
G1 X40.475 Y36.550 F3600.000
G1 F1800.000 E4.50000
G1 X40.575 Y36.100 F600.000 E4.54242
G1 X40.200 Y35.900 E4.58158
G1 X39.625 Y35.213 E4.66479
G1 X39.388 Y34.413 E4.74208
G1 X39.450 Y33.613 E4.81593
G1 X39.725 Y32.975 E4.87993
G1 X40.363 Y32.325 E4.96467
G1 X41.050 Y32.025 E5.03356
G1 X85.825 Y28.575 E9.18749
G1 X86.350 Y28.613 E9.23590
G1 X87.013 Y28.863 E9.30161
G1 X87.475 Y29.225 E9.35641
G1 X87.888 Y29.775 E9.41955
G1 X92.863 Y48.763 E11.23489
G1 X92.775 Y49.500 E11.30372
G1 X89.988 Y55.263 E11.89520
G1 X90.875 Y54.875 E11.98422
G1 X91.625 Y54.813 E12.05453
G1 X92.363 Y55.025 E12.12485
G1 X93.000 Y55.475 E12.19714
G1 X93.475 Y56.238 E12.28015
G1 X93.613 Y56.913 E12.34362
G1 X93.550 Y57.538 E12.40187
G1 X74.288 Y97.800 E16.52966
G1 X73.913 Y98.338 E16.59067
G1 X73.138 Y98.850 E16.67677
G1 X72.200 Y98.988 E16.76425
G1 X52.963 Y93.838 E18.60663
G1 X52.188 Y93.263 E18.69616
G1 X49.388 Y89.038 E19.16524
G1 X49.013 Y90.275 E19.28540
G1 X48.500 Y90.988 E19.36664
G1 X47.725 Y91.450 E19.45099
G1 X46.825 Y91.563 E19.53461
G1 X45.963 Y91.313 E19.61754
G1 X45.325 Y90.775 E19.69461
G1 X20.063 Y52.625 E23.92645
G1 X19.863 Y51.725 E24.01200
G1 X20.063 Y50.825 E24.09674
G1 X20.388 Y50.313 E24.15269
G1 X33.788 Y37.350 E25.87687
G1 X34.563 Y37.000 E25.95535
G1 X40.163 Y36.575 E26.47521
G1 F1800.000 E21.97521
G92 E0
G1 X36.538 Y40.625 F3600.000
G1 F1800.000 E4.50000
G1 X36.125 Y40.900 F600.000 E4.54556
G1 X32.813 Y46.863 E5.17724
G1 X32.750 Y47.225 E5.21058
G1 X32.838 Y47.613 E5.24730
G1 X33.088 Y47.925 E5.28422
G1 X47.375 Y55.838 E6.79511
G1 X47.638 Y56.088 E6.82886
G1 X47.938 Y56.675 E6.88957
G1 X47.988 Y57.100 E6.92931
G1 X47.725 Y59.013 E7.10804
G1 X47.700 Y60.075 E7.20578
G1 X47.763 Y61.125 E7.30386
G1 X47.913 Y62.175 E7.40194
G1 X48.163 Y63.213 E7.50002
G1 X48.488 Y64.213 E7.59810
G1 X48.913 Y65.188 E7.69618
G1 X49.413 Y66.125 E7.79426
G1 X50.000 Y67.013 E7.89234
G1 X50.650 Y67.850 E7.99042
G1 X51.375 Y68.613 E8.08850
G1 X52.175 Y69.325 E8.18658
G1 X53.025 Y69.963 E8.28466
G1 X53.925 Y70.513 E8.38274
G1 X54.863 Y71.000 E8.48068
G1 X56.163 Y71.500 E8.60964
G1 X56.663 Y71.825 E8.66492
G1 X56.950 Y72.188 E8.70680
G1 X57.163 Y72.775 E8.76452
G1 X57.200 Y84.588 E9.85787
G1 X57.138 Y85.138 E9.90868
G1 X56.925 Y85.650 E9.96038
G1 X56.688 Y85.975 E9.99689
G1 X56.213 Y86.413 E10.05693
G1 X55.600 Y86.675 E10.11794
G1 X54.950 Y86.750 E10.17894
G1 X54.300 Y86.638 E10.23995
G1 X53.725 Y86.325 E10.30096
G1 X53.263 Y85.875 E10.36038
G1 X30.125 Y50.925 E14.23764
G1 X29.913 Y50.700 E14.26569
G1 X29.600 Y50.525 E14.29914
G1 X29.238 Y50.500 E14.33264
G1 X28.975 Y50.563 E14.35729
G1 X25.738 Y52.688 E14.71620
G1 X25.488 Y52.925 E14.74784
G1 X25.338 Y53.213 E14.77775
G1 X25.313 Y53.475 E14.80182
G1 X25.400 Y53.875 E14.84041
G1 X48.325 Y88.513 E18.68209
G1 X48.525 Y88.975 E18.72903
G1 X48.550 Y89.588 E18.78566
G1 X48.438 Y90.000 E18.82449
G1 X48.063 Y90.513 E18.88337
G1 X47.513 Y90.838 E18.94301
G1 X46.875 Y90.913 E19.00214
G1 X46.263 Y90.738 E19.06080
G1 X45.800 Y90.350 E19.11713
G1 X20.663 Y52.375 E23.32942
G1 X20.525 Y51.725 E23.39107
G1 X20.663 Y51.075 E23.45245
G1 X20.888 Y50.713 E23.49108
G1 X34.150 Y37.888 E25.19810
G1 X34.713 Y37.625 E25.25601
G1 X79.475 Y34.213 E29.40753
G1 X80.100 Y34.463 E29.46927
G1 X80.538 Y34.888 E29.52591
G1 X80.763 Y35.438 E29.58156
G1 X80.775 Y36.050 E29.63753
G1 X80.550 Y36.613 E29.69321
G1 X80.188 Y37.013 E29.74402
G1 X79.650 Y37.275 E29.79960
G1 X36.863 Y40.600 E33.76913
G1 X36.488 Y40.850
G1 X39.488 Y42.213 F3600.000
G1 X39.788 Y41.825 F600.000 E33.81390
G1 X40.313 Y41.425 E33.87509
G1 X83.525 Y38.113 E37.88365
G1 X83.963 Y37.875 E37.93016
G1 X84.175 Y37.563 E37.96465
G1 X84.250 Y37.313 E37.98919
G1 X83.925 Y33.213 E38.36947
G1 X83.613 Y32.763 E38.41918
G1 X83.375 Y32.625 E38.44518
G1 X83.100 Y32.563 E38.47107
G1 X41.625 Y35.738 E42.31883
G1 X41.113 Y35.663 E42.36648
G1 X40.613 Y35.400 E42.41895
G1 X40.200 Y34.900 E42.47866
G1 X40.025 Y34.338 E42.53300
G1 X40.075 Y33.763 E42.58596
G1 X40.250 Y33.338 E42.62924
G1 X40.725 Y32.863 E42.69157
G1 X41.200 Y32.650 E42.73914
G1 X85.825 Y29.213 E46.87903
G1 X86.213 Y29.238 E46.91445
G1 X86.700 Y29.425 E46.96251
G1 X87.013 Y29.675 E47.00027
G1 X87.300 Y30.063 E47.04404
G1 X92.213 Y48.813 E48.83709
G1 X92.150 Y49.325 E48.88492
G1 X72.575 Y89.825 E53.04557
G1 X72.175 Y90.325 E53.10471
G1 X71.575 Y90.625 E53.16696
G1 X70.900 Y90.638 E53.22919
G1 X70.300 Y90.388 E53.29010
G1 X69.950 Y90.038 E53.33539
G1 X69.700 Y89.575 E53.38461
G1 X69.638 Y89.100 E53.42890
G1 X69.725 Y88.588 E53.47733
G1 X88.338 Y49.738 E57.46106
G1 X88.438 Y49.375 E57.49585
G1 X88.388 Y49.025 E57.52819
G1 X85.063 Y43.238 E58.14621
G1 X84.750 Y42.975 E58.18409
G1 X84.413 Y42.875 E58.21627
G1 X84.013 Y42.925 E58.25355
G1 X70.038 Y50.963 E59.74458
G1 X69.563 Y51.100 E59.79097
G1 X68.950 Y51.138 E59.84710
G1 X68.250 Y50.975 E59.91410
G1 X67.263 Y50.150 E60.03218
G1 X66.413 Y49.550 E60.12855
G1 X65.500 Y49.038 E60.22500
G1 X64.563 Y48.600 E60.32146
G1 X63.575 Y48.238 E60.41791
G1 X62.575 Y47.975 E60.51436
G1 X61.550 Y47.788 E60.61082
G1 X60.513 Y47.688 E60.70727
G1 X59.463 Y47.675 E60.80372
G1 X58.425 Y47.763 E60.90018
G1 X57.400 Y47.925 E60.99663
G1 X56.388 Y48.188 E61.09308
G1 X55.400 Y48.525 E61.18954
G1 X54.450 Y48.950 E61.28599
G1 X53.538 Y49.463 E61.38244
G1 X52.675 Y50.038 E61.47881
G1 X51.713 Y50.825 E61.59345
G1 X51.413 Y50.963 E61.62400
G1 X50.938 Y51.025 E61.66850
G1 X50.550 Y50.938 E61.70482
G1 X40.063 Y45.150 E62.81228
G1 X39.650 Y44.763 E62.86482
G1 X39.313 Y44.213 E62.92504
G1 X39.175 Y43.750 E62.96978
G1 X39.150 Y43.188 E63.02195
G1 X39.338 Y42.488 E63.08796
G1 X39.275 Y41.775
G1 F1800.000 E58.58796
G92 E0
G1 X54.300 Y55.625 F3600.000
G1 F1800.000 E4.50000
G1 X54.975 Y54.888 F600.000 E4.54625
G1 X55.150 Y54.700 E4.56939
G1 X55.738 Y54.250 E4.63874
G1 X56.138 Y53.950 E4.68503
G1 X56.588 Y53.713 E4.73123
G1 X57.250 Y53.363 E4.80067
G1 X57.488 Y53.288 E4.82372
G1 X58.438 Y52.988 E4.91621
G1 X58.438 Y52.988 E4.91630
G1 X59.438 Y52.863 E5.00870
G1 X59.675 Y52.825 E5.03194
G1 X60.425 Y52.863 E5.10119
G1 X60.925 Y52.888 E5.14758
G1 X62.150 Y53.150 E5.26322
G1 X63.300 Y53.638 E5.37885
G1 X64.363 Y54.300 E5.49449
G1 X65.288 Y55.150 E5.61013
G1 X66.038 Y56.138 E5.72577
G1 X66.625 Y57.250 E5.84140
G1 X67.000 Y58.438 E5.95704
G1 X67.163 Y59.675 E6.07268
G1 X67.100 Y60.925 E6.18831
G1 X66.838 Y62.150 E6.30395
G1 X66.350 Y63.300 E6.41959
G1 X65.688 Y64.363 E6.53523
G1 X64.838 Y65.288 E6.65087
G1 X63.850 Y66.038 E6.76650
G1 X62.738 Y66.625 E6.88214
G1 X61.550 Y67.000 E6.99778
G1 X60.313 Y67.163 E7.11341
G1 X59.063 Y67.100 E7.22905
G1 X57.838 Y66.838 E7.34469
G1 X56.688 Y66.350 E7.46033
G1 X55.625 Y65.688 E7.57596
G1 X54.700 Y64.838 E7.69160
G1 X53.950 Y63.850 E7.80724
G1 X53.363 Y62.738 E7.92288
G1 X53.313 Y62.563 E7.93987
G1 X53.013 Y61.613 E8.03236
G1 X52.988 Y61.550 E8.03851
G1 X52.875 Y60.625 E8.12485
G1 X52.825 Y60.313 E8.15415
G1 X52.863 Y59.625 E8.21734
G1 X52.888 Y59.063 E8.26979
G1 X52.975 Y58.638 E8.30983
G1 X53.150 Y57.838 E8.38543
G1 X53.225 Y57.663 E8.40232
G1 X53.600 Y56.750 E8.49482
G1 X53.638 Y56.688 E8.49794
G1 X54.138 Y55.900 E8.54106
G1 X54.813 Y56.013
G1 X55.488 Y55.275 E8.58731
G1 X55.575 Y55.175 E8.60017
G1 X56.263 Y54.650 E8.67980
G1 X56.488 Y54.488 E8.70552
G1 X57.125 Y54.150 E8.77229
G1 X57.488 Y53.963 E8.81087
G1 X58.050 Y53.788 E8.86478
G1 X58.575 Y53.613 E8.91622
G1 X59.025 Y53.550 E8.95727
G1 X59.713 Y53.463 E9.02157
G1 X60.013 Y53.475 E9.04976
G1 X60.850 Y53.513 E9.12692
G1 X61.013 Y53.550 E9.14225
G1 X61.963 Y53.763 E9.23227
G1 X63.013 Y54.200 E9.33762
G1 X63.975 Y54.813 E9.44297
G1 X64.813 Y55.575 E9.54832
G1 X65.500 Y56.488 E9.65367
G1 X66.025 Y57.488 E9.75902
G1 X66.375 Y58.575 E9.86437
G1 X66.525 Y59.713 E9.96972
G1 X66.475 Y60.850 E10.07507
G1 X66.225 Y61.963 E10.18043
G1 X65.788 Y63.013 E10.28578
G1 X65.175 Y63.975 E10.39113
G1 X64.413 Y64.813 E10.49648
G1 X63.500 Y65.500 E10.60183
G1 X62.500 Y66.025 E10.70718
G1 X61.413 Y66.375 E10.81253
G1 X60.275 Y66.525 E10.91788
G1 X59.138 Y66.475 E11.02323
G1 X58.025 Y66.225 E11.12858
G1 X56.975 Y65.788 E11.23393
G1 X56.013 Y65.175 E11.33928
G1 X55.175 Y64.413 E11.44463
G1 X54.488 Y63.500 E11.54998
G1 X54.175 Y62.925 E11.61061
G1 X53.963 Y62.500 E11.65533
G1 X53.800 Y62.000 E11.70310
G1 X53.613 Y61.413 E11.76069
G1 X53.563 Y61.038 E11.79559
G1 X53.463 Y60.275 E11.86603
G1 X53.475 Y60.038 E11.88808
G1 X53.513 Y59.138 E11.97139
G1 X53.538 Y59.050 E11.98057
G1 X53.750 Y58.063 E12.07306
G1 X53.763 Y58.025 E12.07674
G1 X54.125 Y57.138 E12.16555
G1 X54.200 Y56.975 E12.17382
G1 X54.638 Y56.288 E12.21180
G1 X54.400 Y54.950
G1 F1800.000 E7.71180
G92 E0
G1 X71.850 Y57.075 F3600.000
G1 F1800.000 E4.50000
G1 X72.038 Y56.500 F600.000 E4.55632
G1 X72.425 Y56.038 E4.61147
G1 X82.838 Y50.038 E5.72327
G1 X83.413 Y49.863 E5.77895
G1 X84.025 Y49.875 E5.83560
G1 X84.613 Y50.063 E5.89225
G1 X85.113 Y50.413 E5.94890
G1 X85.475 Y50.900 E6.00555
G1 X85.688 Y51.475 E6.06220
G1 X85.713 Y52.088 E6.11820
G1 X85.625 Y52.525 E6.15965
G1 X67.013 Y91.450 E10.15085
G1 X67.000 Y91.850 E10.18745
G1 X67.150 Y92.175 E10.22030
G1 X67.363 Y92.400 E10.24920
G1 X70.850 Y94.100 E10.60778
G1 X71.175 Y94.188 E10.63945
G1 X71.500 Y94.163 E10.66905
G1 X71.738 Y94.063 E10.69342
G1 X72.038 Y93.763 E10.73201
G1 X90.150 Y56.088 E14.59809
G1 X90.538 Y55.713 E14.64811
G1 X91.025 Y55.500 E14.69791
G1 X91.563 Y55.463 E14.74770
G1 X92.088 Y55.600 E14.79750
G1 X92.525 Y55.925 E14.84795
G1 X92.875 Y56.475 E14.90847
G1 X92.963 Y56.950 E14.95272
G1 X92.938 Y57.363 E14.99195
G1 X73.738 Y97.475 E19.10425
G1 X73.463 Y97.875 E19.14921
G1 X72.900 Y98.238 E19.21103
G1 X72.238 Y98.338 E19.27330
G1 X53.238 Y93.263 E21.09207
G1 X52.650 Y92.813 E21.16006
G1 X28.513 Y56.363 E25.20362
G1 X28.313 Y55.888 E25.25173
G1 X28.313 Y55.225 E25.31291
G1 X28.538 Y54.675 E25.36858
G1 X28.875 Y54.313 E25.41380
G1 X29.463 Y54.025 E25.47432
G1 X30.013 Y53.988 E25.52543
G1 X30.638 Y54.200 E25.58596
G1 X31.013 Y54.500 E25.63043
G1 X54.300 Y89.650 E29.53051
G1 X54.563 Y89.925 E29.56550
G1 X54.938 Y90.075 E29.60351
G1 X61.913 Y90.088 E30.24865
G1 X62.313 Y89.963 E30.28735
G1 X62.613 Y89.700 E30.32409
G1 X62.763 Y89.325 E30.36150
G1 X62.775 Y72.788 E31.89075
G1 X62.913 Y72.338 E31.93397
G1 X63.238 Y71.850 E31.98867
G1 X63.600 Y71.550 E32.03158
G1 X65.550 Y70.688 E32.22920
G1 X66.463 Y70.163 E32.32659
G1 X67.325 Y69.563 E32.42431
G1 X68.138 Y68.875 E32.52203
G1 X68.888 Y68.138 E32.61975
G1 X69.563 Y67.325 E32.71747
G1 X70.175 Y66.463 E32.81519
G1 X70.700 Y65.550 E32.91291
G1 X71.150 Y64.588 E33.01063
G1 X71.525 Y63.600 E33.10835
G1 X71.800 Y62.575 E33.20606
G1 X71.988 Y61.538 E33.30378
G1 X72.088 Y60.488 E33.40150
G1 X72.088 Y59.438 E33.49888
G1 X71.888 Y57.388 E33.68914
G1 X71.388 Y56.688
G1 F1800.000 E29.18914
G92 E0
G1 X68.800 Y89.188 F3600.000
G1 F1800.000 E4.50000
G1 X69.425 Y90.425 F600.000 E4.62836
G1 X69.938 Y90.925 E4.69424
G1 X70.788 Y91.288 E4.77894
G1 X71.738 Y91.250 E4.86695
G1 X72.200 Y91.025 E4.91458
G1 X72.500 Y91.338 E4.95487
G1 X71.513 Y93.388 E5.16594
G1 X71.338 Y93.563 E5.18974
G1 X71.075 Y93.500 E5.21448
G1 X67.550 Y91.788 E5.57647
G1 X68.663 Y89.475 E5.81301
G1 F1800.000 E1.31301
G92 E0
G1 X80.413 Y37.713 F3600.000
G1 F1800.000 E4.50000
G1 X81.100 Y36.950 F600.000 E4.59542
G1 X81.413 Y36.163 E4.67363
G1 X81.400 Y35.313 E4.75269
G1 X81.063 Y34.525 E4.83145
G1 X79.975 Y33.438 E4.97362
G1 X83.288 Y33.188 E5.28043
G1 X83.625 Y37.463 E5.67676
G1 X80.725 Y37.688 E5.94556
G1 F1800.000 E1.44556
G92 E0
G1 X84.350 Y43.463 F3600.000
G1 F1800.000 E4.50000
G1 X84.575 Y43.650 F600.000 E4.52646
G1 X87.800 Y49.275 E5.12690
G1 X87.738 Y49.525 E5.14989
G1 X86.550 Y52.000 E5.40358
G1 X86.038 Y50.600 E5.54119
G1 X85.550 Y49.963 E5.61570
G1 X84.900 Y49.488 E5.69021
G1 X84.138 Y49.238 E5.76472
G1 X83.325 Y49.225 E5.83923
G1 X82.588 Y49.450 E5.91083
G1 X72.013 Y55.550 E7.03980
G1 X71.475 Y56.175 E7.11666
G1 X71.200 Y57.000 E7.19705
G1 X71.463 Y59.463 E7.42601
G1 X71.450 Y60.463 E7.51760
G1 X71.363 Y61.450 E7.61023
G1 X71.175 Y62.438 E7.70285
G1 X70.913 Y63.400 E7.79548
G1 X70.563 Y64.350 E7.88810
G1 X70.138 Y65.250 E7.98073
G1 X69.638 Y66.113 E8.07335
G1 X69.063 Y66.938 E8.16597
G1 X68.413 Y67.700 E8.25860
G1 X67.713 Y68.413 E8.35122
G1 X66.938 Y69.050 E8.44385
G1 X66.125 Y69.625 E8.53647
G1 X65.263 Y70.125 E8.62812
G1 X63.263 Y71.013 E8.83056
G1 X62.763 Y71.413 E8.89025
G1 X62.325 Y72.063 E8.96246
G1 X62.138 Y72.700 E9.02307
G1 X62.125 Y89.363 E10.56422
G1 X61.825 Y89.450 E10.59412
G1 X55.063 Y89.438 E11.21882
G1 X54.925 Y89.388 E11.23324
G1 X53.375 Y87.113 E11.48793
G1 X54.925 Y87.400 E11.63456
G1 X55.775 Y87.300 E11.71352
G1 X56.563 Y86.950 E11.79247
G1 X57.175 Y86.400 E11.86850
G1 X57.475 Y85.963 E11.91843
G1 X57.750 Y85.300 E11.98421
G1 X57.838 Y84.638 E12.04669
G1 X57.800 Y72.663 E13.15423
G1 X57.513 Y71.875 E13.23175
G1 X57.100 Y71.350 E13.29270
G1 X56.463 Y70.938 E13.36360
G1 X55.125 Y70.413 E13.49584
G1 X54.238 Y69.963 E13.58840
G1 X53.375 Y69.438 E13.68136
G1 X52.575 Y68.825 E13.77433
G1 X51.825 Y68.163 E13.86730
G1 X51.138 Y67.425 E13.96026
G1 X50.513 Y66.638 E14.05323
G1 X49.963 Y65.800 E14.14620
G1 X49.488 Y64.913 E14.23916
G1 X49.088 Y63.988 E14.33213
G1 X48.775 Y63.038 E14.42510
G1 X48.538 Y62.063 E14.51806
G1 X48.388 Y61.063 E14.61103
G1 X48.325 Y60.063 E14.70399
G1 X48.363 Y59.063 E14.79595
G1 X48.625 Y57.100 E14.97935
G1 X48.550 Y56.488 E15.03709
G1 X48.150 Y55.713 E15.11727
G1 X47.763 Y55.325 E15.16864
G1 X33.500 Y47.425 E16.67597
G1 X33.375 Y47.275 E16.69439
G1 X33.413 Y47.088 E16.71208
G1 X36.650 Y41.263 E17.32832
G1 X39.613 Y41.025 E17.60241
G1 X38.938 Y41.863 E17.70128
G1 X38.675 Y42.425 E17.75825
G1 X38.513 Y43.125 E17.82512
G1 X38.550 Y43.850 E17.89204
G1 X38.725 Y44.463 E17.95152
G1 X39.150 Y45.175 E18.02780
G1 X39.688 Y45.675 E18.09583
G1 X50.325 Y51.538 E19.21880
G1 X50.900 Y51.663 E19.27377
G1 X51.588 Y51.588 E19.33798
G1 X52.050 Y51.363 E19.38505
G1 X53.050 Y50.550 E19.50405
G1 X53.863 Y50.000 E19.59522
G1 X54.738 Y49.525 E19.68664
G1 X55.638 Y49.125 E19.77807
G1 X56.575 Y48.800 E19.86949
G1 X57.525 Y48.550 E19.96092
G1 X58.500 Y48.388 E20.05234
G1 X59.488 Y48.313 E20.14377
G1 X60.475 Y48.325 E20.23519
G1 X61.463 Y48.413 E20.32662
G1 X62.438 Y48.588 E20.41804
G1 X63.388 Y48.850 E20.50947
G1 X64.313 Y49.188 E20.60089
G1 X65.213 Y49.600 E20.69232
G1 X66.075 Y50.100 E20.78374
G1 X66.888 Y50.650 E20.87491
G1 X67.950 Y51.550 E21.00424
G1 X68.888 Y51.775 E21.09354
G1 X69.663 Y51.738 E21.16502
G1 X70.288 Y51.550 E21.22532
G1 X84.075 Y43.625 E22.69575
G1 F1800.000 E18.19575
G92 E0
G1 X30.850 Y53.163 F3600.000
G1 F1800.000 E4.50000
G1 X30.588 Y53.513 F600.000 E4.54025
G1 X30.100 Y53.350 E4.58757
G1 X29.300 Y53.400 E4.66183
G1 X28.488 Y53.800 E4.74484
G1 X28.000 Y54.325 E4.81124
G1 X27.675 Y55.100 E4.88940
G1 X27.675 Y55.363 E4.91381
G1 X27.238 Y55.500 E4.95593
G1 X26.000 Y53.625 E5.16386
G1 X25.938 Y53.375 E5.18764
G1 X26.125 Y53.188 E5.21238
G1 X29.313 Y51.100 E5.56480
G1 X29.625 Y51.313 E5.59896
G1 X30.675 Y52.900 E5.77521
G1 F1800.000 E1.27521
G92 E0
G1 X16.988 Y50.463 F3600.000
G1 F1800.000 E4.50000
G1 X17.225 Y49.488 F600.000 E4.54625
G1 X17.450 Y48.588 E4.63150
G1 X17.475 Y48.513 E4.63874
G1 X17.750 Y47.563 E4.73123
G1 X17.988 Y46.750 E4.80924
G1 X18.038 Y46.600 E4.82372
G1 X18.363 Y45.650 E4.91621
G1 X18.600 Y44.925 E4.98698
G1 X18.688 Y44.713 E5.00870
G1 X19.050 Y43.775 E5.10119
G1 X19.300 Y43.138 E5.16473
G1 X20.075 Y41.375 E5.34247
G1 X20.925 Y39.650 E5.52021
G1 X21.850 Y37.975 E5.69795
G1 X22.850 Y36.325 E5.87570
G1 X23.913 Y34.725 E6.05344
G1 X25.050 Y33.175 E6.23118
G1 X26.250 Y31.688 E6.40893
G1 X27.525 Y30.238 E6.58667
G1 X28.850 Y28.850 E6.76441
G1 X30.238 Y27.525 E6.94215
G1 X31.688 Y26.250 E7.11990
G1 X33.175 Y25.050 E7.29764
G1 X34.725 Y23.913 E7.47538
G1 X36.325 Y22.850 E7.65313
G1 X37.975 Y21.850 E7.83087
G1 X39.650 Y20.925 E8.00861
G1 X41.375 Y20.075 E8.18635
G1 X43.138 Y19.300 E8.36410
G1 X44.925 Y18.600 E8.54184
G1 X46.750 Y17.988 E8.71958
G1 X48.588 Y17.450 E8.89733
G1 X50.463 Y16.988 E9.07507
G1 X52.350 Y16.613 E9.25281
G1 X54.250 Y16.325 E9.43055
G1 X56.150 Y16.113 E9.60830
G1 X58.075 Y15.988 E9.78604
G1 X60.000 Y15.950 E9.96378
G1 X61.913 Y15.988 E10.14152
G1 X63.838 Y16.113 E10.31927
G1 X65.738 Y16.325 E10.49701
G1 X67.638 Y16.613 E10.67475
G1 X69.525 Y16.988 E10.85250
G1 X71.400 Y17.450 E11.03024
G1 X73.238 Y17.988 E11.20798
G1 X75.063 Y18.600 E11.38572
G1 X76.850 Y19.300 E11.56347
G1 X78.613 Y20.075 E11.74121
G1 X80.338 Y20.925 E11.91895
G1 X82.013 Y21.850 E12.09670
G1 X83.663 Y22.850 E12.27444
G1 X85.263 Y23.913 E12.45218
G1 X86.813 Y25.050 E12.62992
G1 X88.300 Y26.250 E12.80767
G1 X89.750 Y27.525 E12.98541
G1 X91.138 Y28.850 E13.16315
G1 X92.463 Y30.238 E13.34090
G1 X93.738 Y31.688 E13.51864
G1 X94.938 Y33.175 E13.69638
G1 X96.075 Y34.725 E13.87412
G1 X97.138 Y36.325 E14.05187
G1 X98.138 Y37.975 E14.22961
G1 X99.063 Y39.650 E14.40735
G1 X99.913 Y41.375 E14.58510
G1 X100.688 Y43.138 E14.76284
G1 X101.388 Y44.925 E14.94058
G1 X102.000 Y46.750 E15.11832
G1 X102.538 Y48.588 E15.29607
G1 X103.000 Y50.463 E15.47381
G1 X103.375 Y52.350 E15.65155
G1 X103.663 Y54.250 E15.82930
G1 X103.875 Y56.150 E16.00704
G1 X104.000 Y58.075 E16.18478
G1 X104.038 Y60.000 E16.36252
G1 X104.000 Y61.913 E16.54027
G1 X103.875 Y63.838 E16.71801
G1 X103.663 Y65.738 E16.89575
G1 X103.375 Y67.638 E17.07350
G1 X103.000 Y69.525 E17.25124
G1 X102.538 Y71.400 E17.42898
G1 X102.000 Y73.238 E17.60672
G1 X101.388 Y75.063 E17.78447
G1 X100.688 Y76.850 E17.96221
G1 X99.913 Y78.613 E18.13995
G1 X99.063 Y80.338 E18.31769
G1 X98.138 Y82.013 E18.49544
G1 X97.138 Y83.663 E18.67318
G1 X96.075 Y85.263 E18.85092
G1 X94.938 Y86.813 E19.02867
G1 X93.738 Y88.300 E19.20641
G1 X92.463 Y89.750 E19.38415
G1 X91.138 Y91.138 E19.56189
G1 X89.750 Y92.463 E19.73964
G1 X88.300 Y93.738 E19.91738
G1 X86.813 Y94.938 E20.09512
G1 X85.263 Y96.075 E20.27287
G1 X83.663 Y97.138 E20.45061
G1 X82.013 Y98.138 E20.62835
G1 X80.338 Y99.063 E20.80609
G1 X78.613 Y99.913 E20.98384
G1 X76.850 Y100.688 E21.16158
G1 X75.063 Y101.388 E21.33932
G1 X73.238 Y102.000 E21.51707
G1 X71.400 Y102.538 E21.69481
G1 X69.525 Y103.000 E21.87255
G1 X67.638 Y103.375 E22.05029
G1 X65.738 Y103.663 E22.22804
G1 X63.838 Y103.875 E22.40578
G1 X61.913 Y104.000 E22.58352
G1 X60.000 Y104.038 E22.76127
G1 X58.075 Y104.000 E22.93901
G1 X56.150 Y103.875 E23.11675
G1 X54.250 Y103.663 E23.29449
G1 X52.350 Y103.375 E23.47224
G1 X50.463 Y103.000 E23.64998
G1 X48.588 Y102.538 E23.82772
G1 X46.750 Y102.000 E24.00546
G1 X44.925 Y101.388 E24.18321
G1 X43.138 Y100.688 E24.36095
G1 X41.375 Y99.913 E24.53869
G1 X39.650 Y99.063 E24.71644
G1 X37.975 Y98.138 E24.89418
G1 X36.325 Y97.138 E25.07192
G1 X34.725 Y96.075 E25.24966
G1 X33.175 Y94.938 E25.42741
G1 X31.688 Y93.738 E25.60515
G1 X30.238 Y92.463 E25.78289
G1 X28.850 Y91.138 E25.96064
G1 X27.525 Y89.750 E26.13838
G1 X26.250 Y88.300 E26.31612
G1 X25.050 Y86.813 E26.49386
G1 X23.913 Y85.263 E26.67161
G1 X22.850 Y83.663 E26.84935
G1 X21.850 Y82.013 E27.02709
G1 X20.925 Y80.338 E27.20484
G1 X20.075 Y78.613 E27.38258
G1 X19.300 Y76.850 E27.56032
G1 X18.600 Y75.063 E27.73806
G1 X17.988 Y73.238 E27.91581
G1 X17.450 Y71.400 E28.09355
G1 X16.988 Y69.525 E28.27129
G1 X16.613 Y67.638 E28.44904
G1 X16.325 Y65.738 E28.62678
G1 X16.113 Y63.838 E28.80452
G1 X15.988 Y61.913 E28.98226
G1 X15.950 Y60.000 E29.16001
G1 X15.988 Y58.075 E29.33775
G1 X16.013 Y57.700 E29.37181
G1 X16.075 Y56.713 E29.46430
G1 X16.113 Y56.150 E29.51549
G1 X16.163 Y55.713 E29.55680
G1 X16.275 Y54.713 E29.64929
G1 X16.325 Y54.250 E29.69324
G1 X16.413 Y53.725 E29.74178
G1 X16.588 Y52.738 E29.83427
G1 X16.763 Y51.763 E29.92676
G1 X16.925 Y50.775 E29.97300
G1 X16.375 Y50.325
G1 X16.613 Y49.350 E30.01925
G1 X16.838 Y48.425 E30.10707
G1 X16.850 Y48.375 E30.11174
G1 X17.125 Y47.425 E30.20423
G1 X17.375 Y46.563 E30.28738
G1 X17.413 Y46.463 E30.29672
G1 X17.738 Y45.513 E30.38921
G1 X18.013 Y44.713 E30.46768
G1 X18.063 Y44.575 E30.48170
G1 X18.425 Y43.638 E30.57420
G1 X18.713 Y42.900 E30.64799
G1 X19.500 Y41.113 E30.82830
G1 X20.363 Y39.363 E31.00861
G1 X21.300 Y37.650 E31.18892
G1 X22.313 Y35.988 E31.36923
G1 X23.388 Y34.363 E31.54953
G1 X24.550 Y32.788 E31.72984
G1 X25.763 Y31.275 E31.91015
G1 X27.050 Y29.813 E32.09046
G1 X28.400 Y28.400 E32.27077
G1 X29.813 Y27.050 E32.45108
G1 X31.275 Y25.763 E32.63138
G1 X32.788 Y24.550 E32.81169
G1 X34.363 Y23.388 E32.99200
G1 X35.988 Y22.313 E33.17231
G1 X37.650 Y21.300 E33.35262
G1 X39.363 Y20.363 E33.53293
G1 X41.113 Y19.500 E33.71324
G1 X42.900 Y18.713 E33.89354
G1 X44.713 Y18.013 E34.07385
G1 X46.563 Y17.375 E34.25416
G1 X48.425 Y16.838 E34.43447
G1 X50.325 Y16.375 E34.61478
G1 X52.238 Y15.988 E34.79509
G1 X54.163 Y15.700 E34.97539
G1 X56.100 Y15.488 E35.15570
G1 X58.050 Y15.350 E35.33601
G1 X60.000 Y15.313 E35.51632
G1 X61.938 Y15.350 E35.69663
G1 X63.888 Y15.488 E35.87694
G1 X65.825 Y15.700 E36.05724
G1 X67.750 Y15.988 E36.23755
G1 X69.663 Y16.375 E36.41786
G1 X71.563 Y16.838 E36.59817
G1 X73.425 Y17.375 E36.77848
G1 X75.275 Y18.013 E36.95879
G1 X77.088 Y18.713 E37.13909
G1 X78.875 Y19.500 E37.31940
G1 X80.625 Y20.363 E37.49971
G1 X82.338 Y21.300 E37.68002
G1 X84.000 Y22.313 E37.86033
G1 X85.625 Y23.388 E38.04064
G1 X87.200 Y24.550 E38.22095
G1 X88.713 Y25.763 E38.40125
G1 X90.175 Y27.050 E38.58156
G1 X91.588 Y28.400 E38.76187
G1 X92.938 Y29.813 E38.94218
G1 X94.225 Y31.275 E39.12249
G1 X95.438 Y32.788 E39.30279
G1 X96.600 Y34.363 E39.48310
G1 X97.675 Y35.988 E39.66341
G1 X98.688 Y37.650 E39.84372
G1 X99.625 Y39.363 E40.02403
G1 X100.488 Y41.113 E40.20434
G1 X101.275 Y42.900 E40.38464
G1 X101.975 Y44.713 E40.56495
G1 X102.613 Y46.563 E40.74526
G1 X103.150 Y48.425 E40.92557
G1 X103.613 Y50.325 E41.10588
G1 X104.000 Y52.238 E41.28619
G1 X104.288 Y54.163 E41.46650
G1 X104.500 Y56.100 E41.64680
G1 X104.638 Y58.050 E41.82711
G1 X104.675 Y60.000 E42.00742
G1 X104.638 Y61.938 E42.18773
G1 X104.500 Y63.888 E42.36804
G1 X104.288 Y65.825 E42.54835
G1 X104.000 Y67.750 E42.72865
G1 X103.613 Y69.663 E42.90896
G1 X103.150 Y71.563 E43.08927
G1 X102.613 Y73.425 E43.26958
G1 X101.975 Y75.275 E43.44989
G1 X101.275 Y77.088 E43.63020
G1 X100.488 Y78.875 E43.81050
G1 X99.625 Y80.625 E43.99081
G1 X98.688 Y82.338 E44.17112
G1 X97.675 Y84.000 E44.35143
G1 X96.600 Y85.625 E44.53174
G1 X95.438 Y87.200 E44.71205
G1 X94.225 Y88.713 E44.89235
G1 X92.938 Y90.175 E45.07266
G1 X91.588 Y91.588 E45.25297
G1 X90.175 Y92.938 E45.43328
G1 X88.713 Y94.225 E45.61359
G1 X87.200 Y95.438 E45.79390
G1 X85.625 Y96.600 E45.97421
G1 X84.000 Y97.675 E46.15451
G1 X82.338 Y98.688 E46.33482
G1 X80.625 Y99.625 E46.51513
G1 X78.875 Y100.488 E46.69544
G1 X77.088 Y101.275 E46.87575
G1 X75.275 Y101.975 E47.05606
G1 X73.425 Y102.613 E47.23636
G1 X71.563 Y103.150 E47.41667
G1 X69.663 Y103.613 E47.59698
G1 X67.750 Y104.000 E47.77729
G1 X65.825 Y104.288 E47.95760
G1 X63.888 Y104.500 E48.13791
G1 X61.938 Y104.638 E48.31821
G1 X60.000 Y104.675 E48.49852
G1 X58.050 Y104.638 E48.67883
G1 X56.100 Y104.500 E48.85914
G1 X54.163 Y104.288 E49.03945
G1 X52.238 Y104.000 E49.21976
G1 X50.325 Y103.613 E49.40006
G1 X48.425 Y103.150 E49.58037
G1 X46.563 Y102.613 E49.76068
G1 X44.713 Y101.975 E49.94099
G1 X42.900 Y101.275 E50.12130
G1 X41.113 Y100.488 E50.30161
G1 X39.363 Y99.625 E50.48192
G1 X37.650 Y98.688 E50.66222
G1 X35.988 Y97.675 E50.84253
G1 X34.363 Y96.600 E51.02284
G1 X32.788 Y95.438 E51.20315
G1 X31.275 Y94.225 E51.38346
G1 X29.813 Y92.938 E51.56377
G1 X28.400 Y91.588 E51.74407
G1 X27.050 Y90.175 E51.92438
G1 X25.763 Y88.713 E52.10469
G1 X24.550 Y87.200 E52.28500
G1 X23.388 Y85.625 E52.46531
G1 X22.313 Y84.000 E52.64562
G1 X21.300 Y82.338 E52.82592
G1 X20.363 Y80.625 E53.00623
G1 X19.500 Y78.875 E53.18654
G1 X18.713 Y77.088 E53.36685
G1 X18.013 Y75.275 E53.54716
G1 X17.375 Y73.425 E53.72747
G1 X16.838 Y71.563 E53.90777
G1 X16.375 Y69.663 E54.08808
G1 X15.988 Y67.750 E54.26839
G1 X15.700 Y65.825 E54.44870
G1 X15.488 Y63.888 E54.62901
G1 X15.350 Y61.938 E54.80932
G1 X15.313 Y60.000 E54.98962
G1 X15.350 Y58.050 E55.16993
G1 X15.388 Y57.563 E55.21426
G1 X15.450 Y56.563 E55.30675
G1 X15.488 Y56.100 E55.35024
G1 X15.538 Y55.575 E55.39924
G1 X15.650 Y54.575 E55.49173
G1 X15.700 Y54.163 E55.53055
G1 X15.788 Y53.588 E55.58422
G1 X15.963 Y52.600 E55.67671
G1 X16.138 Y51.625 E55.76920
G1 X16.313 Y50.638 E55.81545
G1 X17.588 Y49.950
; perimeter_end
; infill_start
G1 F1800.000 E51.31545
G92 E0
G1 X27.450 Y54.450 F3600.000
G1 F1800.000 E4.50000
G1 X26.500 Y53.500 F600.000 E4.64682
G1 X27.150 Y53.075 E4.73171
G1 X27.863 Y53.800 E4.84293
G1 X28.725 Y53.263 F3600.000
G1 X28.363 Y53.263 F600.000 E4.86857
G1 X28.088 Y52.688 E4.91403
G1 X29.113 Y52.950 F3600.000
G1 X28.488 Y52.325 F600.000 E5.00529
G1 X29.013 Y51.850 E5.07736
G1 X30.050 Y52.888 E5.22759
G1 X31.225 Y53.675 F3600.000
G1 X52.838 Y86.350 F600.000 E8.39737
G1 X53.463 Y86.738 E8.45644
G1 X55.625 Y88.988 F3600.000
G1 X54.413 Y87.775 F600.000 E8.61576
G1 X55.363 Y87.813 E8.70364
G1 X56.525 Y88.988 E8.85767
G1 X57.438 Y88.988 E8.94173
G1 X56.100 Y87.650 E9.11632
G1 X56.725 Y87.375 E9.17992
G1 X58.338 Y88.988 E9.39134
G1 X59.238 Y88.988 E9.47540
G1 X57.225 Y86.963 E9.74022
G1 X57.663 Y86.500 E9.79970
G1 X60.150 Y88.988 E10.12593
G1 X61.050 Y88.988 E10.20999
G1 X57.988 Y85.925 E10.61192
G1 X58.225 Y85.250 E10.67812
G1 X61.663 Y88.700 E11.13139
G1 X61.675 Y87.800 E11.21541
G1 X58.300 Y84.425 E11.65862
G1 X58.300 Y83.513 E11.74300
G1 X61.675 Y86.888 E12.18671
G1 X61.675 Y85.988 E12.27074
G1 X58.288 Y82.613 E12.71496
G1 X58.288 Y81.700 E12.79934
G1 X61.675 Y85.088 E13.24407
G1 X61.675 Y84.188 E13.32810
G1 X58.288 Y80.800 E13.77334
G1 X58.288 Y79.888 E13.85772
G1 X61.675 Y83.275 E14.30346
G1 X61.675 Y82.375 E14.38749
G1 X58.275 Y78.988 E14.83374
G1 X58.275 Y78.075 E14.91813
G1 X61.675 Y81.475 E15.36489
G1 X61.675 Y80.563 E15.44891
G1 X58.275 Y77.163 E15.89618
G1 X58.275 Y76.263 E15.98057
G1 X61.675 Y79.663 E16.42834
G1 X61.675 Y78.763 E16.51237
G1 X58.263 Y75.350 E16.96065
G1 X58.263 Y74.450 E17.04504
G1 X61.675 Y77.863 E17.49383
G1 X61.675 Y76.950 E17.57785
G1 X58.263 Y73.538 E18.02715
G1 X58.263 Y72.625 E18.11154
G1 X61.675 Y76.050 E18.56135
G1 X61.675 Y75.150
G1 X49.138 Y62.613 E20.20994
G1 X48.913 Y61.488 E20.31692
G1 X61.675 Y74.250 E21.99507
G1 X61.675 Y73.338 E22.07909
G1 X48.813 Y60.475 E23.77059
G1 X48.800 Y59.563
G1 X54.275 Y65.025 E24.48944
G1 X54.700 Y65.463
G1 X61.725 Y72.475 E25.41253
G1 X61.950 Y71.800
G1 X57.225 Y67.075 E26.03402
G1 X58.500 Y67.450 E26.15793
G1 X62.313 Y71.263 E26.65881
G1 X62.763 Y70.813 E26.71826
G1 X59.538 Y67.588 E27.14288
G1 X60.463 Y67.600 E27.22852
G1 X63.325 Y70.475 E27.60596
G1 X63.963 Y70.200 E27.66972
G1 X61.263 Y67.500 E28.02456
G1 X62.000 Y67.338 E28.09515
G1 X64.588 Y69.925 E28.43497
G1 X65.200 Y69.625 E28.49809
G1 X62.688 Y67.125 E28.82817
G1 X63.313 Y66.838 E28.89184
G1 X65.775 Y69.300 E29.21500
G1 X66.313 Y68.938 E29.27553
G1 X63.913 Y66.538 E29.59137
G1 X64.450 Y66.163 E29.65188
G1 X66.825 Y68.550 E29.96509
G1 X67.313 Y68.138 E30.02477
G1 X64.963 Y65.775 E30.33538
G1 X65.425 Y65.325 E30.39484
G1 X67.775 Y67.688 E30.70494
G1 X68.213 Y67.225 E30.76441
G1 X65.850 Y64.863 E31.07541
G1 X66.238 Y64.350 E31.13543
G1 X68.625 Y66.738 E31.44962
G1 X69.013 Y66.213 E31.50982
G1 X66.588 Y63.788 E31.82769
G1 X66.900 Y63.200 E31.89009
G1 X69.363 Y65.663 E32.21464
G1 X69.700 Y65.088 E32.27614
G1 X67.163 Y62.563 E32.60958
G1 X67.375 Y61.863 E32.67725
G1 X69.988 Y64.488 E33.02217
G1 X70.263 Y63.850 E33.08640
G1 X67.538 Y61.125 E33.44486
G1 X67.600 Y60.275 E33.52357
G1 X70.500 Y63.175 E33.90540
G1 X70.688 Y62.463 E33.97385
G1 X67.588 Y59.363 E34.38291
G1 X67.438 Y58.313 E34.48124
G1 X70.838 Y61.713 E34.92881
G1 X70.950 Y60.913 E35.00387
G1 X66.988 Y56.950 E35.52438
G1 X70.750 Y57.100 F3600.000
G1 X62.813 Y49.175 F600.000 E36.56760
G1 X61.663 Y48.925 E36.67764
G1 X70.850 Y58.113 E37.88660
G1 X70.963 Y59.113 E37.98086
G1 X60.638 Y48.800 E39.33796
G1 X59.713 Y48.775 E39.42418
G1 X70.988 Y60.063 E40.90770
G1 X70.925 Y56.375 F3600.000
G1 X64.188 Y49.638 F600.000 E41.79445
G1 X66.200 Y50.738 F3600.000
G1 X71.225 Y55.763 F600.000 E42.45538
G1 X71.638 Y55.275
G1 X68.513 Y52.163 E42.86543
G1 X69.475 Y52.213 E42.95399
G1 X72.175 Y54.913 E43.31051
G1 X72.750 Y54.588 E43.37206
G1 X70.213 Y52.050 E43.70542
G1 X70.838 Y51.763 E43.76880
G1 X73.325 Y54.250 E44.09613
G1 X73.900 Y53.925 E44.15768
G1 X71.413 Y51.438 E44.48491
G1 X71.988 Y51.113 E44.54648
G1 X74.475 Y53.600 E44.87362
G1 X75.050 Y53.263 E44.93517
G1 X72.563 Y50.775 E45.26220
G1 X73.138 Y50.450 E45.32378
G1 X75.625 Y52.938 E45.65071
G1 X76.188 Y52.600 E45.71226
G1 X73.713 Y50.113 E46.03910
G1 X74.288 Y49.788 E46.10068
G1 X76.763 Y52.275 E46.42741
G1 X77.338 Y51.938 E46.48896
G1 X74.850 Y49.463 E46.81560
G1 X75.425 Y49.125 E46.87718
G1 X77.913 Y51.613 E47.20372
G1 X78.488 Y51.275 E47.26527
G1 X76.000 Y48.800 E47.59171
G1 X76.575 Y48.463 E47.65328
G1 X79.063 Y50.950 E47.97962
G1 X79.638 Y50.613 E48.04117
G1 X77.150 Y48.138 E48.36742
G1 X77.725 Y47.813 E48.42899
G1 X80.200 Y50.288 E48.75514
G1 X80.775 Y49.950 E48.81669
G1 X78.300 Y47.475 E49.14273
G1 X78.875 Y47.150 E49.20431
G1 X81.350 Y49.625 E49.53025
G1 X81.925 Y49.300 E49.59180
G1 X79.450 Y46.813 E49.91765
G1 X80.025 Y46.488 E49.97923
G1 X82.513 Y48.988 E50.30771
G1 X83.213 Y48.775 E50.37541
G1 X80.600 Y46.163 E50.72023
G1 X81.175 Y45.825 E50.78181
G1 X84.125 Y48.775 E51.16985
G1 X85.838 Y49.588 F3600.000
G1 X81.738 Y45.500 F600.000 E51.70816
G1 X82.313 Y45.163 E51.76973
G1 X87.050 Y49.900 E52.39193
G1 X86.750 Y50.513
G1 X85.925 Y49.675 E52.50173
G1 X87.188 Y49.125 F3600.000
G1 X82.888 Y44.838 F600.000 E53.06643
G1 X83.463 Y44.513
G1 X85.963 Y47.000 E53.39489
G1 X84.738 Y44.875 F3600.000
G1 X84.038 Y44.175 F600.000 E53.48711
G1 F1800.000 E48.98711
G92 E0
G1 X63.063 Y53.038 F3600.000
G1 F1800.000 E4.50000
G1 X58.863 Y48.825 F600.000 E5.05316
G1 X58.063 Y48.938 E5.12805
G1 X61.713 Y52.588 E5.60825
G1 X60.638 Y52.413 E5.70996
G1 X57.313 Y49.088 E6.14707
G1 X56.600 Y49.275 E6.21570
G1 X59.688 Y52.363 E6.62224
G1 X58.888 Y52.463 E6.69749
G1 X55.925 Y49.513 E7.08667
G1 X55.288 Y49.775 E7.15071
G1 X58.125 Y52.613 E7.52279
G1 X57.438 Y52.825 E7.58981
G1 X54.688 Y50.075 E7.95122
G1 X54.100 Y50.400 E8.01306
G1 X56.788 Y53.088 E8.36635
G1 X56.200 Y53.400 E8.42868
G1 X53.563 Y50.763 E8.77494
G1 X53.050 Y51.150 E8.83500
G1 X55.638 Y53.750 E9.17645
G1 X55.125 Y54.138 E9.23641
G1 X52.550 Y51.550 E9.57618
G1 X51.988 Y51.900 E9.63719
G1 X54.650 Y54.563 E9.98724
G1 X54.225 Y55.038 E10.04675
G1 X51.275 Y52.088 E10.43465
G1 X50.288 Y52.000 E10.52704
G1 X53.813 Y55.538 E10.99190
G1 X53.463 Y56.088
G1 X48.350 Y50.975 E11.66392
G1 X46.338 Y49.863 F3600.000
G1 X53.138 Y56.663 F600.000 E12.55852
G1 X52.875 Y57.300
G1 X44.325 Y48.750 E13.68358
G1 X42.300 Y47.638 F3600.000
G1 X52.650 Y57.988 F600.000 E15.04422
G1 X52.488 Y58.725
G1 X40.288 Y46.525 E16.64857
G1 X38.250 Y44.500 F3600.000
G1 X36.413 Y42.650 F600.000 E16.89150
G1 X36.088 Y43.225
G1 X47.513 Y54.650 E18.39421
G1 X48.775 Y55.925 F3600.000
G1 X52.400 Y59.538 F600.000 E18.87035
G1 X52.375 Y60.425 E18.95248
G1 X49.088 Y57.138 E19.38507
G1 X48.975 Y57.938 E19.45965
G1 X52.513 Y61.463 E19.92469
G1 X52.888 Y62.738 E20.04786
G1 X48.875 Y58.725 E20.57576
G1 X49.563 Y63.938 F3600.000
G1 X55.813 Y70.188 F600.000 E21.39724
G1 X53.988 Y69.275 F3600.000
G1 X50.500 Y65.775 F600.000 E21.85690
G1 F1800.000 E17.35690
G92 E0
G1 X45.488 Y53.538 F3600.000
G1 F1800.000 E4.50000
G1 X35.763 Y43.813 F600.000 E5.77887
G1 X35.438 Y44.388
G1 X43.463 Y52.413 E6.83391
G1 X41.438 Y51.288 F3600.000
G1 X35.113 Y44.975 F600.000 E7.66511
G1 X34.788 Y45.550
G1 X39.413 Y50.175 E8.27247
G1 X37.388 Y49.050 F3600.000
G1 X34.475 Y46.138 F600.000 E8.65600
G1 X34.150 Y46.713
G1 X35.363 Y47.925 E8.81569
G1 X38.063 Y43.400 F3600.000
G1 X36.725 Y42.063 F600.000 E8.99140
G1 X37.250 Y41.675 E9.05139
G1 X38.163 Y42.588 E9.17210
G1 X38.400 Y41.925 E9.23788
G1 X38.088 Y41.613 E9.27958
G1 X40.063 Y41.038 F3600.000
G1 X40.500 Y40.838 F600.000 E9.31100
G1 X79.438 Y37.888 E11.87733
G1 X80.075 Y37.550 E11.92432
G1 X81.713 Y37.150 F3600.000
G1 X81.575 Y37.013 F600.000 E11.94519
G1 X81.875 Y36.263 E12.03243
G1 X82.688 Y37.075 E12.15672
G1 X83.075 Y36.413 E12.23928
G1 X81.850 Y35.188 E12.42610
G1 X82.988 Y35.275 F3600.000
G1 X81.500 Y33.788 F600.000 E12.65283
G1 X82.475 Y33.713 E12.75822
G1 X82.900 Y34.138 E12.82259
G1 X79.925 Y33.975 F3600.000
G1 X79.400 Y33.650 F600.000 E12.88159
G1 X78.975 Y33.588 E12.92145
G1 X40.825 Y36.475 E16.55464
G1 F1800.000 E12.05464
G92 E0
G1 X27.800 Y55.863 F3600.000
G1 F1800.000 E4.50000
G1 X27.638 Y56.050 F600.000 E4.51792
G1 X27.638 Y56.050
G1 X48.938 Y88.300 E7.58081
G1 X48.975 Y89.225 E7.65393
G1 X49.288 Y90.688 F3600.000
G1 X51.163 Y92.563 F600.000 E7.89913
G1 X45.875 Y91.763 F3600.000
G1 X57.613 Y103.513 F600.000 E9.43671
G1 X58.550 Y103.550 E9.52394
G1 X47.013 Y92.000 E11.03529
G1 X47.813 Y91.913 E11.11013
G1 X59.475 Y103.563 E12.63685
G1 X60.375 Y103.575 E12.72043
G1 X48.400 Y91.588 E14.28917
G1 X48.913 Y91.213 E14.34876
G1 X61.263 Y103.550 E15.96495
G1 X62.125 Y103.525
G1 X52.913 Y94.313 E17.17143
G1 X54.150 Y94.638 E17.28915
G1 X62.975 Y103.463 E18.44537
G1 X63.813 Y103.413 E18.52363
G1 X55.375 Y94.963 E19.62946
G1 X56.600 Y95.288 E19.74718
G1 X64.625 Y103.325 E20.79837
G1 X65.438 Y103.238 E20.87391
G1 X57.825 Y95.625 E21.87047
G1 X59.063 Y95.950 E21.98819
G1 X66.225 Y103.125 E22.92724
G1 X67.013 Y103.000 E23.00029
G1 X60.288 Y96.275 E23.88062
G1 X61.513 Y96.613 E23.99834
G1 X67.775 Y102.875 E24.81884
G1 X68.525 Y102.725 E24.88969
G1 X62.738 Y96.938 E25.64763
G1 X63.975 Y97.263 E25.76535
G1 X69.275 Y102.575 E26.46074
G1 X70.013 Y102.400 E26.53001
G1 X65.200 Y97.588 E27.15993
G1 X66.425 Y97.925 E27.27765
G1 X70.738 Y102.225 E27.84140
G1 X71.450 Y102.038 E27.90987
G1 X67.650 Y98.250 E28.40659
G1 X68.888 Y98.575 E28.52431
G1 X72.150 Y101.838 E28.95143
G1 X72.838 Y101.638 E29.01863
G1 X70.113 Y98.913 E29.37615
G1 X71.338 Y99.238 E29.49387
G1 X73.525 Y101.413 E29.77974
G1 X74.200 Y101.188 E29.84542
G1 X72.425 Y99.425 E30.07718
G1 X73.213 Y99.300 E30.15049
G1 X74.863 Y100.963 E30.36765
G1 X75.513 Y100.713 E30.43208
G1 X73.775 Y98.975 E30.65940
G1 X74.300 Y98.588 E30.71894
G1 X76.163 Y100.463 E30.96353
G1 X76.813 Y100.200 E31.02764
G1 X74.663 Y98.063 E31.30804
G1 X74.963 Y97.463 E31.37029
G1 X77.438 Y99.925 E31.69373
G1 X78.063 Y99.650 E31.75694
G1 X75.250 Y96.850 E32.12406
G1 X75.550 Y96.238 E32.18653
G1 X78.675 Y99.363 E32.59609
G1 X79.275 Y99.075 E32.65830
G1 X75.838 Y95.638 E33.10863
G1 X76.125 Y95.025 E33.17110
G1 X79.875 Y98.775 E33.66221
G1 X80.463 Y98.463 E33.72390
G1 X76.413 Y94.413 E34.25408
G1 X76.713 Y93.800 E34.31655
G1 X81.050 Y98.150 E34.88468
G1 X81.625 Y97.825 E34.94605
G1 X77.000 Y93.200 E35.55213
G1 X77.288 Y92.588 E35.61459
G1 X82.200 Y97.488 E36.25661
G1 X82.750 Y97.150 E36.31726
G1 X77.588 Y91.975 E36.99447
G1 X77.875 Y91.375 E37.05694
G1 X83.313 Y96.813 E37.76934
G1 X83.863 Y96.450 E37.82950
G1 X78.163 Y90.763 E38.57486
G1 X78.463 Y90.150 E38.63733
G1 X84.400 Y96.100 E39.41518
G1 X84.938 Y95.738 E39.47525
G1 X78.750 Y89.550 E40.28560
G1 X79.038 Y88.938 E40.34806
G1 X85.463 Y95.350 E41.18854
G1 X85.975 Y94.975 E41.24814
G1 X79.325 Y88.325 E42.11845
G1 X79.625 Y87.725 E42.18092
G1 X86.500 Y94.600 E43.08108
G1 X87.000 Y94.200 E43.14036
G1 X79.913 Y87.113 E44.06790
G1 X80.200 Y86.500 E44.13036
G1 X87.500 Y93.800 E45.08513
G1 X88.000 Y93.400 E45.14439
G1 X80.500 Y85.900 E46.12639
G1 X80.788 Y85.288 E46.18885
G1 X88.475 Y92.975 E47.19556
G1 X88.950 Y92.550 E47.25460
G1 X81.075 Y84.675 E48.28594
G1 X81.375 Y84.063 E48.34841
G1 X89.438 Y92.138 E49.40439
G1 X89.900 Y91.688 E49.46332
G1 X81.663 Y83.463 E50.54139
G1 X81.950 Y82.850 E50.60386
G1 X90.350 Y91.250 E51.70399
G1 X90.813 Y90.813 E51.76292
G1 X82.238 Y82.238 E52.88511
G1 X82.538 Y81.638 E52.94758
G1 X91.250 Y90.350 E54.08926
G1 X91.688 Y89.900 E54.14819
G1 X82.825 Y81.025 E55.30936
G1 X83.113 Y80.413 E55.37183
G1 X92.138 Y89.438 E56.55247
G1 X92.550 Y88.950 E56.61150
G1 X83.413 Y79.813 E57.80905
G1 X83.700 Y79.200 E57.87152
G1 X92.975 Y88.475 E59.08598
G1 X93.400 Y88.000 E59.14503
G1 X83.988 Y78.588 E60.37633
G1 X84.288 Y77.988 E60.43879
G1 X93.800 Y87.500 E61.68442
G1 X94.200 Y87.000 E61.74368
G1 X84.575 Y77.375 E63.00363
G1 X84.863 Y76.763 E63.06610
G1 X94.600 Y86.500 E64.34021
G1 X94.975 Y85.975 E64.39982
G1 X85.150 Y76.163 E65.68564
G1 X85.450 Y75.550 E65.74811
G1 X95.350 Y85.463 E67.04565
G1 X95.738 Y84.938 E67.10529
G1 X85.738 Y74.938 E68.41426
G1 X86.025 Y74.325 E68.47673
G1 X96.100 Y84.400 E69.79475
G1 X96.450 Y83.863 E69.85481
G1 X86.325 Y73.725 E71.18189
G1 X86.613 Y73.113 E71.24436
G1 X96.813 Y83.313 E72.58003
G1 X97.150 Y82.750 E72.64068
G1 X86.900 Y72.500 E73.98271
G1 X87.200 Y71.900 E74.04517
G1 X97.488 Y82.200 E75.39356
G1 X97.825 Y81.625 E75.45439
G1 X87.488 Y71.288 E76.80839
G1 X87.775 Y70.675 E76.87086
G1 X98.150 Y81.050 E78.22847
G1 X98.463 Y80.463 E78.28983
G1 X88.063 Y70.075 E79.65104
G1 X88.363 Y69.463 E79.71351
G1 X98.775 Y79.875 E81.07719
G1 X99.075 Y79.275 E81.13940
G1 X88.650 Y68.850 E82.50386
G1 X88.938 Y68.250 E82.56633
G1 X99.363 Y78.675 E83.93156
G1 X99.650 Y78.063 E83.99433
G1 X89.238 Y67.638 E85.35868
G1 X89.525 Y67.025 E85.42115
G1 X99.925 Y77.438 E86.78337
G1 X100.200 Y76.813 E86.84658
G1 X89.813 Y66.425 E88.20666
G1 X90.113 Y65.813 E88.26913
G1 X100.463 Y76.163 E89.62471
G1 X100.713 Y75.513 E89.68907
G1 X90.400 Y65.200 E91.03950
G1 X90.688 Y64.600 E91.10197
G1 X100.963 Y74.863 E92.44710
G1 X101.188 Y74.200 E92.51279
G1 X90.975 Y63.988 E93.84964
G1 X91.275 Y63.375 E93.91211
G1 X101.413 Y73.525 E95.24069
G1 X101.638 Y72.838 E95.30692
G1 X91.563 Y62.763 E96.62601
G1 X91.850 Y62.163 E96.68848
G1 X101.838 Y72.150 E97.99603
G1 X102.038 Y71.450 E98.06322
G1 X92.150 Y61.550 E99.35923
G1 X92.438 Y60.938 E99.42170
G1 X102.225 Y70.738 E100.70359
G1 X102.400 Y70.013 E100.77250
G1 X92.725 Y60.338 E102.03941
G1 X93.025 Y59.725 E102.10188
G1 X102.575 Y69.275 E103.35312
G1 X102.725 Y68.525 E103.42397
G1 X93.313 Y59.113 E104.65662
G1 X93.600 Y58.513 E104.71909
G1 X102.875 Y67.775 E105.93316
G1 X103.000 Y67.013 E106.00556
G1 X93.888 Y57.900 E107.19831
G1 X94.050 Y57.163 E107.26858
G1 X103.125 Y66.225 E108.45644
G1 X103.238 Y65.438 E108.53022
G1 X93.925 Y56.138 E109.74899
G1 X92.325 Y54.538 F3600.000
G1 X91.338 Y53.538 F600.000 E109.87921
G1 X91.625 Y52.938
G1 X103.325 Y64.625 E111.41039
G1 X103.413 Y63.813 E111.48593
G1 X91.925 Y52.325 E112.99036
G1 X92.213 Y51.725 E113.05274
G1 X103.463 Y62.975 E114.52616
G1 X103.525 Y62.125 E114.60451
G1 X92.513 Y51.113 E116.04679
G1 X92.800 Y50.513 E116.10917
G1 X103.550 Y61.263 E117.51689
G1 X103.575 Y60.375 E117.59844
G1 X93.088 Y49.900 E118.97028
G1 X93.275 Y49.188 E119.03885
G1 X103.563 Y59.475 E120.38649
G1 X103.550 Y58.550 E120.47169
G1 X93.188 Y48.200 E121.82816
G1 X92.863 Y46.975 E121.94491
G1 X103.513 Y57.613 E123.33785
G1 X103.438 Y56.650 E123.42720
G1 X92.550 Y45.763 E124.85376
G1 X92.225 Y44.538 E124.97051
G1 X103.350 Y55.663 E126.42743
G1 X103.250 Y54.650 E126.52155
G1 X91.913 Y43.313 E128.00586
G1 X91.588 Y42.100 E128.12261
G1 X103.100 Y53.613 E129.62977
G1 X102.938 Y52.550 E129.72940
G1 X91.263 Y40.875 E131.25701
G1 X90.950 Y39.663 E131.37376
G1 X102.713 Y51.425 E132.91489
G1 X102.475 Y50.288 E133.02262
G1 X90.625 Y38.438 E134.57435
G1 X90.313 Y37.213 E134.69110
G1 X102.188 Y49.100 E136.24655
G1 X101.838 Y47.850 E136.36612
G1 X89.988 Y36.000 E137.91831
G1 X89.675 Y34.775 E138.03507
G1 X101.450 Y46.563 E139.57779
G1 X100.988 Y45.200 F3600.000
G1 X89.350 Y33.563 F600.000 E141.10184
G1 X89.025 Y32.338 F3600.000
G1 X100.425 Y43.738 F600.000 E142.59401
G1 X99.763 Y42.163 F3600.000
G1 X88.713 Y31.125 F600.000 E144.04051
G1 X88.388 Y29.900 F3600.000
G1 X98.938 Y40.450 F600.000 E145.42242
G1 X97.925 Y38.538 F3600.000
G1 X81.450 Y22.063 F600.000 E147.57854
G1 X79.538 Y21.050 F3600.000
G1 X86.775 Y28.288 F600.000 E148.52620
G1 X85.713 Y28.125 F3600.000
G1 X77.825 Y20.225 F600.000 E149.55988
G1 X76.250 Y19.563 F3600.000
G1 X84.875 Y28.188 F600.000 E150.68953
G1 X84.050 Y28.250
G1 X74.788 Y19.000 E151.90139
G1 X73.425 Y18.538 F3600.000
G1 X83.213 Y28.313 F600.000 E153.18223
G1 X82.375 Y28.388 E153.25981
G1 X72.138 Y18.150 E154.60043
G1 X70.888 Y17.800 E154.72000
G1 X81.538 Y28.450 E156.11419
G1 X80.700 Y28.513 E156.19178
G1 X69.700 Y17.513 E157.63256
G1 X68.563 Y17.275 E157.74029
G1 X79.863 Y28.575 E159.22078
G1 X79.025 Y28.638 E159.29836
G1 X67.438 Y17.050 E160.81566
G1 X66.375 Y16.888 E160.91529
G1 X78.200 Y28.700 E162.46244
G1 X77.363 Y28.763 E162.54002
G1 X65.338 Y16.738 E164.11464
G1 X64.325 Y16.638 E164.20876
G1 X76.525 Y28.838 E165.80629
G1 X75.688 Y28.900 E165.88387
G1 X63.338 Y16.550 E167.50136
G1 X62.375 Y16.475 E167.59071
G1 X74.850 Y28.963 E169.22489
G1 X74.013 Y29.025 E169.30248
G1 X61.438 Y16.438 E170.95051
G1 X60.513 Y16.425 E171.03570
G1 X73.188 Y29.088 E172.69478
G1 X72.350 Y29.150 E172.77237
G1 X59.613 Y16.413 E174.44025
G1 X58.725 Y16.438 E174.52181
G1 X71.513 Y29.225 E176.19560
G1 X70.675 Y29.288 E176.27319
G1 X57.863 Y16.463 E177.95158
G1 X57.013 Y16.525 E178.02993
G1 X69.838 Y29.350 E179.70950
G1 X69.000 Y29.413 E179.78709
G1 X56.175 Y16.575 E181.46769
G1 X55.363 Y16.663 E181.54323
G1 X68.175 Y29.475 E183.22063
G1 X67.338 Y29.538 E183.29822
G1 X54.550 Y16.750 E184.97242
G1 X53.763 Y16.863 E185.04620
G1 X66.500 Y29.600 E186.71433
G1 X65.663 Y29.675 E186.79191
G1 X52.975 Y16.988 E188.45275
G1 X52.213 Y17.113 E188.52515
G1 X64.825 Y29.738 E190.17758
G1 X63.988 Y29.800 E190.25517
G1 X51.463 Y17.263 E191.89648
G1 X50.713 Y17.413 E191.96733
G1 X63.163 Y29.863 E193.59752
G1 X62.325 Y29.925 E193.67511
G1 X49.975 Y17.588 E195.29126
G1 X49.250 Y17.763 E195.36017
G1 X61.488 Y29.988 E196.96159
G1 X60.650 Y30.050 E197.03917
G1 X48.538 Y17.950 E198.62499
G1 X47.838 Y18.150 E198.69219
G1 X59.813 Y30.125 E200.25984
G1 X58.975 Y30.188 E200.33743
G1 X47.150 Y18.350 E201.88691
G1 X46.463 Y18.575 E201.95314
G1 X58.138 Y30.250 E203.48240
G1 X57.313 Y30.313 E203.55999
G1 X45.788 Y18.800 E205.06782
G1 X45.125 Y19.025 E205.13350
G1 X56.475 Y30.375 E206.61989
G1 X55.638 Y30.438 E206.69748
G1 X44.475 Y19.275 E208.15946
G1 X43.825 Y19.525 E208.22382
G1 X54.800 Y30.500 E209.66125
G1 X53.963 Y30.575 E209.73883
G1 X43.175 Y19.788 E211.15104
G1 X42.550 Y20.063 E211.21425
G1 X53.125 Y30.638 E212.59888
G1 X52.300 Y30.700 E212.67647
G1 X41.925 Y20.338 E214.03353
G1 X41.313 Y20.625 E214.09629
G1 X51.463 Y30.763 E215.42453
G1 X50.625 Y30.825 E215.50211
G1 X40.713 Y20.913 E216.79985
G1 X40.113 Y21.213 E216.86207
G1 X49.788 Y30.888 E218.12932
G1 X48.950 Y30.963 E218.20691
G1 X39.525 Y21.525 E219.44198
G1 X38.938 Y21.838 E219.50334
G1 X48.113 Y31.025 E220.70510
G1 X47.288 Y31.088 E220.78269
G1 X38.363 Y22.163 E221.95113
G1 X37.788 Y22.500 E222.01196
G1 X46.450 Y31.150 E223.14508
G1 X45.613 Y31.213 E223.22266
G1 X37.238 Y22.838 E224.31971
G1 X36.675 Y23.175 E224.38036
G1 X44.775 Y31.275 E225.44133
G1 X43.938 Y31.338 E225.51892
G1 X36.125 Y23.538 E226.54160
G1 X35.588 Y23.888 E226.60166
G1 X43.100 Y31.413 E227.58557
G1 X42.275 Y31.475 E227.66316
G1 X35.050 Y24.250 E228.60830
G1 X34.525 Y24.638 E228.66794
G1 X41.438 Y31.538 E229.57194
G1 X40.675 Y31.688 E229.64293
G1 X34.013 Y25.013 E230.51639
G1 X33.488 Y25.388 E230.57599
G1 X40.063 Y31.963 E231.43683
G1 X39.625 Y32.425 E231.49574
G1 X32.988 Y25.788 E232.36372
G1 X32.488 Y26.188 E232.42298
G1 X39.238 Y32.938 E233.30593
G1 X38.988 Y33.588 E233.37036
G1 X31.988 Y26.588 E234.28585
G1 X31.513 Y27.013 E234.34490
G1 X38.913 Y34.425 E235.31461
G1 X38.900 Y36.200 E235.48001
G1 X30.550 Y27.850 E236.57352
G1 X30.088 Y28.300 E236.63244
G1 X38.075 Y36.275 E237.67670
G1 X37.238 Y36.338 E237.75434
G1 X29.638 Y28.738 E238.74930
G1 X29.175 Y29.175 E238.80823
G1 X36.400 Y36.400 E239.75390
G1 X35.563 Y36.463 E239.83155
G1 X28.738 Y29.638 E240.72536
G1 X28.300 Y30.088 E240.78428
G1 X34.725 Y36.525 E241.62623
G1 X34.038 Y36.738 E241.69316
G1 X27.850 Y30.550 E242.50204
G1 X27.438 Y31.038 E242.56108
G1 X33.438 Y37.038 E243.34770
G1 X32.988 Y37.488 E243.40662
G1 X27.013 Y31.513 E244.18842
G1 X26.588 Y31.988 E244.24746
G1 X32.525 Y37.925 E245.02436
G1 X32.075 Y38.363 E245.08328
G1 X26.188 Y32.488 E245.85277
G1 X25.788 Y32.988 E245.91203
G1 X31.613 Y38.813 E246.67410
G1 X31.150 Y39.250 E246.73302
G1 X25.388 Y33.488 E247.48753
G1 X25.013 Y34.013 E247.54713
G1 X30.700 Y39.700 E248.29161
G1 X30.238 Y40.138 E248.35053
G1 X24.638 Y34.525 E249.08498
G1 X24.250 Y35.050 E249.14462
G1 X29.788 Y40.588 E249.86877
G1 X29.325 Y41.025 E249.92768
G1 X23.888 Y35.588 E250.63915
G1 X23.538 Y36.125 E250.69921
G1 X28.863 Y41.463 E251.39799
G1 X28.413 Y41.913 E251.45691
G1 X23.175 Y36.675 E252.14254
G1 X22.838 Y37.238 E252.20319
G1 X27.950 Y42.350 E252.87345
G1 X27.500 Y42.800 E252.93237
G1 X22.500 Y37.788 E253.58725
G1 X22.163 Y38.363 E253.64808
G1 X27.038 Y43.238 E254.28683
G1 X26.588 Y43.675 E254.34575
G1 X21.838 Y38.938 E254.96637
G1 X21.525 Y39.525 E255.02774
G1 X26.125 Y44.125 E255.63023
G1 X25.663 Y44.563 E255.68915
G1 X21.213 Y40.113 E256.27237
G1 X20.913 Y40.713 E256.33458
G1 X25.213 Y45.013 E256.89684
G1 X24.750 Y45.450 E256.95576
G1 X20.625 Y41.313 E257.49707
G1 X20.338 Y41.925 E257.55983
G1 X24.300 Y45.888 E258.07852
G1 X23.838 Y46.338 E258.13743
G1 X20.063 Y42.550 E258.63224
G1 X19.788 Y43.175 E258.69545
G1 X23.388 Y46.775 E259.16639
G1 X22.925 Y47.225 E259.22531
G1 X19.525 Y43.825 E259.67001
G1 X19.275 Y44.475 E259.73437
G1 X22.463 Y47.663 E260.15219
G1 X22.013 Y48.100 E260.21111
G1 X19.025 Y45.125 E260.60188
G1 X18.800 Y45.788 E260.66757
G1 X21.550 Y48.550 E261.02833
G1 X21.100 Y48.988 E261.08725
G1 X18.575 Y46.463 E261.41800
G1 X18.350 Y47.150 E261.48423
G1 X20.638 Y49.438 E261.78376
G1 X20.175 Y49.875 E261.84267
G1 X18.150 Y47.838 E262.10892
G1 X17.950 Y48.538 E262.17611
G1 X19.800 Y50.388 E262.41854
G1 X19.550 Y51.038 E262.48303
G1 X17.763 Y49.250 E262.71680
G1 X17.588 Y49.975 E262.78571
G1 X19.413 Y51.813 E263.02564
G1 X19.888 Y53.175 F3600.000
G1 X17.413 Y50.713 F600.000 E263.34915
G1 X17.263 Y51.463
G1 X21.650 Y55.838 E263.92281
G1 X23.400 Y58.500 F3600.000
G1 X17.113 Y52.213 F600.000 E264.74661
G1 X16.988 Y52.975
G1 X25.163 Y61.163 E265.81784
G1 X26.925 Y63.825 F3600.000
G1 X16.863 Y53.763 F600.000 E267.13538
G1 X16.750 Y54.550
G1 X28.688 Y66.488 E268.69801
G1 X30.450 Y69.138 F3600.000
G1 X16.663 Y55.363 F600.000 E270.50287
G1 X16.575 Y56.175
G1 X32.213 Y71.800 E272.54997
G1 X33.975 Y74.463 F3600.000
G1 X16.525 Y57.013 F600.000 E274.83504
G1 X16.463 Y57.863
G1 X35.738 Y77.125 E277.35796
G1 X37.500 Y79.788 F3600.000
G1 X16.438 Y58.725 F600.000 E280.11531
G1 X16.413 Y59.613
G1 X39.250 Y82.450 E283.10577
G1 X41.013 Y85.113 F3600.000
G1 X16.425 Y60.513 F600.000 E286.32646
G1 X16.438 Y61.438
G1 X42.775 Y87.775 E289.77511
G1 X44.538 Y90.425 F3600.000
G1 X16.475 Y62.375 F600.000 E293.44894
G1 X16.550 Y63.338
G1 X56.650 Y103.438 E298.70054
G1 X55.663 Y103.350 E298.79237
G1 X16.638 Y64.325 E303.90307
G1 X16.738 Y65.338 E303.99719
G1 X54.650 Y103.250 E308.96109
G1 X53.613 Y103.100 E309.05879
G1 X16.888 Y66.375 E313.86679
G1 X17.050 Y67.438 E313.96642
G1 X52.550 Y102.938 E318.61373
G1 X51.425 Y102.713 E318.71904
G1 X17.275 Y68.563 E323.19176
G1 X17.513 Y69.700 E323.29949
G1 X50.288 Y102.475 E327.59183
G1 X49.100 Y102.188 E327.70539
G1 X17.800 Y70.888 E331.80357
G1 X18.150 Y72.138 E331.92314
G1 X47.850 Y101.838 E335.81321
G1 X46.563 Y101.450 E335.93823
G1 X18.538 Y73.425 E339.60776
G1 X19.000 Y74.788 F3600.000
G1 X45.200 Y100.988 F600.000 E343.03836
G1 X43.738 Y100.425 F3600.000
G1 X19.563 Y76.250 F600.000 E346.20357
G1 X20.225 Y77.825 F3600.000
G1 X42.163 Y99.763 F600.000 E349.07587
G1 X40.450 Y98.938 F3600.000
G1 X21.050 Y79.538 F600.000 E351.61737
G1 X22.063 Y81.450 F3600.000
G1 X38.538 Y97.925 F600.000 E353.77350
G1 X36.238 Y96.525 F3600.000
G1 X23.463 Y83.750 F600.000 E355.44730
G1 X25.725 Y86.913 F3600.000
G1 X33.075 Y94.263 F600.000 E356.40863
G1 F1800.000 E351.90863
G92 E0
G1 X39.738 Y36.138 F3600.000
G1 F1800.000 E4.50000
G1 X31.038 Y27.438 F600.000 E5.64023
G1 X83.750 Y23.463 F3600.000
G1 X96.525 Y36.238 F600.000 E7.31403
G1 X94.263 Y33.075 F3600.000
G1 X86.913 Y25.725 F600.000 E8.27536
G1 F1800.000 E3.77536
G92 E0
G1 X91.038 Y54.150 F3600.000
G1 F1800.000 E4.50000
G1 X91.275 Y54.375 F600.000 E4.53053
G1 F1800.000 E0.03053
G92 E0
G1 X86.038 Y51.938 F3600.000
G1 F1800.000 E4.50000
G1 X86.200 Y52.138 F600.000 E4.52020
G1 X86.175 Y52.850 E4.57616
G1 X69.100 Y88.438 E7.68962
G1 X69.188 Y89.213 E7.75133
G1 F1800.000 E3.25133
G92 E0
G1 X72.788 Y90.738 F3600.000
G1 F1800.000 E4.50000
G1 X89.450 Y56.150 F600.000 E7.34396
G1 X89.750 Y55.813 E7.37750
G1 X89.975 Y55.763 E7.39506
G1 X71.700 Y91.713 F3600.000
G1 X71.775 Y91.788 F600.000 E7.40542
G1 X71.463 Y92.438 E7.47664
G1 X70.763 Y91.738 E7.57389
G1 X70.263 Y92.200 E7.64123
G1 X71.000 Y92.938 E7.74352
G1 X69.775 Y92.163 F3600.000
G1 X70.000 Y91.563 F600.000 E7.78862
G1 X70.225 Y91.438 E7.80699
G1 X69.650 Y91.450
G1 X68.688 Y90.488 E7.95943
G1 X68.338 Y91.225 E8.05055
G1 X69.175 Y92.063 E8.18282
; infill_end
G1 F1800.000 E3.68282
G92 E0
; Layer: 2 Time: 590
G1 Z0.550 F3600.000
; Region: 0
; perimeter_start
G1 X61.475 Y66.650
G1 F1800.000 E4.50000
G1 X60.475 Y66.775 F540.000 E4.51663
G1 X60.288 Y66.800 E4.52290
G1 X59.475 Y66.775 E4.54989
G1 X59.100 Y66.750 F600.000 E4.56242
G1 X58.500 Y66.613 E4.58315
G1 X57.938 Y66.500 F660.000 E4.60195
G1 X57.538 Y66.325 E4.61641
G1 X56.850 Y66.038 F720.000 E4.64148
G1 X56.638 Y65.913 E4.64967
G1 X55.838 Y65.400 F780.000 E4.68100
G1 X55.800 Y65.363 E4.68293
G1 X55.063 Y64.688 F840.000 E4.71619
G1 X54.963 Y64.600 F900.000 E4.72053
G1 X54.238 Y63.663 E4.76006
G1 X53.700 Y62.600 E4.79958
G1 X53.338 Y61.475 E4.83911
G1 X53.188 Y60.288 E4.87864
G1 X53.238 Y59.100 E4.91816
G1 X53.488 Y57.938 E4.95769
G1 X53.950 Y56.850 E4.99722
G1 X54.588 Y55.838 E5.03675
G1 X55.388 Y54.963 E5.07627
G1 X56.325 Y54.238 E5.11580
G1 X57.388 Y53.700 E5.15533
G1 X58.513 Y53.338 E5.19485
G1 X59.700 Y53.188 E5.23438
G1 X60.888 Y53.238 E5.27391
G1 X62.050 Y53.488 E5.31343
G1 X63.138 Y53.950 E5.35296
G1 X64.150 Y54.588 E5.39249
G1 X65.025 Y55.388 E5.43201
G1 X65.750 Y56.325 E5.47154
G1 X66.288 Y57.388 E5.51107
G1 X66.650 Y58.513 E5.55059
G1 X66.800 Y59.700 E5.59012
G1 X66.750 Y60.888 E5.62965
G1 X66.513 Y61.975 E5.66686
G1 X66.500 Y62.050 F840.000 E5.66917
G1 X66.138 Y62.900 E5.70012
G1 X66.038 Y63.138 F780.000 E5.70870
G1 X65.638 Y63.763 E5.73338
G1 X65.400 Y64.150 F720.000 E5.74823
G1 X65.025 Y64.550 E5.76664
G1 X64.600 Y65.025 F660.000 E5.78775
G1 X64.313 Y65.238 E5.79990
G1 X63.663 Y65.750 F600.000 E5.82728
G1 X63.500 Y65.825 E5.83316
G1 X62.613 Y66.288 F540.000 E5.86642
G1 X62.600 Y66.288 E5.86662
G1 X61.663 Y66.588 E5.88305
G1 X61.388 Y66.263
G1 X60.388 Y66.388 E5.89968
G1 X60.275 Y66.400 E5.90362
G1 X59.388 Y66.363 E5.93294
G1 X59.163 Y66.350 F600.000 E5.94082
G1 X58.413 Y66.188 E5.96620
G1 X58.063 Y66.113 F660.000 E5.97802
G1 X57.463 Y65.863 E5.99946
G1 X57.025 Y65.688 F720.000 E6.01522
G1 X56.588 Y65.400 E6.03272
G1 X56.088 Y65.088 F780.000 E6.05242
G1 X55.788 Y64.813 E6.06598
G1 X55.263 Y64.325 F840.000 E6.08962
G1 X55.088 Y64.100 E6.09924
G1 X54.588 Y63.438 F900.000 E6.12682
G1 X54.063 Y62.450 E6.16401
G1 X53.725 Y61.388 E6.20121
G1 X53.588 Y60.275 E6.23841
G1 X53.638 Y59.163 E6.27561
G1 X53.875 Y58.063 E6.31281
G1 X54.300 Y57.025 E6.35001
G1 X54.900 Y56.088 E6.38721
G1 X55.663 Y55.263 E6.42441
G1 X56.550 Y54.588 E6.46161
G1 X57.538 Y54.063 E6.49880
G1 X58.600 Y53.725 E6.53600
G1 X59.713 Y53.588 E6.57320
G1 X60.825 Y53.638 E6.61040
G1 X61.925 Y53.875 E6.64760
G1 X62.963 Y54.300 E6.68480
G1 X63.900 Y54.900 E6.72200
G1 X64.725 Y55.663 E6.75920
G1 X65.400 Y56.550 E6.79640
G1 X65.925 Y57.538 E6.83359
G1 X66.263 Y58.600 E6.87079
G1 X66.400 Y59.713 E6.90799
G1 X66.350 Y60.825 E6.94519
G1 X66.225 Y61.450 E6.96611
G1 X66.113 Y61.925 F840.000 E6.98239
G1 X65.913 Y62.400 E6.99937
G1 X65.688 Y62.963 F780.000 E7.01959
G1 X65.475 Y63.288 E7.03263
G1 X65.088 Y63.900 F720.000 E7.05679
G1 X64.900 Y64.100 E7.06589
G1 X64.325 Y64.725 F660.000 E7.09399
G1 X64.200 Y64.825 E7.09915
G1 X63.438 Y65.400 F600.000 E7.13119
G1 X63.413 Y65.425 E7.13241
G1 X62.525 Y65.888 F540.000 E7.16567
G1 X62.450 Y65.925 E7.16703
G1 X61.575 Y66.200 E7.18230
G1 X61.125 Y67.013
G1 F1800.000 E2.68230
G92 E0
G1 X68.113 Y51.225 F3600.000
G1 F1800.000 E4.50000
G1 X67.100 Y50.375 F900.000 E4.54426
G1 X66.263 Y49.800 E4.57803
G1 X65.300 Y49.250 E4.61491
G1 X64.450 Y48.863 E4.64582
G1 X63.500 Y48.513 E4.67972
G1 X62.513 Y48.250 E4.71361
G1 X61.513 Y48.063 E4.74749
G1 X60.500 Y47.975 E4.78137
G1 X59.475 Y47.963 E4.81525
G1 X58.463 Y48.038 E4.84913
G1 X57.450 Y48.213 E4.88302
G1 X56.463 Y48.463 E4.91690
G1 X55.500 Y48.788 E4.95078
G1 X54.575 Y49.213 E4.98466
G1 X53.688 Y49.700 E5.01855
G1 X52.838 Y50.263 E5.05237
G1 X51.863 Y51.063 E5.09451
G1 X51.438 Y51.250 E5.10973
G1 X50.913 Y51.313 E5.12729
G1 X50.450 Y51.200 E5.14311
G1 X39.900 Y45.388 E5.54383
G1 X39.425 Y44.950 E5.56520
G1 X39.050 Y44.325 E5.58942
G1 X38.900 Y43.788 E5.60786
G1 X38.875 Y43.163 E5.62897
G1 X39.013 Y42.538 E5.65009
G1 X39.250 Y42.050 E5.66809
G1 X39.588 Y41.625 E5.68621
G1 X40.213 Y41.150 E5.71214
G1 X83.463 Y37.825 E7.15503
G1 X83.763 Y37.675 E7.16626
G1 X83.963 Y37.275 E7.18096
G1 X83.688 Y33.488 E7.30739
G1 X83.613 Y33.213 E7.31709
G1 X83.413 Y32.975 E7.32721
G1 X83.075 Y32.850 E7.33908
G1 X41.588 Y36.013 E8.72303
G1 X40.813 Y35.863 E8.74931
G1 X40.263 Y35.475 E8.77186
G1 X39.900 Y34.950 E8.79276
G1 X39.738 Y34.288 E8.81551
G1 X39.813 Y33.625 E8.83787
G1 X40.063 Y33.125 E8.85652
G1 X40.575 Y32.613 E8.88043
G1 X41.125 Y32.375 E8.90074
G1 X86.113 Y28.938 E10.40130
G1 X86.825 Y29.175 E10.42619
G1 X87.225 Y29.475 E10.44291
G1 X87.563 Y29.938 E10.46174
G1 X92.500 Y48.788 E11.11009
G1 X92.425 Y49.400 E11.13064
G1 X72.825 Y89.975 E12.62947
G1 X72.363 Y90.550 E12.65387
G1 X71.650 Y90.900 E12.68038
G1 X70.850 Y90.925 E12.70686
G1 X70.150 Y90.625 E12.73235
G1 X69.713 Y90.213 E12.75213
G1 X69.425 Y89.663 E12.77293
G1 X69.350 Y89.088 E12.79193
G1 X69.450 Y88.500 E12.81217
G1 X88.075 Y49.638 E14.24513
G1 X88.150 Y49.363 E14.25494
G1 X88.113 Y49.125 E14.26288
G1 X84.838 Y43.425 E14.48154
G1 X84.613 Y43.225 E14.49152
G1 X84.388 Y43.163 E14.49918
G1 X84.100 Y43.200 E14.50876
G1 X70.150 Y51.225 E15.04418
G1 X69.600 Y51.388 E15.06329
G1 X68.925 Y51.413 E15.08572
G1 X68.313 Y51.275 E15.10671
G1 X68.300 Y50.863
G1 X67.338 Y50.050 E15.14842
G1 X66.475 Y49.463 E15.18340
G1 X65.475 Y48.888 E15.22143
G1 X64.600 Y48.488 E15.25345
G1 X63.613 Y48.125 E15.28847
G1 X62.600 Y47.850 E15.32350
G1 X61.563 Y47.663 E15.35852
G1 X60.513 Y47.575 E15.39354
G1 X59.463 Y47.563 E15.42856
G1 X58.413 Y47.650 E15.46358
G1 X57.375 Y47.813 E15.49860
G1 X56.350 Y48.075 E15.53362
G1 X55.363 Y48.425 E15.56864
G1 X54.400 Y48.850 E15.60366
G1 X53.475 Y49.363 E15.63868
G1 X52.600 Y49.950 E15.67368
G1 X51.650 Y50.725 E15.71468
G1 X51.338 Y50.863 E15.72602
G1 X50.938 Y50.900 E15.73927
G1 X50.588 Y50.825 E15.75101
G1 X40.138 Y45.063 E16.14822
G1 X39.738 Y44.688 E16.16608
G1 X39.425 Y44.163 E16.18667
G1 X39.300 Y43.725 E16.20178
G1 X39.275 Y43.188 E16.21955
G1 X39.388 Y42.675 E16.23733
G1 X39.588 Y42.263 E16.25229
G1 X39.863 Y41.913 E16.26728
G1 X40.350 Y41.550 E16.28764
G1 X83.550 Y38.225 E17.72855
G1 X83.850 Y38.113 E17.73910
G1 X84.050 Y37.950 E17.74776
G1 X84.288 Y37.613 E17.76148
G1 X84.363 Y37.313 E17.77168
G1 X84.088 Y33.413 E17.90168
G1 X83.975 Y33.013 E17.91556
G1 X83.675 Y32.663 E17.93095
G1 X83.413 Y32.513 E17.94087
G1 X83.113 Y32.450 E17.95135
G1 X41.613 Y35.613 E19.33540
G1 X40.975 Y35.488 E19.35703
G1 X40.550 Y35.188 E19.37444
G1 X40.275 Y34.788 E19.39061
G1 X40.138 Y34.263 E19.40846
G1 X40.200 Y33.738 E19.42610
G1 X40.388 Y33.363 E19.44020
G1 X40.800 Y32.950 E19.45933
G1 X41.225 Y32.775 E19.47494
G1 X86.063 Y29.338 E20.97058
G1 X86.638 Y29.525 E20.99051
G1 X86.938 Y29.763 E21.00309
G1 X87.188 Y30.113 E21.01754
G1 X92.100 Y48.813 E21.66084
G1 X92.038 Y49.288 E21.67664
G1 X72.475 Y89.763 E23.17172
G1 X72.100 Y90.225 E23.19169
G1 X71.550 Y90.513 E23.21235
G1 X70.925 Y90.525 E23.23300
G1 X70.375 Y90.288 E23.25313
G1 X70.038 Y89.975 E23.26823
G1 X69.813 Y89.538 E23.28465
G1 X69.750 Y89.100 E23.29930
G1 X69.838 Y88.613 E23.31554
G1 X88.450 Y49.788 E24.74794
G1 X88.550 Y49.388 E24.76158
G1 X88.500 Y48.988 E24.77475
G1 X85.150 Y43.163 E24.99849
G1 X84.800 Y42.863 E25.01363
G1 X84.425 Y42.750 E25.02683
G1 X83.975 Y42.813 E25.04184
G1 X69.988 Y50.850 E25.57834
G1 X69.538 Y50.988 E25.59430
G1 X68.963 Y51.013 E25.61326
G1 X68.500 Y50.913 E25.62921
G1 X67.600 Y51.250
G1 F1800.000 E21.12921
G92 E0
G1 X79.725 Y37.550 F3600.000
G1 F1800.000 E4.50000
G1 X36.613 Y40.913 F900.000 E5.93823
G1 X36.350 Y41.075 E5.94867
G1 X33.075 Y46.963 E6.17252
G1 X33.038 Y47.213 E6.18098
G1 X33.100 Y47.488 E6.19017
G1 X33.275 Y47.700 E6.19950
G1 X47.550 Y55.600 E6.74226
G1 X47.863 Y55.925 E6.75721
G1 X48.200 Y56.588 E6.78214
G1 X48.275 Y57.100 E6.79931
G1 X48.000 Y59.038 E6.86433
G1 X47.975 Y60.063 E6.89855
G1 X48.038 Y61.100 E6.93301
G1 X48.188 Y62.125 E6.96746
G1 X48.425 Y63.138 E7.00191
G1 X48.750 Y64.113 E7.03637
G1 X49.163 Y65.063 E7.07082
G1 X49.663 Y65.975 E7.10527
G1 X50.225 Y66.850 E7.13973
G1 X50.863 Y67.663 E7.17418
G1 X51.575 Y68.413 E7.20863
G1 X52.350 Y69.100 E7.24309
G1 X53.175 Y69.725 E7.27754
G1 X54.063 Y70.275 E7.31199
G1 X54.988 Y70.738 E7.34635
G1 X56.288 Y71.250 E7.39283
G1 X56.750 Y71.525 E7.41113
G1 X57.188 Y72.038 E7.43334
G1 X57.438 Y72.725 E7.45768
G1 X57.488 Y84.613 E7.85312
G1 X57.413 Y85.213 E7.87325
G1 X57.163 Y85.788 E7.89409
G1 X56.900 Y86.163 E7.90936
G1 X56.363 Y86.650 E7.93351
G1 X55.688 Y86.950 E7.95831
G1 X54.938 Y87.038 E7.98311
G1 X54.213 Y86.900 E8.00792
G1 X53.550 Y86.563 E8.03272
G1 X53.050 Y86.050 E8.05644
G1 X29.775 Y50.950 E9.45719
G1 X29.450 Y50.788 E9.46921
G1 X29.088 Y50.825 E9.48158
G1 X25.913 Y52.913 E9.60778
G1 X25.713 Y53.088 E9.61666
G1 X25.600 Y53.463 E9.62945
G1 X25.663 Y53.763 E9.63991
G1 X48.575 Y88.375 E11.02051
G1 X48.813 Y88.913 E11.03996
G1 X48.838 Y89.625 E11.06365
G1 X48.688 Y90.125 E11.08076
G1 X48.263 Y90.725 E11.10550
G1 X47.600 Y91.113 E11.13089
G1 X46.850 Y91.200 E11.15607
G1 X46.138 Y90.988 E11.18104
G1 X45.588 Y90.538 E11.20460
G1 X20.400 Y52.488 E12.72248
G1 X20.225 Y51.725 E12.74847
G1 X20.400 Y50.963 E12.77427
G1 X20.663 Y50.538 E12.79092
G1 X33.988 Y37.650 E13.40752
G1 X34.650 Y37.350 E13.43162
G1 X79.513 Y33.925 E14.92833
G1 X80.263 Y34.213 E14.95474
G1 X80.775 Y34.725 E14.97880
G1 X81.050 Y35.388 E15.00263
G1 X81.063 Y36.088 E15.02601
G1 X80.863 Y36.650 E15.04566
G1 X80.363 Y37.238 E15.07124
G1 X79.900 Y37.463 E15.08857
G1 X79.613 Y37.163
G1 X36.513 Y40.513 E16.52651
G1 X36.275 Y40.625 E16.53519
G1 X36.038 Y40.825 E16.54557
G1 X32.700 Y46.825 E16.77410
G1 X32.625 Y47.225 E16.78757
G1 X32.725 Y47.663 E16.80244
G1 X33.013 Y48.013 E16.81737
G1 X47.300 Y55.925 E17.36093
G1 X47.538 Y56.163 E17.37189
G1 X47.813 Y56.713 E17.39243
G1 X47.875 Y57.100 E17.40552
G1 X47.613 Y59.000 E17.46948
G1 X47.575 Y60.075 E17.50501
G1 X47.638 Y61.138 E17.54062
G1 X47.800 Y62.200 E17.57623
G1 X48.050 Y63.250 E17.61184
G1 X48.388 Y64.263 E17.64745
G1 X48.800 Y65.238 E17.68306
G1 X49.313 Y66.188 E17.71867
G1 X49.900 Y67.075 E17.75429
G1 X50.563 Y67.925 E17.78990
G1 X51.300 Y68.700 E17.82551
G1 X52.100 Y69.413 E17.86112
G1 X52.950 Y70.050 E17.89673
G1 X53.863 Y70.625 E17.93234
G1 X54.813 Y71.100 E17.96792
G1 X56.113 Y71.600 E18.01393
G1 X56.500 Y71.838 E18.02897
G1 X56.838 Y72.238 E18.04658
G1 X57.038 Y72.788 E18.06616
G1 X57.088 Y84.588 E18.45838
G1 X57.013 Y85.100 E18.47588
G1 X56.813 Y85.600 E18.49353
G1 X56.600 Y85.900 E18.50577
G1 X56.138 Y86.313 E18.52629
G1 X55.575 Y86.563 E18.54703
G1 X54.950 Y86.638 E18.56777
G1 X54.338 Y86.525 E18.58852
G1 X53.788 Y86.238 E18.60926
G1 X53.363 Y85.800 E18.62964
G1 X30.025 Y50.625 E20.03340
G1 X29.575 Y50.400 E20.05038
G1 X29.325 Y50.363 E20.05846
G1 X28.925 Y50.450 E20.07212
G1 X25.663 Y52.600 E20.20204
G1 X25.388 Y52.850 E20.21448
G1 X25.225 Y53.175 E20.22645
G1 X25.188 Y53.475 E20.23658
G1 X25.300 Y53.925 E20.25188
G1 X48.225 Y88.575 E21.63373
G1 X48.413 Y89.013 E21.64954
G1 X48.438 Y89.575 E21.66852
G1 X48.325 Y89.938 E21.68116
G1 X47.988 Y90.425 E21.70085
G1 X47.475 Y90.725 E21.72065
G1 X46.888 Y90.800 E21.74028
G1 X46.325 Y90.625 E21.75976
G1 X45.888 Y90.263 E21.77863
G1 X20.775 Y52.325 E23.29208
G1 X20.638 Y51.725 E23.31266
G1 X20.775 Y51.113 E23.33317
G1 X20.975 Y50.788 E23.34591
G1 X34.213 Y37.988 E23.95862
G1 X34.750 Y37.738 E23.97807
G1 X79.463 Y34.338 E25.46940
G1 X80.038 Y34.563 E25.49002
G1 X80.438 Y34.950 E25.50869
G1 X80.650 Y35.475 E25.52728
G1 X80.663 Y36.025 E25.54572
G1 X80.513 Y36.450 E25.56057
G1 X80.113 Y36.913 E25.58091
G1 X79.788 Y37.075 E25.59291
G1 X79.363 Y37.925
G1 F1800.000 E21.09291
G92 E0
G1 X82.725 Y49.775 F3600.000
G1 F1800.000 E4.50000
G1 X83.375 Y49.575 F900.000 E4.52256
G1 X84.075 Y49.588 E4.54579
G1 X84.738 Y49.813 E4.56901
G1 X85.313 Y50.213 E4.59223
G1 X85.725 Y50.763 E4.61545
G1 X85.975 Y51.425 E4.63868
G1 X86.000 Y52.113 E4.66146
G1 X85.900 Y52.613 E4.67870
G1 X67.288 Y91.525 E6.11297
G1 X67.288 Y91.788 E6.12209
G1 X67.388 Y92.013 E6.13020
G1 X67.525 Y92.163 E6.13720
G1 X70.950 Y93.825 E6.26362
G1 X71.213 Y93.900 E6.27250
G1 X71.425 Y93.888 E6.27997
G1 X71.813 Y93.600 E6.29568
G1 X89.913 Y55.925 E7.68598
G1 X90.375 Y55.475 E7.70731
G1 X90.963 Y55.225 E7.72850
G1 X91.588 Y55.175 E7.74968
G1 X92.213 Y55.350 E7.77086
G1 X92.738 Y55.725 E7.79249
G1 X93.138 Y56.375 E7.81785
G1 X93.250 Y56.925 E7.83683
G1 X93.213 Y57.438 E7.85397
G1 X73.988 Y97.613 E9.33524
G1 X73.663 Y98.075 E9.35397
G1 X73.000 Y98.513 E9.38008
G1 X72.225 Y98.625 E9.40650
G1 X53.113 Y93.513 E10.06430
G1 X52.450 Y93.013 E10.09219
G1 X28.250 Y56.488 E11.54921
G1 X28.000 Y55.813 E11.57341
G1 X28.050 Y55.100 E11.59680
G1 X28.238 Y54.625 E11.61401
G1 X28.688 Y54.088 E11.63740
G1 X29.388 Y53.750 E11.66320
G1 X30.050 Y53.700 E11.68527
G1 X30.775 Y53.950 E11.71063
G1 X31.213 Y54.313 E11.72977
G1 X54.513 Y89.475 E13.13275
G1 X54.725 Y89.688 E13.14248
G1 X55.000 Y89.800 E13.15227
G1 X61.875 Y89.813 E13.38111
G1 X62.175 Y89.713 E13.39149
G1 X62.375 Y89.525 E13.40054
G1 X62.488 Y89.263 E13.41005
G1 X62.488 Y72.750 E13.95949
G1 X62.650 Y72.225 E13.97781
G1 X63.025 Y71.663 E14.00027
G1 X63.450 Y71.313 E14.01838
G1 X65.425 Y70.438 E14.09022
G1 X66.313 Y69.925 E14.12432
G1 X67.150 Y69.338 E14.15865
G1 X67.950 Y68.675 E14.19297
G1 X68.675 Y67.938 E14.22730
G1 X69.338 Y67.150 E14.26163
G1 X69.938 Y66.313 E14.29595
G1 X70.450 Y65.413 E14.33028
G1 X70.888 Y64.488 E14.36461
G1 X71.250 Y63.513 E14.39894
G1 X71.525 Y62.513 E14.43326
G1 X71.713 Y61.500 E14.46759
G1 X71.800 Y60.475 E14.50192
G1 X71.813 Y59.450 E14.53601
G1 X71.563 Y57.038 E14.61648
G1 X71.788 Y56.350 E14.64058
G1 X72.238 Y55.825 E14.66388
G1 X82.550 Y49.875 E15.05978
G1 X82.888 Y50.138
G1 X83.425 Y49.988 E15.07874
G1 X84.013 Y49.988 E15.09792
G1 X84.550 Y50.175 E15.11710
G1 X85.025 Y50.500 E15.13628
G1 X85.375 Y50.963 E15.15546
G1 X85.575 Y51.500 E15.17464
G1 X85.600 Y52.075 E15.19368
G1 X85.513 Y52.488 E15.20761
G1 X66.888 Y91.425 E16.64327
G1 X66.888 Y91.875 E16.65812
G1 X67.050 Y92.238 E16.67148
G1 X67.288 Y92.500 E16.68329
G1 X70.813 Y94.200 E16.81329
G1 X71.175 Y94.300 E16.82572
G1 X71.525 Y94.275 E16.83769
G1 X71.813 Y94.150 E16.84783
G1 X72.138 Y93.838 E16.86313
G1 X90.238 Y56.163 E18.25337
G1 X90.600 Y55.813 E18.26996
G1 X91.050 Y55.613 E18.28650
G1 X91.550 Y55.575 E18.30304
G1 X92.025 Y55.713 E18.31958
G1 X92.438 Y56.000 E18.33626
G1 X92.763 Y56.525 E18.35653
G1 X92.850 Y56.950 E18.37116
G1 X92.813 Y57.338 E18.38400
G1 X73.638 Y97.413 E19.86177
G1 X73.375 Y97.788 E19.87687
G1 X72.863 Y98.125 E19.89748
G1 X72.238 Y98.225 E19.91819
G1 X53.288 Y93.150 E20.57065
G1 X52.738 Y92.738 E20.59367
G1 X28.613 Y56.313 E22.04685
G1 X28.413 Y55.750 E22.06673
G1 X28.438 Y55.200 E22.08518
G1 X28.588 Y54.838 E22.09804
G1 X28.938 Y54.413 E22.11648
G1 X29.500 Y54.138 E22.13690
G1 X30.000 Y54.113 E22.15373
G1 X30.575 Y54.300 E22.17400
G1 X30.913 Y54.588 E22.18868
G1 X54.200 Y89.725 E23.59096
G1 X54.500 Y90.025 E23.60474
G1 X54.913 Y90.200 E23.61986
G1 X61.938 Y90.213 E23.85333
G1 X62.375 Y90.075 E23.86872
G1 X62.713 Y89.763 E23.88367
G1 X62.888 Y89.350 E23.89877
G1 X62.888 Y72.800 E24.44890
G1 X63.013 Y72.388 E24.46328
G1 X63.325 Y71.925 E24.48179
G1 X63.663 Y71.650 E24.49610
G1 X65.600 Y70.800 E24.56684
G1 X66.525 Y70.263 E24.60225
G1 X67.400 Y69.650 E24.63773
G1 X68.213 Y68.963 E24.67321
G1 X68.975 Y68.213 E24.70869
G1 X69.663 Y67.400 E24.74417
G1 X70.275 Y66.525 E24.77965
G1 X70.813 Y65.600 E24.81513
G1 X71.263 Y64.638 E24.85061
G1 X71.638 Y63.638 E24.88609
G1 X71.913 Y62.613 E24.92157
G1 X72.100 Y61.563 E24.95705
G1 X72.200 Y60.500 E24.99253
G1 X72.213 Y59.425 E25.02793
G1 X71.963 Y57.088 E25.10630
G1 X72.138 Y56.550 E25.12495
G1 X72.500 Y56.138 E25.14333
G1 X82.713 Y50.238 E25.53534
G1 X82.975 Y49.575
G1 F1800.000 E21.03534
G92 E0
G1 X100.238 Y41.225 F3600.000
G1 F1800.000 E4.50000
G1 X100.638 Y42.150 F540.000 E4.51663
G1 X101.013 Y43.000 E4.54780
G1 X101.038 Y43.063 E4.54989
G1 X101.400 Y43.988 F600.000 E4.58315
G1 X101.713 Y44.813 F660.000 E4.61223
G1 X101.763 Y44.925 E4.61641
G1 X102.075 Y45.875 F720.000 E4.64967
G1 X102.338 Y46.638 F780.000 E4.67666
G1 X102.388 Y46.825 E4.68293
G1 X102.675 Y47.788 F840.000 E4.71619
G1 X102.875 Y48.500 F900.000 E4.74109
G1 X103.338 Y50.388 E4.80552
G1 X103.725 Y52.288 E4.86995
G1 X104.013 Y54.200 E4.93438
G1 X104.225 Y56.125 E4.99881
G1 X104.350 Y58.063 E5.06324
G1 X104.388 Y60.000 E5.12767
G1 X104.350 Y61.925 E5.19210
G1 X104.225 Y63.863 E5.25653
G1 X104.013 Y65.788 E5.32096
G1 X103.725 Y67.700 E5.38539
G1 X103.338 Y69.600 E5.44982
G1 X102.875 Y71.488 E5.51425
G1 X102.338 Y73.350 E5.57868
G1 X101.713 Y75.175 E5.64311
G1 X101.013 Y76.988 E5.70754
G1 X100.238 Y78.763 E5.77197
G1 X99.375 Y80.500 E5.83640
G1 X98.450 Y82.188 E5.90083
G1 X97.438 Y83.850 E5.96526
G1 X96.363 Y85.463 E6.02969
G1 X95.213 Y87.025 E6.09412
G1 X94.000 Y88.538 E6.15855
G1 X92.725 Y89.988 E6.22298
G1 X91.388 Y91.388 E6.28741
G1 X89.988 Y92.725 E6.35184
G1 X88.538 Y94.000 E6.41627
G1 X87.025 Y95.213 E6.48070
G1 X85.463 Y96.363 E6.54513
G1 X83.850 Y97.438 E6.60956
G1 X82.188 Y98.450 E6.67399
G1 X80.500 Y99.375 E6.73842
G1 X78.763 Y100.238 E6.80285
G1 X76.988 Y101.013 E6.86728
G1 X75.175 Y101.713 E6.93171
G1 X73.350 Y102.338 E6.99614
G1 X71.488 Y102.875 E7.06057
G1 X69.600 Y103.338 E7.12500
G1 X67.700 Y103.725 E7.18943
G1 X65.788 Y104.013 E7.25386
G1 X63.863 Y104.225 E7.31829
G1 X61.925 Y104.350 E7.38272
G1 X60.000 Y104.388 E7.44715
G1 X58.063 Y104.350 E7.51158
G1 X56.125 Y104.225 E7.57601
G1 X54.200 Y104.013 E7.64044
G1 X52.288 Y103.725 E7.70487
G1 X50.388 Y103.338 E7.76930
G1 X48.500 Y102.875 E7.83373
G1 X46.638 Y102.338 E7.89816
G1 X44.813 Y101.713 E7.96259
G1 X43.000 Y101.013 E8.02702
G1 X41.225 Y100.238 E8.09145
G1 X39.488 Y99.375 E8.15588
G1 X37.800 Y98.450 E8.22031
G1 X36.138 Y97.438 E8.28474
G1 X34.525 Y96.363 E8.34917
G1 X32.963 Y95.213 E8.41360
G1 X31.450 Y94.000 E8.47803
G1 X30.000 Y92.725 E8.54246
G1 X28.600 Y91.388 E8.60689
G1 X27.263 Y89.988 E8.67132
G1 X25.988 Y88.538 E8.73575
G1 X24.775 Y87.025 E8.80018
G1 X23.625 Y85.463 E8.86461
G1 X22.550 Y83.850 E8.92904
G1 X21.538 Y82.188 E8.99347
G1 X20.613 Y80.500 E9.05790
G1 X19.750 Y78.763 E9.12233
G1 X18.975 Y76.988 E9.18676
G1 X18.275 Y75.175 E9.25119
G1 X17.650 Y73.350 E9.31562
G1 X17.113 Y71.488 E9.38005
G1 X16.650 Y69.600 E9.44448
G1 X16.263 Y67.700 E9.50891
G1 X15.975 Y65.788 E9.57334
G1 X15.763 Y63.863 E9.63777
G1 X15.638 Y61.925 E9.70220
G1 X15.600 Y60.000 E9.76663
G1 X15.638 Y58.063 E9.83106
G1 X15.763 Y56.125 E9.89549
G1 X15.975 Y54.200 E9.95992
G1 X16.263 Y52.288 E10.02436
G1 X16.650 Y50.388 E10.08879
G1 X17.113 Y48.500 E10.15322
G1 X17.650 Y46.638 E10.21765
G1 X18.275 Y44.813 E10.28208
G1 X18.975 Y43.000 E10.34651
G1 X19.750 Y41.225 E10.41094
G1 X20.613 Y39.488 E10.47537
G1 X21.538 Y37.800 E10.53980
G1 X22.550 Y36.138 E10.60423
G1 X23.625 Y34.525 E10.66866
G1 X24.775 Y32.963 E10.73309
G1 X25.988 Y31.450 E10.79752
G1 X27.263 Y30.000 E10.86195
G1 X28.600 Y28.600 E10.92638
G1 X30.000 Y27.263 E10.99081
G1 X31.450 Y25.988 E11.05524
G1 X32.963 Y24.775 E11.11967
G1 X34.525 Y23.625 E11.18410
G1 X36.138 Y22.550 E11.24853
G1 X37.800 Y21.538 E11.31296
G1 X39.488 Y20.613 E11.37739
G1 X41.225 Y19.750 E11.44182
G1 X43.000 Y18.975 E11.50625
G1 X44.813 Y18.275 E11.57068
G1 X46.638 Y17.650 E11.63511
G1 X48.500 Y17.113 E11.69954
G1 X50.388 Y16.650 E11.76397
G1 X52.288 Y16.263 E11.82840
G1 X54.200 Y15.975 E11.89283
G1 X56.125 Y15.763 E11.95726
G1 X58.063 Y15.638 E12.02169
G1 X60.000 Y15.600 E12.08612
G1 X61.925 Y15.638 E12.15055
G1 X63.863 Y15.763 E12.21498
G1 X65.788 Y15.975 E12.27941
G1 X67.700 Y16.263 E12.34384
G1 X69.600 Y16.650 E12.40827
G1 X71.488 Y17.113 E12.47270
G1 X73.350 Y17.650 E12.53713
G1 X75.175 Y18.275 E12.60156
G1 X76.988 Y18.975 E12.66599
G1 X78.763 Y19.750 E12.73042
G1 X80.500 Y20.613 E12.79485
G1 X82.188 Y21.538 E12.85928
G1 X83.850 Y22.550 E12.92371
G1 X85.463 Y23.625 E12.98814
G1 X87.025 Y24.775 E13.05257
G1 X88.538 Y25.988 E13.11700
G1 X89.988 Y27.263 E13.18143
G1 X91.388 Y28.600 E13.24586
G1 X92.725 Y30.000 E13.31029
G1 X94.000 Y31.450 E13.37472
G1 X95.213 Y32.963 E13.43915
G1 X96.363 Y34.525 E13.50358
G1 X96.663 Y34.988 E13.52180
G1 X97.225 Y35.813 F840.000 E13.55506
G1 X97.438 Y36.138 F780.000 E13.56801
G1 X97.763 Y36.663 E13.58832
G1 X98.275 Y37.513 F720.000 E13.62158
G1 X98.450 Y37.800 F660.000 E13.63244
G1 X98.763 Y38.388 E13.65484
G1 X99.225 Y39.275 F600.000 E13.68810
G1 X99.688 Y40.163 F540.000 E13.72136
G1 X100.150 Y41.050 E13.73799
G1 X100.600 Y41.063
G1 X101.000 Y41.975 E13.75462
G1 X101.388 Y42.850 E13.78637
G1 X101.400 Y42.888 E13.78788
G1 X101.763 Y43.825 F600.000 E13.82114
G1 X102.088 Y44.675 F660.000 E13.85138
G1 X102.125 Y44.763 E13.85440
G1 X102.438 Y45.700 F720.000 E13.88766
G1 X102.725 Y46.525 F780.000 E13.91639
G1 X102.763 Y46.650 E13.92092
G1 X103.038 Y47.613 F840.000 E13.95418
G1 X103.263 Y48.400 F900.000 E13.98140
G1 X103.738 Y50.300 E14.04641
G1 X104.113 Y52.213 E14.11142
G1 X104.413 Y54.150 E14.17643
G1 X104.625 Y56.088 E14.24144
G1 X104.750 Y58.038 E14.30645
G1 X104.788 Y60.000 E14.37146
G1 X104.750 Y61.950 E14.43647
G1 X104.625 Y63.900 E14.50149
G1 X104.413 Y65.838 E14.56650
G1 X104.113 Y67.775 E14.63151
G1 X103.738 Y69.688 E14.69652
G1 X103.263 Y71.588 E14.76153
G1 X102.725 Y73.463 E14.82654
G1 X102.088 Y75.313 E14.89155
G1 X101.388 Y77.138 E14.95656
G1 X100.600 Y78.925 E15.02157
G1 X99.738 Y80.675 E15.08658
G1 X98.788 Y82.388 E15.15159
G1 X97.775 Y84.063 E15.21660
G1 X96.688 Y85.688 E15.28161
G1 X95.538 Y87.263 E15.34662
G1 X94.313 Y88.788 E15.41163
G1 X93.025 Y90.263 E15.47665
G1 X91.675 Y91.675 E15.54166
G1 X90.263 Y93.025 E15.60667
G1 X88.788 Y94.313 E15.67168
G1 X87.263 Y95.538 E15.73669
G1 X85.688 Y96.688 E15.80170
G1 X84.063 Y97.775 E15.86671
G1 X82.388 Y98.788 E15.93172
G1 X80.675 Y99.738 E15.99673
G1 X78.925 Y100.600 E16.06174
G1 X77.138 Y101.388 E16.12675
G1 X75.313 Y102.088 E16.19176
G1 X73.463 Y102.725 E16.25677
G1 X71.588 Y103.263 E16.32178
G1 X69.688 Y103.738 E16.38679
G1 X67.775 Y104.113 E16.45180
G1 X65.838 Y104.413 E16.51682
G1 X63.900 Y104.625 E16.58183
G1 X61.950 Y104.750 E16.64684
G1 X60.000 Y104.788 E16.71185
G1 X58.038 Y104.750 E16.77686
G1 X56.088 Y104.625 E16.84187
G1 X54.150 Y104.413 E16.90688
G1 X52.213 Y104.113 E16.97189
G1 X50.300 Y103.738 E17.03690
G1 X48.400 Y103.263 E17.10191
G1 X46.525 Y102.725 E17.16692
G1 X44.675 Y102.088 E17.23193
G1 X42.850 Y101.388 E17.29694
G1 X41.063 Y100.600 E17.36195
G1 X39.313 Y99.738 E17.42696
G1 X37.600 Y98.788 E17.49198
G1 X35.925 Y97.775 E17.55699
G1 X34.300 Y96.688 E17.62200
G1 X32.725 Y95.538 E17.68701
G1 X31.200 Y94.313 E17.75202
G1 X29.725 Y93.025 E17.81703
G1 X28.313 Y91.675 E17.88204
G1 X26.963 Y90.263 E17.94705
G1 X25.675 Y88.788 E18.01206
G1 X24.450 Y87.263 E18.07707
G1 X23.300 Y85.688 E18.14208
G1 X22.213 Y84.063 E18.20709
G1 X21.200 Y82.388 E18.27210
G1 X20.250 Y80.675 E18.33711
G1 X19.388 Y78.925 E18.40212
G1 X18.600 Y77.138 E18.46713
G1 X17.900 Y75.313 E18.53215
G1 X17.263 Y73.463 E18.59716
G1 X16.725 Y71.588 E18.66217
G1 X16.250 Y69.688 E18.72718
G1 X15.875 Y67.775 E18.79219
G1 X15.575 Y65.838 E18.85720
G1 X15.363 Y63.900 E18.92221
G1 X15.238 Y61.950 E18.98722
G1 X15.200 Y60.000 E19.05223
G1 X15.238 Y58.038 E19.11724
G1 X15.363 Y56.088 E19.18225
G1 X15.575 Y54.150 E19.24726
G1 X15.875 Y52.213 E19.31227
G1 X16.250 Y50.300 E19.37728
G1 X16.725 Y48.400 E19.44229
G1 X17.263 Y46.525 E19.50731
G1 X17.900 Y44.675 E19.57232
G1 X18.600 Y42.850 E19.63733
G1 X19.388 Y41.063 E19.70234
G1 X20.250 Y39.313 E19.76735
G1 X21.200 Y37.600 E19.83236
G1 X22.213 Y35.925 E19.89737
G1 X23.300 Y34.300 E19.96238
G1 X24.450 Y32.725 E20.02739
G1 X25.675 Y31.200 E20.09240
G1 X26.963 Y29.725 E20.15741
G1 X28.313 Y28.313 E20.22242
G1 X29.725 Y26.963 E20.28743
G1 X31.200 Y25.675 E20.35244
G1 X32.725 Y24.450 E20.41745
G1 X34.300 Y23.300 E20.48247
G1 X35.925 Y22.213 E20.54748
G1 X37.600 Y21.200 E20.61249
G1 X39.313 Y20.250 E20.67750
G1 X41.063 Y19.388 E20.74251
G1 X42.850 Y18.600 E20.80752
G1 X44.675 Y17.900 E20.87253
G1 X46.525 Y17.263 E20.93754
G1 X48.400 Y16.725 E21.00255
G1 X50.300 Y16.250 E21.06756
G1 X52.213 Y15.875 E21.13257
G1 X54.150 Y15.575 E21.19758
G1 X56.088 Y15.363 E21.26259
G1 X58.038 Y15.238 E21.32760
G1 X60.000 Y15.200 E21.39261
G1 X61.950 Y15.238 E21.45762
G1 X63.900 Y15.363 E21.52264
G1 X65.838 Y15.575 E21.58765
G1 X67.775 Y15.875 E21.65266
G1 X69.688 Y16.250 E21.71767
G1 X71.588 Y16.725 E21.78268
G1 X73.463 Y17.263 E21.84769
G1 X75.313 Y17.900 E21.91270
G1 X77.138 Y18.600 E21.97771
G1 X78.925 Y19.388 E22.04272
G1 X80.675 Y20.250 E22.10773
G1 X82.388 Y21.200 E22.17274
G1 X84.063 Y22.213 E22.23775
G1 X85.688 Y23.300 E22.30276
G1 X87.263 Y24.450 E22.36777
G1 X88.788 Y25.675 E22.43278
G1 X90.263 Y26.963 E22.49780
G1 X91.675 Y28.313 E22.56281
G1 X93.025 Y29.725 E22.62782
G1 X94.313 Y31.200 E22.69283
G1 X95.538 Y32.725 E22.75784
G1 X96.688 Y34.300 E22.82285
G1 X97.038 Y34.813 E22.84342
G1 X97.588 Y35.638 F840.000 E22.87668
G1 X97.775 Y35.925 F780.000 E22.88786
G1 X98.125 Y36.488 E22.90994
G1 X98.638 Y37.350 F720.000 E22.94320
G1 X98.788 Y37.600 F660.000 E22.95287
G1 X99.138 Y38.213 E22.97646
G1 X99.613 Y39.088 F600.000 E23.00972
G1 X99.738 Y39.313 F540.000 E23.01788
G1 X100.063 Y39.988 E23.04298
G1 X100.513 Y40.875 E23.05961
G1 X100.138 Y41.713
; perimeter_end
; infill_start
G1 F1800.000 E18.55961
G92 E0
G1 X83.650 Y37.050 F3600.000
G1 F1800.000 E4.50000
G1 X83.138 Y37.563 F1200.000 E4.52618
G1 X82.463 Y37.613 E4.55087
G1 X83.600 Y36.475 E4.60973
G1 X83.563 Y35.888 E4.63099
G1 X81.800 Y37.663 E4.72252
G1 X81.125 Y37.713 E4.74721
G1 X83.525 Y35.313 E4.87142
G1 X83.488 Y34.725 E4.89268
G1 X80.450 Y37.763 E5.04956
G1 X81.300 Y36.288 F3600.000
G1 X83.438 Y34.150 F1200.000 E5.15992
G1 X83.400 Y33.563 E5.18119
G1 X81.350 Y35.613 E5.28713
G1 X81.250 Y35.100 E5.30654
G1 X83.175 Y33.175 E5.40581
G1 X82.538 Y33.188 E5.42913
G1 X81.063 Y34.663 E5.50500
G1 X80.788 Y34.325 E5.52114
G1 X81.863 Y33.238 E5.57681
G1 X81.188 Y33.300 E5.60149
G1 X80.475 Y34.013 E5.63850
G1 X80.225 Y33.638 E5.65489
G1 X80.513 Y33.350 E5.66995
G1 X80.038 Y33.825
G1 X79.863 Y33.563 F600.000 E5.68057
G1 X79.488 Y33.513 E5.69285
G1 X41.638 Y36.425 E6.95133
G1 X41.000 Y36.188 E6.97369
G1 F1800.000 E2.47369
G92 E0
G1 X39.650 Y41.313 F3600.000
G1 F1800.000 E4.50000
G1 X40.050 Y40.888 F600.000 E4.50975
G1 X56.125 Y39.688 E4.77639
G1 X56.175 Y39.625 E4.77772
G1 X56.325 Y39.675 E4.78027
G1 X56.375 Y39.613 E4.78161
G1 X56.525 Y39.663 E4.78415
G1 X56.575 Y39.600 E4.78550
G1 X56.725 Y39.638 E4.78804
G1 X56.775 Y39.588 E4.78940
G1 X56.925 Y39.625 E4.79193
G1 X56.975 Y39.563 E4.79329
G1 X57.125 Y39.613 E4.79582
G1 X57.175 Y39.550 E4.79719
G1 X57.325 Y39.600 E4.79971
G1 X57.375 Y39.538 E4.80108
G1 X57.525 Y39.588 E4.80360
G1 X57.575 Y39.525 E4.80498
G1 X57.725 Y39.563 E4.80749
G1 X57.775 Y39.500 E4.80888
G1 X57.913 Y39.550 E4.81139
G1 X57.975 Y39.488 E4.81279
G1 X58.113 Y39.538 E4.81529
G1 X58.175 Y39.475 E4.81669
G1 X58.313 Y39.525 E4.81919
G1 X58.375 Y39.463 E4.82060
G1 X58.513 Y39.500 E4.82309
G1 X58.575 Y39.438 E4.82450
G1 X58.713 Y39.488 E4.82699
G1 X58.775 Y39.425 E4.82841
G1 X58.913 Y39.475 E4.83089
G1 X58.975 Y39.413 E4.83232
G1 X59.113 Y39.463 E4.83479
G1 X59.163 Y39.400 E4.83623
G1 X59.313 Y39.450 E4.83870
G1 X59.363 Y39.375 E4.84015
G1 X59.513 Y39.425 E4.84261
G1 X59.563 Y39.363 E4.84406
G1 X59.700 Y39.413 E4.84652
G1 X59.763 Y39.350 E4.84797
G1 X59.900 Y39.400 E4.85043
G1 X59.963 Y39.338 E4.85189
G1 X60.100 Y39.388 E4.85434
G1 X60.163 Y39.313 E4.85581
G1 X60.300 Y39.363 E4.85825
G1 X60.363 Y39.300 E4.85973
G1 X60.500 Y39.350 E4.86216
G1 X60.563 Y39.288 E4.86365
G1 X60.700 Y39.338 E4.86608
G1 X60.763 Y39.275 E4.86757
G1 X60.900 Y39.325 E4.86999
G1 X60.963 Y39.263 E4.87149
G1 X61.100 Y39.313 E4.87391
G1 X61.163 Y39.238 E4.87541
G1 X61.300 Y39.288 E4.87782
G1 X61.363 Y39.225 E4.87934
G1 X61.500 Y39.275 E4.88174
G1 X61.563 Y39.213 E4.88326
G1 X61.688 Y39.263 E4.88566
G1 X61.763 Y39.200 E4.88719
G1 X61.888 Y39.250 E4.88958
G1 X61.950 Y39.175 E4.89111
G1 X62.088 Y39.225 E4.89350
G1 X62.150 Y39.163 E4.89504
G1 X62.288 Y39.213 E4.89742
G1 X62.350 Y39.150 E4.89897
G1 X62.488 Y39.200 E4.90135
G1 X62.550 Y39.138 E4.90290
G1 X62.688 Y39.188 E4.90527
G1 X62.750 Y39.113 E4.90683
G1 X62.888 Y39.175 E4.90919
G1 X62.950 Y39.100 E4.91076
G1 X63.088 Y39.150 E4.91312
G1 X63.150 Y39.088 E4.91469
G1 X63.288 Y39.138 E4.91704
G1 X63.350 Y39.075 E4.91862
G1 X63.488 Y39.125 E4.92097
G1 X63.550 Y39.050 E4.92255
G1 X63.675 Y39.113 E4.92490
G1 X63.750 Y39.038 E4.92648
G1 X63.875 Y39.088 E4.92882
G1 X63.950 Y39.025 E4.93042
G1 X64.075 Y39.075 E4.93275
G1 X64.150 Y39.013 E4.93435
G1 X64.275 Y39.063 E4.93668
G1 X64.350 Y38.988 E4.93829
G1 X64.475 Y39.050 E4.94061
G1 X64.550 Y38.975 E4.94222
G1 X64.675 Y39.038 E4.94454
G1 X64.750 Y38.963 E4.94616
G1 X64.875 Y39.013 E4.94847
G1 X64.938 Y38.950 E4.95009
G1 X65.075 Y39.000 E4.95240
G1 X65.138 Y38.938 E4.95403
G1 X65.275 Y38.988 E4.95633
G1 X65.338 Y38.913 E4.95796
G1 X65.475 Y38.975 E4.96026
G1 X65.538 Y38.900 E4.96190
G1 X65.663 Y38.950 E4.96419
G1 X65.738 Y38.888 E4.96584
G1 X65.863 Y38.938 E4.96812
G1 X65.938 Y38.875 E4.96977
G1 X66.063 Y38.925 E4.97205
G1 X66.138 Y38.850 E4.97371
G1 X66.263 Y38.913 E4.97598
G1 X66.338 Y38.838 E4.97765
G1 X66.463 Y38.888 E4.97992
G1 X66.538 Y38.825 E4.98159
G1 X66.663 Y38.875 E4.98385
G1 X66.738 Y38.813 E4.98553
G1 X66.863 Y38.863 E4.98778
G1 X66.938 Y38.788 E4.98946
G1 X67.063 Y38.850 E4.99171
G1 X67.138 Y38.775 E4.99340
G1 X67.263 Y38.838 E4.99565
G1 X67.338 Y38.763 E4.99734
G1 X67.463 Y38.813 E4.99958
G1 X67.538 Y38.750 E5.00128
G1 X67.650 Y38.800 E5.00351
G1 X67.725 Y38.738 E5.00522
G1 X67.850 Y38.788 E5.00744
G1 X67.925 Y38.713 E5.00916
G1 X68.050 Y38.775 E5.01138
G1 X68.125 Y38.700 E5.01310
G1 X68.250 Y38.750 E5.01531
G1 X68.325 Y38.688 E5.01704
G1 X68.450 Y38.738 E5.01924
G1 X68.525 Y38.675 E5.02097
G1 X68.650 Y38.725 E5.02318
G1 X68.725 Y38.650 E5.02491
G1 X68.850 Y38.713 E5.02711
G1 X68.925 Y38.638 E5.02885
G1 X69.050 Y38.700 E5.03104
G1 X69.125 Y38.625 E5.03279
G1 X69.250 Y38.675 E5.03497
G1 X69.325 Y38.613 E5.03673
G1 X69.438 Y38.663 E5.03890
G1 X69.525 Y38.588 E5.04066
G1 X69.638 Y38.650 E5.04283
G1 X69.725 Y38.575 E5.04460
G1 X69.838 Y38.638 E5.04677
G1 X69.925 Y38.563 E5.04854
G1 X70.038 Y38.613 E5.05070
G1 X70.125 Y38.550 E5.05247
G1 X70.238 Y38.600 E5.05463
G1 X70.325 Y38.525 E5.05641
G1 X70.438 Y38.588 E5.05856
G1 X70.525 Y38.513 E5.06034
G1 X70.638 Y38.575 E5.06248
G1 X70.713 Y38.500 E5.06428
G1 X70.838 Y38.550 E5.06641
G1 X70.913 Y38.488 E5.06821
G1 X71.038 Y38.538 E5.07034
G1 X71.113 Y38.475 E5.07215
G1 X71.238 Y38.525 E5.07427
G1 X71.313 Y38.450 E5.07608
G1 X71.425 Y38.513 E5.07820
G1 X71.513 Y38.438 E5.08001
G1 X71.625 Y38.500 E5.08212
G1 X71.713 Y38.425 E5.08395
G1 X71.825 Y38.475 E5.08605
G1 X71.913 Y38.413 E5.08788
G1 X72.025 Y38.463 E5.08998
G1 X72.113 Y38.388 E5.09181
G1 X72.225 Y38.450 E5.09390
G1 X72.313 Y38.375 E5.09574
G1 X72.425 Y38.438 E5.09783
G1 X72.513 Y38.363 E5.09967
G1 X72.625 Y38.413 E5.10175
G1 X72.713 Y38.350 E5.10360
G1 X72.825 Y38.400 E5.10567
G1 X72.913 Y38.325 E5.10753
G1 X73.025 Y38.388 E5.10959
G1 X73.113 Y38.313 E5.11145
G1 X73.225 Y38.375 E5.11351
G1 X73.313 Y38.300 E5.11538
G1 X73.413 Y38.350 E5.11744
G1 X73.500 Y38.288 E5.11931
G1 X73.613 Y38.338 E5.12135
G1 X73.700 Y38.275 E5.12323
G1 X73.813 Y38.325 E5.12527
G1 X73.900 Y38.250 E5.12715
G1 X74.013 Y38.313 E5.12919
G1 X74.100 Y38.238 E5.13108
G1 X74.213 Y38.300 E5.13311
G1 X74.300 Y38.225 E5.13500
G1 X74.413 Y38.275 E5.13702
G1 X74.500 Y38.213 E5.13892
G1 X74.613 Y38.263 E5.14094
G1 X74.700 Y38.188 E5.14284
G1 X74.813 Y38.250 E5.14485
G1 X74.900 Y38.175 E5.14676
G1 X75.013 Y38.238 E5.14877
G1 X75.100 Y38.163 E5.15068
G1 X75.213 Y38.213 E5.15268
G1 X75.300 Y38.150 E5.15460
G1 X75.400 Y38.200 E5.15659
G1 X75.500 Y38.125 E5.15851
G1 X75.600 Y38.188 E5.16050
G1 X75.700 Y38.113 E5.16243
G1 X75.800 Y38.175 E5.16441
G1 X75.900 Y38.100 E5.16634
G1 X76.000 Y38.150 E5.16832
G1 X76.100 Y38.088 E5.17026
G1 X76.200 Y38.138 E5.17222
G1 X76.300 Y38.075 E5.17417
G1 X76.400 Y38.125 E5.17613
G1 X76.488 Y38.050 E5.17808
G1 X76.600 Y38.113 E5.18003
G1 X76.688 Y38.038 E5.18199
G1 X76.800 Y38.100 E5.18394
G1 X76.888 Y38.025 E5.18590
G1 X77.000 Y38.075 E5.18784
G1 X77.088 Y38.013 E5.18980
G1 X77.200 Y38.063 E5.19174
G1 X77.288 Y37.988 E5.19371
G1 X77.388 Y38.050 E5.19564
G1 X77.488 Y37.975 E5.19762
G1 X77.588 Y38.038 E5.19954
G1 X77.688 Y37.963 E5.20152
G1 X77.788 Y38.013 E5.20343
G1 X77.888 Y37.950 E5.20542
G1 X77.988 Y38.000 E5.20733
G1 X78.088 Y37.938 E5.20932
G1 X78.188 Y37.988 E5.21122
G1 X78.488 Y37.900 E5.21634
G1 X78.588 Y37.950 E5.21823
G1 X78.688 Y37.888 E5.22024
G1 X78.788 Y37.938 E5.22212
G1 X78.888 Y37.875 E5.22413
G1 X78.988 Y37.925 E5.22601
G1 X79.288 Y37.838 E5.23115
G1 X79.375 Y37.900 E5.23301
G1 X79.675 Y37.813 E5.23817
G1 X79.775 Y37.863 E5.24002
G1 X80.300 Y37.550 E5.25012
G1 F1800.000 E0.75012
G92 E0
G1 X86.363 Y51.888 F3600.000
G1 F1800.000 E4.50000
G1 X86.450 Y51.988 F600.000 E4.50476
G1 X86.538 Y51.925 E4.50862
G1 X86.450 Y51.988
G1 X86.413 Y52.150 E4.51444
G1 X86.450 Y52.175
G1 X69.150 Y88.350 E5.49317
G1 X68.963 Y89.075 E5.51164
G1 X68.963 Y88.725 E5.52039
G1 X68.963 Y88.975
G1 X68.825 Y89.175 E5.52874
G1 X68.913 Y89.100
G1 X69.125 Y89.325 E5.53662
G1 F1800.000 E1.03662
G92 E0
G1 X72.488 Y90.825 F3600.000
G1 F1800.000 E4.50000
G1 X72.663 Y90.863 F600.000 E4.50383
G1 X73.100 Y90.188 E4.52087
G1 X89.688 Y55.688 E5.33225
G1 X90.050 Y55.475 E5.34114
G1 F1800.000 E0.84114
G92 E0
G1 X68.875 Y89.438 F3600.000
G1 F1800.000 E4.50000
G1 X68.388 Y89.925 F1200.000 E4.52571
G1 X69.163 Y89.775
G1 X67.800 Y91.138 E4.59745
G1 X67.675 Y91.900 E4.62606
G1 X69.375 Y90.200 E4.71561
G1 X69.650 Y90.563 E4.73254
G1 X68.100 Y92.113 E4.81449
G1 X68.525 Y92.325 E4.83224
G1 X69.975 Y90.875 E4.90869
G1 X70.413 Y91.063 E4.92674
G1 X68.950 Y92.525 E5.00405
G1 X69.375 Y92.738 E5.02179
G1 X70.888 Y91.225 E5.10175
G1 X71.550 Y91.200 E5.12618
G1 X69.813 Y92.950 E5.21809
G1 X70.238 Y93.150 E5.23583
G1 X72.375 Y91.013 E5.34903
G1 X72.450 Y91.563 E5.37005
G1 X70.663 Y93.363 E5.46478
G1 X71.100 Y93.563
G1 X71.863 Y92.788 E5.50560
G1 F1800.000 E1.00560
G92 E0
G1 X62.188 Y88.988 F3600.000
G1 F1800.000 E4.50000
G1 X61.663 Y89.513 F1200.000 E4.52665
G1 X61.050 Y89.513 E4.54875
G1 X62.188 Y88.375 E4.60667
G1 X62.188 Y87.763 E4.62881
G1 X60.438 Y89.513 E4.71800
G1 X59.825 Y89.513 E4.74009
G1 X62.188 Y87.150 E4.86055
G1 X62.188 Y86.538 E4.88269
G1 X59.213 Y89.513 E5.03441
G1 X58.600 Y89.500 E5.05651
G1 X62.188 Y85.925 E5.23949
G1 X62.188 Y85.300 E5.26164
G1 X57.988 Y89.500 E5.47589
G1 X57.375 Y89.500 E5.49799
G1 X62.188 Y84.688 E5.74350
G1 X62.188 Y84.075 E5.76565
G1 X56.763 Y89.500 E6.04243
G1 X56.150 Y89.500 E6.06453
G1 X62.188 Y83.463 E6.37258
G1 X62.188 Y82.850 E6.39473
G1 X55.538 Y89.500 E6.73404
G1 X54.963 Y89.463 E6.75487
G1 X62.188 Y82.238 E7.12359
G1 X62.188 Y81.625 E7.14574
G1 X54.663 Y89.150 E7.53000
G1 X54.413 Y88.788
G1 X56.113 Y87.088 E7.61671
G1 X55.288 Y87.300 E7.64758
G1 X54.175 Y88.413 E7.70450
G1 X53.925 Y88.050 E7.72047
G1 X54.675 Y87.300 E7.75883
G1 X54.163 Y87.200 E7.77782
G1 X53.675 Y87.675 E7.80225
G1 X57.550 Y85.650 F3600.000
G1 X62.188 Y81.013 F1200.000 E8.03920
G1 X62.188 Y80.388 E8.06135
G1 X57.763 Y84.825 E8.28755
G1 X57.788 Y84.188 E8.31059
G1 X62.188 Y79.775 E8.53556
G1 X62.188 Y79.163 E8.55770
G1 X57.775 Y83.575 E8.78280
G1 X57.775 Y82.963 E8.80486
G1 X62.188 Y78.550 E9.03008
G1 X62.188 Y77.938 E9.05223
G1 X57.775 Y82.350 E9.27759
G1 X57.775 Y81.738 E9.29965
G1 X62.188 Y77.325 E9.52514
G1 X62.188 Y76.713 E9.54729
G1 X57.775 Y81.138 E9.77292
G1 X57.763 Y80.525 E9.79497
G1 X62.188 Y76.100 E10.02074
G1 X62.188 Y75.488 E10.04288
G1 X57.763 Y79.913 E10.26878
G1 X57.763 Y79.300 E10.29083
G1 X62.200 Y74.863 E10.51686
G1 X62.200 Y74.250 E10.53901
G1 X57.763 Y78.688 E10.76517
G1 X57.763 Y78.075 E10.78722
G1 X62.200 Y73.638 E11.01351
G1 X62.200 Y73.025 E11.03566
G1 X57.763 Y77.463 E11.26209
G1 X57.750 Y76.850 E11.28414
G1 X62.325 Y72.288 E11.51707
G1 X63.763 Y70.850 F3600.000
G1 X70.838 Y63.763 F1200.000 E11.87840
G1 X71.113 Y62.875
G1 X57.750 Y76.238 E12.56019
G1 X57.750 Y75.625 E12.58225
G1 X71.300 Y62.075 E13.27355
G1 X71.425 Y61.338 E13.30052
G1 X57.750 Y75.025 E13.99825
G1 X57.750 Y74.413 E14.02030
G1 X71.488 Y60.663 E14.72139
G1 X71.513 Y60.025 E14.74435
G1 X57.738 Y73.800 E15.44669
G1 X57.738 Y73.188 E15.46874
G1 X71.513 Y59.413 E16.17115
G1 X71.450 Y58.863 E16.19132
G1 X57.713 Y72.600 E16.89217
G1 X57.550 Y72.150
G1 X63.575 Y66.113 E17.19980
G1 X62.425 Y66.663 F3600.000
G1 X57.338 Y71.750 F1200.000 E17.45933
G1 X57.050 Y71.413 E17.47502
G1 X61.525 Y66.938 E17.70338
G1 X60.825 Y67.038 E17.72909
G1 X56.713 Y71.150 E17.93913
G1 X56.313 Y70.938 E17.95546
G1 X60.150 Y67.100 E18.15135
G1 X59.563 Y67.075 E18.17258
G1 X55.863 Y70.763 E18.36100
G1 X55.425 Y70.588 E18.37809
G1 X58.988 Y67.038 E18.55972
G1 X58.488 Y66.925 E18.57828
G1 X55.000 Y70.413 E18.75634
G1 X54.588 Y70.200 E18.77281
G1 X57.988 Y66.813 E18.94604
G1 X57.525 Y66.650 E18.96334
G1 X54.175 Y70.000 E19.13424
G1 X53.800 Y69.763 E19.15032
G1 X57.100 Y66.463 E19.31840
G1 X56.675 Y66.275 E19.33522
G1 X53.425 Y69.525 E19.50081
G1 X53.063 Y69.275 E19.51667
G1 X56.300 Y66.038 E19.68132
G1 X55.925 Y65.800 E19.69735
G1 X52.713 Y69.013 E19.86080
G1 X52.375 Y68.725 E19.87653
G1 X55.563 Y65.550 E20.03896
G1 X55.238 Y65.250 E20.05462
G1 X52.050 Y68.438 E20.21725
G1 X51.738 Y68.150 E20.23292
G1 X54.925 Y64.963 E20.39551
G1 X54.625 Y64.638 E20.41118
G1 X51.438 Y67.838 E20.57386
G1 X51.138 Y67.513 E20.58952
G1 X54.363 Y64.300 E20.75379
G1 X54.088 Y63.950 E20.76958
G1 X50.863 Y67.175 E20.93428
G1 X50.600 Y66.838 E20.95004
G1 X53.863 Y63.563 E21.11674
G1 X53.650 Y63.163 E21.13316
G1 X50.338 Y66.475 E21.30220
G1 X50.100 Y66.100 E21.31819
G1 X53.438 Y62.763 E21.48893
G1 X53.288 Y62.300 E21.50642
G1 X49.863 Y65.725 E21.68137
G1 X49.650 Y65.325 E21.69771
G1 X53.138 Y61.838 E21.87611
G1 X53.025 Y61.338 E21.89443
G1 X49.425 Y64.925 E22.07765
G1 X49.250 Y64.500 E22.09449
G1 X52.950 Y60.800 E22.28349
G1 X52.888 Y60.250 E22.30351
G1 X49.063 Y64.075 E22.49877
G1 X48.900 Y63.613 E22.51618
G1 X52.913 Y59.600 E22.72089
G1 X52.963 Y58.938 E22.74496
G1 X48.750 Y63.150 E22.96010
G1 X48.625 Y62.663 E22.97828
G1 X53.138 Y58.150 E23.20875
G1 X53.475 Y57.200 F3600.000
G1 X48.513 Y62.175 F1200.000 E23.46240
G1 X48.425 Y61.650
G1 X54.250 Y55.813 E23.76000
G1 X55.750 Y54.313 F3600.000
G1 X61.675 Y48.400 F1200.000 E24.06205
G1 X62.188 Y48.488
G1 X57.250 Y53.438 E24.31427
G1 X58.150 Y53.138 E24.34851
G1 X62.688 Y48.600 E24.58020
G1 X63.175 Y48.738 E24.59825
G1 X58.925 Y52.988 E24.81526
G1 X59.625 Y52.888 E24.84097
G1 X63.638 Y48.875 E25.04569
G1 X64.088 Y49.038 E25.06296
G1 X60.225 Y52.913 E25.26014
G1 X60.813 Y52.938 E25.28137
G1 X64.525 Y49.225 E25.47083
G1 X64.950 Y49.413 E25.48751
G1 X61.325 Y53.025 E25.67193
G1 X61.838 Y53.138 E25.69049
G1 X65.350 Y49.625 E25.87000
G1 X65.738 Y49.838 E25.88625
G1 X62.313 Y53.275 E26.06153
G1 X62.738 Y53.463 E26.07847
G1 X66.138 Y50.063 E26.25148
G1 X66.500 Y50.325 E26.26739
G1 X63.175 Y53.638 E26.43675
G1 X63.563 Y53.863 E26.45296
G1 X66.863 Y50.575 E26.62098
G1 X67.200 Y50.850 E26.63671
G1 X63.938 Y54.100 E26.80288
G1 X64.313 Y54.338 E26.81891
G1 X67.525 Y51.125 E26.98300
G1 X67.863 Y51.400 E26.99871
G1 X64.638 Y54.638 E27.16341
G1 X64.950 Y54.925 E27.17908
G1 X68.300 Y51.575 E27.34990
G1 X68.800 Y51.700 E27.36831
G1 X65.275 Y55.225 E27.54844
G1 X65.538 Y55.575 E27.56422
G1 X69.413 Y51.688 E27.76221
G1 X70.213 Y51.513 E27.79138
G1 X65.800 Y55.925 E28.01605
G1 X66.050 Y56.288
G1 X71.613 Y50.725 E28.29951
G1 X73.050 Y49.900 F3600.000
G1 X66.263 Y56.688 F1200.000 E28.64588
G1 X66.475 Y57.088
G1 X74.500 Y49.063 E29.05517
G1 X75.938 Y48.238 F3600.000
G1 X66.650 Y57.525 F1200.000 E29.52916
G1 X66.800 Y58.000
G1 X77.388 Y47.413 E30.06928
G1 X78.825 Y46.575 F3600.000
G1 X66.938 Y58.463 F1200.000 E30.67559
G1 X67.013 Y59.000
G1 X80.275 Y45.750 E31.35189
G1 X81.713 Y44.913 F3600.000
G1 X67.088 Y59.550 F1200.000 E32.09819
G1 X67.088 Y60.163
G1 X83.150 Y44.088 E32.91827
G1 X84.388 Y43.475 F3600.000
G1 X72.563 Y55.288 F1200.000 E33.52122
G1 X71.463 Y56.400 F3600.000
G1 X67.050 Y60.800 F1200.000 E33.74608
G1 X66.913 Y61.563 E33.77406
G1 X71.275 Y57.188 E33.99715
G1 X71.338 Y57.750 E34.01732
G1 X66.663 Y62.425 E34.25595
G1 X66.100 Y63.588 F3600.000
G1 X71.400 Y58.300 F1200.000 E34.52573
G1 F1800.000 E30.02573
G92 E0
G1 X74.025 Y54.450 F3600.000
G1 F1800.000 E4.50000
G1 X84.700 Y43.775 F1200.000 E5.04503
G1 X84.925 Y44.163
G1 X75.475 Y53.613 E5.52749
G1 X76.925 Y52.775 F3600.000
G1 X85.150 Y44.550 F1200.000 E5.94737
G1 X85.375 Y44.938
G1 X78.375 Y51.938 E6.30468
G1 X79.825 Y51.100 F3600.000
G1 X85.600 Y45.325 F1200.000 E6.59940
G1 X85.825 Y45.713
G1 X81.275 Y50.275 E6.83155
G1 X82.675 Y49.475 F3600.000
G1 X86.050 Y46.113 F1200.000 E7.00345
G1 X86.275 Y46.500 E7.01967
G1 X83.488 Y49.288 E7.16188
G1 X84.088 Y49.300 E7.18369
G1 X86.488 Y46.888 E7.30647
G1 X86.713 Y47.275 E7.32269
G1 X84.563 Y49.438 E7.43286
G1 X84.988 Y49.625 E7.44971
G1 X86.938 Y47.663 E7.54939
G1 X87.163 Y48.063 E7.56561
G1 X85.350 Y49.875 E7.65841
G1 X85.650 Y50.175 E7.67406
G1 X87.388 Y48.450 E7.76248
G1 X87.613 Y48.838 E7.77869
G1 X85.925 Y50.525 E7.86499
G1 X86.113 Y50.950 E7.88170
G1 X87.838 Y49.225 E7.96943
G1 X87.475 Y50.200 F3600.000
G1 X86.263 Y51.413 F1200.000 E8.03119
G1 X86.625 Y51.663
G1 X86.913 Y51.375 E8.04550
G1 F1800.000 E3.54550
G92 E0
G1 X70.413 Y64.813 F3600.000
G1 F1800.000 E4.50000
G1 X64.863 Y70.363 F1200.000 E4.78330
G1 X66.188 Y69.650 F3600.000
G1 X69.675 Y66.163 F1200.000 E4.96163
G1 F1800.000 E0.46163
G92 E0
G1 X61.125 Y48.325 F3600.000
G1 F1800.000 E4.50000
G1 X48.338 Y61.113 F1200.000 E5.15221
G1 X48.300 Y60.538 E5.17303
G1 X60.563 Y48.275 E5.79853
G1 X59.963 Y48.263 E5.82025
G1 X48.275 Y59.950 E6.41631
G1 X48.300 Y59.313 E6.43907
G1 X59.338 Y48.275 E7.00253
G1 X58.675 Y48.325 E7.02662
G1 X48.363 Y58.638 E7.55275
G1 X48.463 Y57.925 E7.57868
G1 X57.963 Y48.425 E8.06325
G1 X57.188 Y48.588 E8.09159
G1 X48.563 Y57.213 E8.53186
G1 X48.513 Y56.638 E8.55242
G1 X56.338 Y48.813 E8.95164
G1 X55.363 Y49.188 F3600.000
G1 X48.338 Y56.200 F1200.000 E9.30962
G1 X48.138 Y55.800
G1 X54.138 Y49.788 E9.61598
G1 X51.975 Y51.338 F3600.000
G1 X47.838 Y55.475 F1200.000 E9.82703
G1 X47.475 Y55.225 E9.84295
G1 X51.113 Y51.588 E10.02860
G1 X50.550 Y51.538 E10.04888
G1 X47.075 Y55.013 E10.22613
G1 X46.688 Y54.788 E10.24241
G1 X50.113 Y51.363 E10.41736
G1 X49.725 Y51.138 E10.43365
G1 X46.288 Y54.575 E10.60858
G1 X45.900 Y54.350 E10.62486
G1 X49.325 Y50.925 E10.79976
G1 X48.925 Y50.700 E10.81606
G1 X45.500 Y54.138 E10.99093
G1 X45.113 Y53.913 E11.00722
G1 X48.538 Y50.488 E11.18208
G1 X48.138 Y50.263 E11.19837
G1 X44.713 Y53.700 E11.37320
G1 X44.313 Y53.475 E11.38949
G1 X47.738 Y50.050 E11.56430
G1 X47.350 Y49.838 E11.58059
G1 X43.925 Y53.263 E11.75538
G1 X43.525 Y53.038 E11.77166
G1 X46.950 Y49.613 E11.94643
G1 X46.563 Y49.400 E11.96272
G1 X43.138 Y52.825 E12.13746
G1 X42.738 Y52.600 E12.15375
G1 X46.163 Y49.175 E12.32847
G1 X45.763 Y48.963 E12.34476
G1 X42.338 Y52.388 E12.51945
G1 X41.950 Y52.163 E12.53574
G1 X45.375 Y48.738 E12.71041
G1 X44.975 Y48.525 E12.72670
G1 X41.550 Y51.950 E12.90135
G1 X41.163 Y51.725 E12.91764
G1 X44.575 Y48.300 E13.09227
G1 X44.188 Y48.088 E13.10856
G1 X40.763 Y51.513 E13.28316
G1 X40.363 Y51.288 E13.29945
G1 X43.788 Y47.863 E13.47403
G1 X43.388 Y47.650 E13.49032
G1 X39.975 Y51.075 E13.66488
G1 X39.575 Y50.850 E13.68117
G1 X43.000 Y47.438 E13.85570
G1 X42.600 Y47.213 E13.87200
G1 X39.188 Y50.638 E14.04651
G1 X38.788 Y50.413 E14.06279
G1 X42.213 Y47.000 E14.23728
G1 X41.813 Y46.775 E14.25358
G1 X38.388 Y50.200 E14.42804
G1 X38.000 Y49.975 E14.44433
G1 X41.413 Y46.563 E14.61877
G1 X41.025 Y46.338 E14.63507
G1 X37.600 Y49.763 E14.80949
G1 X37.213 Y49.538 E14.82577
G1 X40.625 Y46.125 E15.00017
G1 X40.225 Y45.900 E15.01646
G1 X36.813 Y49.325 E15.19084
G1 X36.413 Y49.100 E15.20713
G1 X39.838 Y45.688 E15.38148
G1 X39.500 Y45.413 E15.39722
G1 X36.025 Y48.888 E15.57438
G1 X35.625 Y48.663 E15.59067
G1 X39.188 Y45.113 E15.77199
G1 X38.950 Y44.725 E15.78812
G1 X35.238 Y48.450 E15.97782
G1 X34.838 Y48.225 E15.99411
G1 X38.750 Y44.325 E16.19339
G1 X38.600 Y43.850 E16.21125
G1 X34.438 Y48.013 E16.42365
G1 X34.050 Y47.788 E16.43993
G1 X38.575 Y43.263 E16.67108
G1 X38.713 Y42.513 E16.69829
G1 X33.650 Y47.575 E16.95620
G1 X33.350 Y47.263
G1 X39.638 Y40.975 E17.27723
G1 X38.975 Y41.025
G1 X33.888 Y46.113 E17.53667
G1 X34.663 Y44.725 F3600.000
G1 X38.313 Y41.075 F1200.000 E17.72293
G1 X37.650 Y41.125
G1 X35.425 Y43.338 E17.83602
G1 X36.200 Y41.963 F3600.000
G1 X36.975 Y41.175 F1200.000 E17.87593
G1 F1800.000 E13.37593
G92 E0
G1 X31.088 Y53.363 F3600.000
G1 F1800.000 E4.50000
G1 X31.125 Y53.700 F600.000 E4.50865
G1 X31.475 Y54.063 E4.52133
G1 X52.763 Y86.263 E5.49475
G1 X53.388 Y86.963 E5.51822
G1 X53.463 Y87.300 E5.52714
G1 X30.875 Y53.113 F3600.000
G1 X30.463 Y53.525 F1200.000 E5.54917
G1 X29.938 Y53.413 E5.56895
G1 X30.625 Y52.725 E5.60503
G1 X30.375 Y52.350 E5.62203
G1 X29.225 Y53.500 E5.68262
G1 X30.125 Y51.963 F3600.000
G1 X26.938 Y55.150 F1200.000 E5.85012
G1 X27.188 Y55.525
G1 X27.800 Y54.925 E5.88189
G1 X26.688 Y54.775 F3600.000
G1 X29.875 Y51.588 F1200.000 E6.04939
G1 X29.613 Y51.213 E6.06632
G1 X26.438 Y54.388 E6.23342
G1 X26.188 Y54.013 E6.25042
G1 X28.863 Y51.325 E6.39132
G1 X27.025 Y52.525 F3600.000
G1 X25.938 Y53.625 F1200.000 E6.44864
G1 X27.500 Y55.725 F3600.000
G1 X27.938 Y56.625 F600.000 E6.47302
G1 X48.913 Y88.288 E7.40539
G1 X49.263 Y88.988 E7.42457
G1 X49.075 Y89.250 E7.43242
G1 X49.300 Y89.338
G1 X49.125 Y89.513 F1200.000 E7.44103
G1 X48.888 Y90.363 E7.47312
