;FLAVOR:Marlin
;TIME:12946
;Filament used: 5.16417m
;Layer height: 0.2
;MINX:4.723
;MINY:20.697
;MINZ:0.35
;MAXX:115.277
;MAXY:99.303
;MAXZ:6.35
;Generated with Cura_SteamEngine 4.8.0
M104 S210
M105
M109 S210
M82 ;absolute extrusion mode

G92 E0
G92 E0
G1 F1800 E-4.5
;LAYER_COUNT:31
;LAYER:0
M106 S204
G0 X7.011 Y20.841 Z0.35
;TYPE:SKIRT
G1 F1800 E0
G1 F600 X7.505 Y20.735 E0.02941
G1 X8.163 Y20.698 E0.06777
G1 X111.416 Y20.697 E6.07763
G1 X112.114 Y20.707 E6.11826
G1 X112.617 Y20.754 E6.14767
G1 X113.107 Y20.88 E6.17712
G1 X113.571 Y21.082 E6.20657
G1 X113.997 Y21.354 E6.23599
G1 X114.375 Y21.689 E6.26539
G1 X114.695 Y22.08 E6.2948
G1 X114.95 Y22.517 E6.32425
G1 X115.133 Y22.988 E6.35366
G1 X115.24 Y23.482 E6.38308
G1 X115.276 Y24.137 E6.42126
G1 X115.277 Y95.407 E10.56955
G1 X115.268 Y96.134 E10.61187
G1 X115.222 Y96.637 E10.64127
G1 X115.097 Y97.127 E10.6707
G1 X114.896 Y97.591 E10.70013
G1 X114.625 Y98.018 E10.72957
G1 X114.29 Y98.397 E10.75901
G1 X113.9 Y98.718 E10.78841
G1 X113.464 Y98.974 E10.81784
G1 X112.993 Y99.157 E10.84725
G1 X112.499 Y99.265 E10.87668
G1 X111.837 Y99.302 E10.91528
G1 X8.589 Y99.303 E16.92485
G1 X7.891 Y99.294 E16.96548
G1 X7.387 Y99.247 E16.99494
G1 X6.897 Y99.122 E17.02438
G1 X6.433 Y98.921 E17.05381
G1 X6.007 Y98.65 E17.0832
G1 X5.628 Y98.315 E17.11264
G1 X5.307 Y97.924 E17.14208
G1 X5.052 Y97.488 E17.17148
G1 X4.868 Y97.017 E17.20092
G1 X4.761 Y96.523 E17.23034
G1 X4.724 Y95.847 E17.26974
G1 X4.723 Y24.528 E21.42088
G1 X4.732 Y23.863 E21.45959
G1 X4.779 Y23.359 E21.48905
G1 X4.905 Y22.87 E21.51845
G1 X5.106 Y22.406 E21.54788
G1 X5.377 Y21.979 E21.57731
G1 X5.712 Y21.601 E21.60671
G1 X6.103 Y21.28 E21.63616
G1 X6.54 Y21.025 E21.66561
G1 X7.011 Y20.841 E21.69504
G1 F1800 E17.19504
;MESH:bistable_mechanism.stl
G0 X28.292 Y30.854
G0 X21.135 Y30.9
G0 X46.67 Y39.774
G0 X52.997 Y42.48
G0 X58.08 Y41.493
G0 X58.994 Y41.549
G0 X59.464 Y41.279
;TYPE:WALL-OUTER
G1 F1800 E21.69504
G1 F600 X59.463 Y42.346 E21.75715
G1 X59.426 Y42.85 E21.78656
G1 X59.325 Y43.191 E21.80726
G1 X59.196 Y43.374 E21.82029
G1 X58.998 Y43.514 E21.83441
G1 X58.736 Y43.595 E21.85037
G1 X58.363 Y43.59 E21.87208
G1 X58.087 Y43.493 E21.88911
G1 X57.903 Y43.353 E21.90257
G1 X57.753 Y43.091 E21.92014
G1 X57.679 Y42.725 E21.94187
G1 X57.666 Y42.381 E21.96191
G1 X57.666 Y41.079 E22.03769
G1 X59.264 Y41.079 E22.1307
G1 X59.464 Y41.079 E22.14235
G1 X59.464 Y41.279 E22.14988
G0 F1800 X59.464 Y41.479
G0 X59.024 Y41.519
G0 X59.064 Y41.479
;TYPE:WALL-INNER
G1 F600 X59.064 Y41.678 E22.16147
G1 X59.063 Y42.33 E22.19942
G1 X59.03 Y42.775 E22.22539
G1 X58.91 Y43.086 E22.24479
G1 X58.679 Y43.194 E22.25963
G1 X58.433 Y43.191 E22.27395
G1 X58.21 Y43.085 E22.28832
G1 X58.132 Y42.948 E22.2975
G1 X58.066 Y42.366 E22.33159
G1 X58.066 Y41.479 E22.38322
G1 X58.865 Y41.479 E22.42973
G1 X59.064 Y41.479 E22.43722
G0 F1800 X58.674 Y41.869
;TYPE:SKIN
G1 F600 X58.646 Y42.686 E22.4848
G1 X58.595 Y42.803 E22.49223
G1 X58.507 Y42.795 E22.49737
G1 X58.456 Y42.34 E22.52402
G1 X58.456 Y41.869 E22.55144
G1 X58.674 Y41.869 E22.56413
G0 F1800 X58.664 Y41.879
G1 F1800 E18.06413
G0 X61.016 Y42.058
G0 X62.15 Y42.075
;TYPE:WALL-OUTER
G1 F1800 E22.56413
G1 F600 X62.109 Y42.725 E22.60204
G1 X62.028 Y43.031 E22.62046
G1 X61.889 Y43.193 E22.63288
G1 X61.652 Y43.319 E22.64851
G1 X61.305 Y43.361 E22.66885
G1 X61.056 Y43.316 E22.68358
G1 X60.844 Y43.186 E22.69805
G1 X60.71 Y43.003 E22.71126
G1 X60.621 Y42.644 E22.73278
G1 X60.596 Y42.176 E22.76006
G1 X60.596 Y41.079 E22.82391
G1 X62.15 Y41.079 E22.91437
G1 X62.15 Y42.075 E22.97234
G0 F1800 X62.138 Y42.274
G0 X61.699 Y42.246
G0 X61.75 Y42.066
;TYPE:WALL-INNER
G1 F600 X61.713 Y42.658 E23.00686
G1 X61.634 Y42.875 E23.0203
G1 X61.53 Y42.931 E23.02718
G1 X61.2 Y42.935 E23.04639
G1 X61.079 Y42.83 E23.05571
G1 X61.018 Y42.584 E23.07047
G1 X60.996 Y42.176 E23.09425
G1 X60.996 Y41.479 E23.13482
G1 X61.75 Y41.479 E23.1787
G1 X61.75 Y42.066 E23.21287
G0 F1800 X61.569 Y41.77
;TYPE:SKIN
G1 F600 X61.458 Y41.659 E23.22201
G0 F1800 X61.175 Y41.942
G1 F600 X61.553 Y42.32 E23.25312
G0 F1800 X61.194 Y42.526
G1 F600 X61.42 Y42.752 E23.27173
G0 F1800 X61.321 Y42.526
G1 F1800 E18.77173
G0 X67.015 Y42.917
G0 X67.015 Y47.61
G0 X67.002 Y71.111
G0 X67.015 Y75.691
G0 X61.206 Y75.691
G0 X61.651 Y76.944
G0 X62.15 Y76.983
;TYPE:WALL-OUTER
G1 F1800 E23.27173
G1 F600 X62.077 Y77.469 E23.30033
G1 X61.934 Y77.718 E23.31704
G1 X61.726 Y77.88 E23.33239
G1 X61.5 Y77.951 E23.34618
G1 X61.198 Y77.95 E23.36376
G1 X60.958 Y77.872 E23.37844
G1 X60.724 Y77.691 E23.39566
G1 X60.595 Y77.456 E23.41127
G1 X60.515 Y76.772 E23.45135
G1 X60.515 Y75.271 E23.53872
G1 X62.15 Y75.271 E23.63388
G1 X62.15 Y76.983 E23.73353
G0 F1800 X62.121 Y77.18
G0 X61.686 Y77.114
G0 X61.75 Y76.951
;TYPE:WALL-INNER
G1 F600 X61.692 Y77.336 E23.75619
G1 X61.537 Y77.52 E23.77019
G1 X61.261 Y77.55 E23.78635
G1 X61.035 Y77.426 E23.80136
G1 X60.983 Y77.331 E23.80766
G1 X60.915 Y76.752 E23.84159
G1 X60.915 Y75.671 E23.90451
G1 X61.75 Y75.671 E23.95311
G1 X61.75 Y76.951 E24.02762
G0 F1800 X61.36 Y76.918
;TYPE:SKIN
G1 F600 X61.342 Y77.037 E24.03462
G1 X61.305 Y76.724 E24.05297
G1 X61.305 Y76.061 E24.09156
G1 X61.36 Y76.061 E24.09476
G1 X61.36 Y76.918 E24.14464
G0 F1800 X61.35 Y76.918
G1 F1800 E19.64464
G0 X67.003 Y76.4
G0 X70.662 Y76.426
G0 X71.615 Y76.736
G0 X72.427 Y77.326
G0 X73.016 Y78.137
G0 X73.364 Y79.568
G0 X73.353 Y82.786
G0 X61.674 Y89.088
G0 X61.674 Y90.153
G0 X111.607 Y95.633
G0 X111.877 Y95.903
;TYPE:WALL-OUTER
G1 F1800 E24.14464
G1 F600 X8.123 Y95.903 E30.18367
G1 X8.123 Y24.097 E34.36315
G1 X111.877 Y24.097 E40.40218
G1 X111.877 Y95.903 E44.58166
G0 F1800 X111.677 Y95.903
G0 X111.437 Y95.463
G0 X20.054 Y90.181
G0 X17.504 Y72.098
G0 X17.501 Y38.442
G0 X20.054 Y29.819
G0 X20.282 Y30.047
G1 F600 X20.282 Y37.447 E45.01238
G1 X18.683 Y37.447 E45.10545
G1 X18.264 Y37.549 E45.13055
G1 X17.929 Y37.838 E45.1563
G1 X17.785 Y38.119 E45.17468
G1 X17.742 Y38.401 E45.19129
G1 X17.742 Y42.133 E45.40851
G1 X17.845 Y42.429 E45.42675
G1 X18.098 Y42.588 E45.44414
G1 X18.116 Y42.6 E45.4454
G1 X18.218 Y42.616 E45.45141
G1 X18.272 Y42.619 E45.45456
G1 X27.556 Y43.269 E45.99626
G1 X27.694 Y43.279 E46.00431
G1 X27.99 Y43.2 E46.02215
G1 X28.181 Y42.953 E46.04032
G1 X28.207 Y42.856 E46.04616
G1 X28.326 Y42.182 E46.086
G1 X28.439 Y41.853 E46.10625
G1 X28.64 Y41.586 E46.1257
G1 X28.916 Y41.393 E46.1453
G1 X29.232 Y41.297 E46.16453
G1 X29.582 Y41.303 E46.1849
G1 X42.807 Y43.634 E46.96653
G1 X43.138 Y43.749 E46.98693
G1 X43.405 Y43.949 E47.00634
G1 X43.598 Y44.225 E47.02595
G1 X43.694 Y44.541 E47.04517
G1 X43.688 Y44.893 E47.06566
G1 X43.577 Y45.525 E47.10301
G1 X43.628 Y45.835 E47.1213
G1 X43.828 Y46.015 E47.13696
G1 X43.874 Y46.057 E47.14058
G1 X43.927 Y46.069 E47.14375
G1 X44.042 Y46.098 E47.15065
G1 X53.329 Y46.748 E47.69252
G1 X53.344 Y46.744 E47.69343
G1 X53.435 Y46.719 E47.69892
G1 X53.626 Y46.667 E47.71044
G1 X53.822 Y46.411 E47.72921
G1 X53.85 Y46.244 E47.73906
G1 X53.85 Y41.627 E48.0078
G1 X49.843 Y41.627 E48.24103
G1 X49.474 Y41.598 E48.26257
G1 X49.122 Y41.514 E48.28363
G1 X48.777 Y41.37 E48.30539
G1 X48.464 Y41.179 E48.32674
G1 X48.186 Y40.941 E48.34804
G1 X47.948 Y40.663 E48.36934
G1 X47.757 Y40.35 E48.39068
G1 X47.613 Y40.005 E48.41244
G1 X47.53 Y39.659 E48.43315
G1 X47.5 Y38.805 E48.48289
G1 X47.5 Y36.947 E48.59103
G1 X72.5 Y36.947 E50.04616
G1 X72.5 Y39.287 E50.18236
G1 X72.471 Y39.653 E50.20373
G1 X72.387 Y40.005 E50.2248
G1 X72.243 Y40.35 E50.24656
G1 X72.052 Y40.663 E50.2679
G1 X71.814 Y40.941 E50.2892
G1 X71.536 Y41.179 E50.3105
G1 X71.223 Y41.37 E50.33184
G1 X70.878 Y41.514 E50.3536
G1 X70.526 Y41.598 E50.37467
G1 X70.157 Y41.627 E50.39621
G1 X66.15 Y41.627 E50.62944
G1 X66.15 Y46.261 E50.89916
G1 X66.25 Y46.553 E50.91713
G1 X66.487 Y46.708 E50.93361
G1 X66.52 Y46.73 E50.93592
G1 X66.61 Y46.739 E50.94118
G1 X66.689 Y46.747 E50.94581
G1 X75.976 Y46.097 E51.48768
G1 X76.025 Y46.076 E51.49078
G1 X76.109 Y46.04 E51.4961
G1 X76.265 Y45.972 E51.50601
G1 X76.421 Y45.68 E51.52528
G1 X76.42 Y45.507 E51.53535
G1 X76.312 Y44.892 E51.57169
G1 X76.306 Y44.541 E51.59212
G1 X76.402 Y44.225 E51.61135
G1 X76.595 Y43.949 E51.63095
G1 X76.862 Y43.749 E51.65037
G1 X77.193 Y43.634 E51.67076
G1 X90.418 Y41.303 E52.45239
G1 X90.768 Y41.297 E52.47277
G1 X91.084 Y41.393 E52.49199
G1 X91.36 Y41.586 E52.51159
G1 X91.561 Y41.853 E52.53104
G1 X91.674 Y42.182 E52.55129
G1 X91.798 Y42.881 E52.59261
G1 X91.945 Y43.15 E52.61045
G1 X92.231 Y43.275 E52.62862
G1 X92.331 Y43.277 E52.63444
G1 X92.425 Y43.271 E52.63993
G1 X101.71 Y42.621 E53.18168
G1 X101.809 Y42.614 E53.18746
G1 X101.83 Y42.605 E53.18879
G1 X102.097 Y42.49 E53.20571
G1 X102.253 Y42.203 E53.22473
G1 X102.258 Y42.001 E53.23649
G1 X102.258 Y38.396 E53.44632
G1 X102.211 Y38.104 E53.46353
G1 X101.976 Y37.724 E53.48954
G1 X101.597 Y37.494 E53.51534
G1 X101.306 Y37.447 E53.5325
G1 X99.718 Y37.447 E53.62493
G1 X99.718 Y30.047 E54.05565
G1 X20.282 Y30.047 E58.67924
G0 F1800 X20.282 Y30.247
G0 X19.842 Y30.247
G0 X12.575 Y37.219
G0 X12.503 Y47.846
G0 X12.802 Y47.847
G1 F600 X13.002 Y47.847 E58.69088
G1 X16.001 Y47.847 E58.86544
G1 X16.42 Y47.745 E58.89054
G1 X16.756 Y47.456 E58.91633
G1 X16.901 Y47.168 E58.9351
G1 X16.942 Y46.656 E58.965
G1 X16.942 Y38.388 E59.44624
G1 X16.84 Y37.969 E59.47134
G1 X16.546 Y37.628 E59.49754
G1 X16.141 Y37.459 E59.52309
G1 X15.981 Y37.447 E59.53243
G1 X12.803 Y37.447 E59.7174
G1 X12.802 Y47.647 E60.3111
G1 X12.802 Y47.847 E60.31863
G0 F1800 X13.002 Y47.847
G0 X13.002 Y48.287
G0 X12.803 Y62.387
G0 X12.803 Y62.687
G1 F600 X12.803 Y73.087 E60.92397
G1 X16.001 Y73.087 E61.11011
G1 X16.42 Y72.985 E61.13521
G1 X16.756 Y72.696 E61.161
G1 X16.898 Y72.415 E61.17933
G1 X16.942 Y72.135 E61.19583
G1 X16.942 Y63.628 E61.69098
G1 X16.84 Y63.209 E61.71608
G1 X16.546 Y62.868 E61.74229
G1 X16.141 Y62.699 E61.76783
G1 X15.981 Y62.687 E61.77717
G1 X12.803 Y62.687 E61.96214
G0 F1800 X12.803 Y62.887
G0 X12.363 Y62.887
G0 X12.575 Y73.315
G0 X19.982 Y89.953
G0 X20.282 Y89.953
G1 F600 X99.718 Y89.953 E66.58574
G1 X99.718 Y73.087 E67.56743
G1 X101.317 Y73.087 E67.6605
G1 X101.736 Y72.985 E67.6856
G1 X102.071 Y72.696 E67.71135
G1 X102.215 Y72.415 E67.72973
G1 X102.258 Y72.134 E67.74627
G1 X102.258 Y68.447 E67.96087
G1 X102.158 Y68.154 E67.97889
G1 X101.921 Y67.999 E67.99538
G1 X101.888 Y67.977 E67.99769
G1 X101.798 Y67.968 E68.00295
G1 X101.719 Y67.96 E68.00757
G1 X92.432 Y68.61 E68.54945
G1 X92.381 Y68.632 E68.55268
G1 X92.298 Y68.668 E68.55795
G1 X92.143 Y68.735 E68.56777
G1 X91.987 Y69.027 E68.58704
G1 X91.988 Y69.2 E68.59711
G1 X92.096 Y69.812 E68.63328
G1 X92.102 Y70.166 E68.65389
G1 X92.006 Y70.482 E68.67312
G1 X91.812 Y70.759 E68.6928
G1 X91.547 Y70.959 E68.71212
G1 X91.217 Y71.072 E68.73243
G1 X77.99 Y73.404 E69.51418
G1 X77.64 Y73.41 E69.53456
G1 X77.324 Y73.314 E69.55378
G1 X77.048 Y73.121 E69.57338
G1 X76.847 Y72.854 E69.59283
G1 X76.734 Y72.525 E69.61308
G1 X76.61 Y71.826 E69.6544
G1 X76.463 Y71.557 E69.67224
G1 X76.175 Y71.431 E69.69054
G1 X76.075 Y71.431 E69.69636
G1 X75.984 Y71.437 E69.70167
G1 X66.696 Y72.086 E70.2436
G1 X66.599 Y72.093 E70.24926
G1 X66.578 Y72.102 E70.25059
G1 X66.311 Y72.217 E70.26751
G1 X66.155 Y72.505 E70.28657
G1 X66.15 Y72.831 E70.30555
G1 X66.15 Y77.253 E70.56293
G1 X70.157 Y77.253 E70.79616
G1 X70.526 Y77.282 E70.81771
G1 X70.881 Y77.368 E70.83897
G1 X71.221 Y77.508 E70.86037
G1 X71.536 Y77.701 E70.88187
G1 X71.814 Y77.939 E70.90317
G1 X72.052 Y78.217 E70.92447
G1 X72.243 Y78.53 E70.94582
G1 X72.387 Y78.875 E70.96758
G1 X72.471 Y79.227 E70.98864
G1 X72.5 Y79.593 E71.01001
G1 X72.5 Y81.933 E71.14621
G1 X47.5 Y81.933 E72.60134
G1 X47.5 Y79.593 E72.73754
G1 X47.529 Y79.227 E72.75891
G1 X47.613 Y78.875 E72.77997
G1 X47.757 Y78.53 E72.80173
G1 X47.948 Y78.217 E72.82308
G1 X48.186 Y77.939 E72.84438
G1 X48.464 Y77.701 E72.86568
G1 X48.779 Y77.508 E72.88718
G1 X49.119 Y77.368 E72.90858
G1 X49.474 Y77.282 E72.92984
G1 X49.843 Y77.253 E72.95139
G1 X53.85 Y77.253 E73.18462
G1 X53.85 Y72.574 E73.45696
G1 X53.746 Y72.278 E73.47522
G1 X53.493 Y72.118 E73.49264
G1 X53.476 Y72.107 E73.49382
G1 X53.374 Y72.091 E73.49983
G1 X53.323 Y72.088 E73.5028
G1 X44.035 Y71.439 E74.04473
G1 X43.898 Y71.429 E74.05273
G1 X43.602 Y71.507 E74.07054
G1 X43.411 Y71.755 E74.08876
G1 X43.386 Y71.851 E74.09454
G1 X43.266 Y72.525 E74.13439
G1 X43.153 Y72.854 E74.15463
G1 X42.952 Y73.121 E74.17409
G1 X42.676 Y73.314 E74.19369
G1 X42.36 Y73.41 E74.21291
G1 X42.01 Y73.404 E74.23329
G1 X28.783 Y71.072 E75.01504
G1 X28.453 Y70.959 E75.03534
G1 X28.188 Y70.759 E75.05467
G1 X27.994 Y70.482 E75.07435
G1 X27.898 Y70.166 E75.09357
G1 X27.904 Y69.812 E75.11418
G1 X28.015 Y69.182 E75.15142
G1 X27.963 Y68.872 E75.16971
G1 X27.763 Y68.69 E75.18545
G1 X27.719 Y68.65 E75.18891
G1 X27.666 Y68.637 E75.19209
G1 X27.55 Y68.609 E75.19903
G1 X18.264 Y67.959 E75.74085
G1 X18.248 Y67.963 E75.74181
G1 X18.157 Y67.988 E75.7473
G1 X17.966 Y68.04 E75.75883
G1 X17.77 Y68.297 E75.77764
G1 X17.742 Y68.464 E75.78749
G1 X17.742 Y72.138 E76.00134
G1 X17.789 Y72.43 E76.01855
G1 X18.024 Y72.81 E76.04456
G1 X18.403 Y73.04 E76.07036
G1 X18.694 Y73.087 E76.08752
G1 X20.282 Y73.087 E76.17995
G1 X20.282 Y89.953 E77.16164
G0 F1800 X20.482 Y89.953
G0 X20.482 Y90.393
G0 X17.344 Y72.169
G0 X17.403 Y68.139
G0 X18.261 Y67.92
G0 X27.737 Y68.615
G0 X43.333 Y71.123
G0 X43.628 Y71.075
G1 F600 X43.828 Y71.255 E77.17424
G1 X43.874 Y71.297
G1 X43.927 Y71.309
G1 X44.042 Y71.338 E77.17577
G1 X53.329 Y71.988 E77.31188
G1 X53.344 Y71.984
G1 X53.435 Y71.959 E77.31476
G1 X53.626 Y71.907 E77.32225
G1 X53.83 Y71.641 E77.34176
G1 X53.85 Y71.228 E77.36583
G1 X53.85 Y47.334 E78.75659
G1 X53.746 Y47.038 E78.77485
G1 X53.493 Y46.878 E78.78825
G1 X53.476 Y46.867
G1 X53.374 Y46.851 E78.79166
G1 X53.323 Y46.848 E78.79322
G1 X44.035 Y46.199 E78.92938
G1 X43.898 Y46.189 E78.93202
G1 X43.602 Y46.267 E78.94552
G1 X43.411 Y46.515 E78.96374
G1 X43.386 Y46.611 E78.96951
G1 X43.266 Y47.285 E79.00936
G1 X43.153 Y47.614 E79.02961
G1 X42.952 Y47.881 E79.04906
G1 X42.676 Y48.074 E79.06866
G1 X42.36 Y48.17 E79.08789
G1 X42.01 Y48.164 E79.10826
G1 X28.783 Y45.832 E79.89002
G1 X28.453 Y45.719 E79.91032
G1 X28.188 Y45.519 E79.92964
G1 X27.994 Y45.242 E79.94933
G1 X27.898 Y44.926 E79.96855
G1 X27.904 Y44.572 E79.98916
G1 X28.015 Y43.942 E80.02639
G1 X27.963 Y43.632 E80.04469
G1 X27.763 Y43.45 E80.05732
G1 X27.719 Y43.41
G1 X27.666 Y43.397
G1 X27.55 Y43.369 E80.05885
G1 X18.265 Y42.72 E80.19497
G1 X18.246 Y42.724
G1 X18.156 Y42.748 E80.19664
G1 X17.966 Y42.799 E80.20409
G1 X17.77 Y43.057 E80.22295
G1 X17.742 Y43.224 E80.2328
G1 X17.742 Y46.898 E80.44665
G1 X17.789 Y47.19 E80.46386
G1 X18.024 Y47.57 E80.48987
G1 X18.403 Y47.8 E80.51567
G1 X18.694 Y47.847 E80.53283
G1 X20.282 Y47.847 E80.62526
G1 X20.282 Y62.687 E81.48903
G1 X18.683 Y62.687 E81.5821
G1 X18.264 Y62.789 E81.6072
G1 X17.929 Y63.078 E81.63295
G1 X17.785 Y63.359 E81.65133
G1 X17.742 Y63.64 E81.66787
G1 X17.742 Y67.373 E81.88515
G1 X17.845 Y67.669 E81.9034
G1 X18.098 Y67.829 E81.91682
G1 X18.116 Y67.84
G1 X18.218 Y67.856 E81.92023
G1 X18.27 Y67.859 E81.9218
G1 X27.556 Y68.509 E82.05725
G1 X27.694 Y68.519 E82.0599
G1 X27.99 Y68.44 E82.07337
G1 X28.181 Y68.193 E82.09155
G1 X28.207 Y68.096 E82.09739
G1 X28.326 Y67.422 E82.13723
G1 X28.439 Y67.092 E82.15753
G1 X28.639 Y66.827 E82.17686
G1 X28.916 Y66.633 E82.19654
G1 X29.232 Y66.537 E82.21576
G1 X29.582 Y66.543 E82.23614
G1 X42.807 Y68.874 E83.01777
G1 X43.138 Y68.989 E83.03816
G1 X43.405 Y69.189 E83.05758
G1 X43.598 Y69.465 E83.07718
