;FLAVOR:Marlin
;TIME:8416
;Filament used: 3.56679m
;Layer height: 0.2
;MINX:0.605
;MINY:31.203
;MINZ:0.35
;MAXX:116.424
;MAXY:87.603
;MAXZ:8.75
;Generated with Cura_SteamEngine 4.8.0
M104 S210
M105
M109 S210
M82 ;absolute extrusion mode

G92 E0
G92 E0
G1 F1800 E-4.5
;LAYER_COUNT:43
;LAYER:0
M106 S204
G0 X12.432 Y31.49 Z0.35
;TYPE:SKIRT
G1 F1800 E0
G1 F600 X12.909 Y31.321 E0.02945
G1 X13.646 Y31.213 E0.07281
G1 X14.056 Y31.203 E0.09668
G1 X96.409 Y31.203 E4.89006
G1 X97.11 Y31.213 E4.93086
G1 X97.613 Y31.26 E4.96027
G1 X98.103 Y31.386 E4.98972
G1 X98.566 Y31.588 E5.01912
G1 X98.993 Y31.86 E5.04859
G1 X99.371 Y32.195 E5.07799
G1 X99.81 Y32.77 E5.12009
G1 X100.026 Y33.132 E5.14463
G1 X101.007 Y34.827 E5.25862
G1 X102.438 Y37.149 E5.41738
G1 X103.938 Y39.437 E5.57662
G1 X105.52 Y41.705 E5.73757
G1 X107.142 Y43.895 E5.89619
G1 X108.822 Y46.035 E6.05455
G1 X110.583 Y48.153 E6.21487
G1 X112.411 Y50.228 E6.37583
G1 X113.737 Y51.652 E6.48909
G1 X114.699 Y52.678 E6.57095
G1 X115.015 Y53.073 E6.60039
G1 X115.264 Y53.513 E6.62982
G1 X115.441 Y53.987 E6.65927
G1 X115.554 Y54.583 E6.69458
G1 X115.623 Y55.235 E6.73274
G1 X116.373 Y63.462 E7.21358
G1 X116.424 Y64.132 E7.25269
G1 X116.422 Y64.638 E7.28214
G1 X116.341 Y65.137 E7.31157
G1 X116.182 Y65.617 E7.341
G1 X115.95 Y66.066 E7.37041
G1 X115.65 Y66.472 E7.3998
G1 X115.289 Y66.827 E7.42927
G1 X114.877 Y67.12 E7.45869
G1 X114.424 Y67.345 E7.48813
G1 X113.942 Y67.495 E7.51751
G1 X113.307 Y67.59 E7.55489
G1 X113.206 Y67.601 E7.5608
G1 X68.875 Y71.629 E10.15173
G1 X66.175 Y71.913 E10.30975
G1 X63.422 Y72.281 E10.47141
G1 X60.759 Y72.715 E10.62846
G1 X58.027 Y73.239 E10.79037
G1 X55.407 Y73.819 E10.94656
G1 X52.713 Y74.495 E11.10823
G1 X50.939 Y74.986 E11.21537
G1 X7.921 Y87.314 E13.82003
G1 X7.254 Y87.495 E13.86025
G1 X6.757 Y87.589 E13.8897
G1 X6.252 Y87.603 E13.9191
G1 X5.751 Y87.537 E13.94851
G1 X5.266 Y87.393 E13.97796
G1 X4.81 Y87.175 E14.00738
G1 X4.394 Y86.887 E14.03683
G1 X4.029 Y86.538 E14.06622
G1 X3.723 Y86.135 E14.09568
G1 X3.484 Y85.69 E14.12508
G1 X3.272 Y85.082 E14.16255
G1 X0.905 Y76.83 E14.66223
G1 X0.712 Y76.117 E14.70523
G1 X0.619 Y75.62 E14.73466
G1 X0.605 Y75.115 E14.76406
G1 X0.672 Y74.613 E14.79354
G1 X0.908 Y73.913 E14.83654
G1 X1.261 Y73.169 E14.88447
G1 X2.395 Y70.682 E15.04356
G1 X3.462 Y68.155 E15.20322
G1 X4.457 Y65.599 E15.36287
G1 X5.375 Y63.026 E15.52188
G1 X6.223 Y60.422 E15.68128
G1 X7.002 Y57.778 E15.84171
G1 X7.693 Y55.16 E15.99931
G1 X8.318 Y52.487 E16.15909
G1 X8.872 Y49.784 E16.31969
G1 X9.346 Y47.062 E16.48051
G1 X9.735 Y44.396 E16.63733
G1 X10.056 Y41.656 E16.7979
G1 X10.295 Y38.956 E16.95567
G1 X10.461 Y36.21 E17.11579
G1 X10.477 Y35.676 E17.14689
G1 X10.539 Y34.271 E17.22875
G1 X10.601 Y33.769 E17.25819
G1 X10.742 Y33.283 E17.28764
G1 X10.957 Y32.826 E17.31704
G1 X11.241 Y32.408 E17.34645
G1 X11.588 Y32.04 E17.37589
G1 X11.988 Y31.731 E17.40531
G1 X12.432 Y31.49 E17.43472
G1 F1800 E12.93472
;MESH:bistable_switch.stl
G0 X14.14 Y33.738
G0 X14.14 Y34.817
G0 X18.957 Y49.666
G0 X19.374 Y50.439
G0 X21.984 Y51.514
G0 X41.566 Y56.332
G0 X42.787 Y56.464
G0 X59.746 Y59.845
G0 X59.81 Y59.554
;TYPE:WALL-OUTER
G1 F1800 E17.43472
G1 F600 X62.849 Y60.213 E17.61571
G1 X111.995 Y55.104 E20.49168
G1 X112.195 Y55.084 E20.50338
G1 X112.212 Y55.284 E20.51089
G1 X112.213 Y55.285 E20.51097
G1 X113.027 Y64.203 E21.0322
G1 X59.137 Y69.1 E24.18181
G1 X6.546 Y84.172 E27.36611
G1 X4.092 Y75.611 E27.88447
G1 X4.037 Y75.419 E27.89609
G1 X4.229 Y75.364 E27.9036
G1 X45.003 Y63.679 E30.37239
G1 X45.375 Y63.536 E30.39559
G1 X45.726 Y63.329 E30.41931
G1 X46.039 Y63.065 E30.44314
G1 X46.302 Y62.753 E30.46689
G1 X46.508 Y62.401 E30.49063
G1 X46.654 Y62.021 E30.51433
G1 X46.734 Y61.621 E30.53807
G1 X46.746 Y61.213 E30.56183
G1 X46.69 Y60.809 E30.58557
G1 X46.569 Y60.422 E30.60917
G1 X44.881 Y57.477 E30.80674
G1 X44.48 Y57.136 E30.83738
G1 X44.057 Y56.874 E30.86634
G1 X43.642 Y56.696 E30.89263
G1 X43.598 Y56.678 E30.89539
G1 X43.502 Y56.654 E30.90115
G1 X43.151 Y56.564 E30.92224
G1 X43.117 Y56.555 E30.92429
G1 X42.779 Y56.521 E30.94406
G1 X42.617 Y56.504 E30.95355
G1 X42.406 Y56.53 E30.96592
G1 X42.037 Y56.576 E30.98756
G1 X41.906 Y56.593 E30.99525
G1 X41.84 Y56.623 E30.99947
G1 X41.248 Y56.892 E31.03732
G1 X40.946 Y57.122 E31.05942
G1 X40.504 Y57.651 E31.09954
G1 X38.783 Y59.297 E31.23815
G1 X32.562 Y58.019 E31.60781
G1 X22.829 Y54.263 E32.21504
G1 X22.326 Y52.284 E32.33389
G1 X21.923 Y51.862 E32.36785
G1 X21.634 Y51.65 E32.38871
G1 X21.49 Y51.545 E32.39909
G1 X21.167 Y51.385 E32.42007
G1 X21.008 Y51.306 E32.4304
G1 X20.841 Y51.257 E32.44053
G1 X20.491 Y51.154 E32.46177
G1 X20.145 Y51.154 E32.48191
G1 X20.035 Y51.154 E32.48831
G1 X13.926 Y51.148 E32.84389
G1 X13.926 Y34.603 E33.80689
G1 X96.87 Y34.603 E38.63467
G1 X96.87 Y46.375 E39.31986
G1 X67.814 Y49.874 E41.02329
G1 X63.578 Y52.716 E41.3202
G1 X61.567 Y51.86 E41.44741
G1 X61.141 Y51.76 E41.47288
G1 X60.704 Y51.733 E41.49836
G1 X60.269 Y51.782 E41.52384
G1 X59.919 Y51.884 E41.54506
G1 X59.871 Y51.897 E41.54796
G1 X59.848 Y51.904 E41.54936
G1 X59.544 Y52.052 E41.56903
G1 X59.455 Y52.096 E41.57481
G1 X59.198 Y52.282 E41.59328
G1 X59.1 Y52.353 E41.60032
G1 X58.908 Y52.551 E41.61638
G1 X58.795 Y52.667 E41.6258
G1 X58.752 Y52.73 E41.63024
G1 X58.546 Y53.028 E41.65133
G1 X58.364 Y53.426 E41.6768
G1 X58.247 Y53.866 E41.7033
G1 X58.36 Y54.617 E41.7475
G1 X58.827 Y56.643 E41.86852
G1 X59.81 Y59.554 E42.04736
G0 F1800 X60.005 Y59.596
G0 X59.911 Y60.026
G0 X58.597 Y56.71
G0 X58.125 Y54.665
G0 X58.004 Y53.852
G0 X58.371 Y52.866
G0 X60.173 Y51.564
G0 X74.788 Y44.991
G0 X77.931 Y36.515
G0 X78.159 Y36.743
G1 F600 X78.159 Y40.112 E42.24345
G1 X75.279 Y44.428 E42.54546
G1 X75.196 Y44.552 E42.55414
G1 X75.309 Y44.763 E42.56807
G1 X75.459 Y44.763 E42.5768
G1 X76.81 Y44.763 E42.65544
G1 X78.727 Y41.739 E42.86384
G1 X78.895 Y41.473 E42.88215
G1 X79.063 Y41.739 E42.89271
G1 X80.983 Y44.763 E43.1012
G1 X82.335 Y44.763 E43.17989
G1 X82.485 Y44.763 E43.18862
G1 X82.598 Y44.552 E43.20256
G1 X82.515 Y44.428 E43.21124
G1 X79.634 Y40.112 E43.51328
G1 X79.634 Y36.743 E43.70937
G1 X78.159 Y36.743 E43.79523
G0 F1800 X78.159 Y36.943
G0 X77.719 Y36.943
G0 X79.862 Y36.515
G0 X83.045 Y43.768
G0 X83.879 Y44.623
G0 X85.139 Y44.978
G0 X88.958 Y44.991
G0 X88.73 Y44.763
G1 F600 X88.73 Y36.743 E44.26203
G1 X85.668 Y36.743 E44.44026
G1 X85.407 Y36.748 E44.45545
G1 X84.617 Y36.829 E44.50168
G1 X84.118 Y36.963 E44.53175
G1 X83.626 Y37.205 E44.56366
G1 X83.222 Y37.568 E44.59528
G1 X82.931 Y38.003 E44.62574
G1 X82.727 Y38.581 E44.66141
G1 X82.662 Y39.129 E44.69353
G1 X82.749 Y39.733 E44.72905
G1 X82.897 Y40.109 E44.75257
G1 X83.116 Y40.438 E44.77558
G1 X83.533 Y40.807 E44.80799
G1 X83.586 Y40.854 E44.81211
G1 X83.759 Y40.932 E44.82316
G1 X83.87 Y40.983 E44.83027
G1 X83.724 Y41.074 E44.83409
G1 X83.683 Y41.1
G1 X83.632 Y41.15 E44.83825
G1 X83.366 Y41.414 E44.86006
G1 X83.063 Y41.965 E44.89666
G1 X82.955 Y42.584 E44.93324
G1 X83.028 Y43.133 E44.96547
G1 X83.254 Y43.651 E44.99837
G1 X83.506 Y44.014 E45.02409
G1 X84.001 Y44.413 E45.06109
G1 X84.554 Y44.63 E45.09567
G1 X85.166 Y44.741 E45.13187
G1 X85.673 Y44.763 E45.16141
G1 X88.73 Y44.763 E45.33934
G0 F1800 X88.73 Y44.563
G0 X89.13 Y45.163
;TYPE:WALL-INNER
G1 F600 X89.13 Y36.343 E45.85271
G1 X85.664 Y36.343 E46.05445
G1 X85.383 Y36.348 E46.07081
G1 X84.544 Y36.434 E46.1199
G1 X83.977 Y36.587 E46.15409
G1 X83.4 Y36.87 E46.19149
G1 X82.917 Y37.304 E46.22929
G1 X82.571 Y37.822 E46.26554
G1 X82.335 Y38.49 E46.30678
G1 X82.259 Y39.134 E46.34453
G1 X82.36 Y39.836 E46.38581
G1 X82.54 Y40.295 E46.4145
G1 X82.812 Y40.703 E46.44304
G1 X83.173 Y41.023 E46.47112
G1 X83.184 Y41.032 E46.47195
G1 X83.043 Y41.171 E46.47906
G1 X82.68 Y41.831 E46.5229
G1 X82.55 Y42.576 E46.56692
G1 X82.629 Y43.161 E46.60128
G1 X82.639 Y43.241 E46.60597
G1 X82.903 Y43.847 E46.64445
G1 X83.21 Y44.289 E46.67577
G1 X83.238 Y44.312 E46.67788
G1 X83.294 Y44.357 E46.68206
G1 X83.798 Y44.763 E46.71973
G1 X84.444 Y45.017 E46.76013
G1 X85.121 Y45.139 E46.80017
G1 X85.664 Y45.163 E46.83181
G1 X89.13 Y45.163 E47.03355
G0 F1800 X68.271 Y44.991
G0 X68.499 Y44.763
;TYPE:WALL-OUTER
G1 F600 X69.973 Y44.763 E47.11934
G1 X69.973 Y40.23 E47.38319
G1 X70.035 Y39.399 E47.43169
G1 X70.126 Y38.936 E47.45916
G1 X70.279 Y38.573 E47.48209
G1 X70.468 Y38.356 E47.49883
G1 X70.784 Y38.17 E47.52018
G1 X71.249 Y38.058 E47.54802
G1 X71.806 Y38.028 E47.58048
G1 X72.33 Y38.121 E47.61146
G1 X72.599 Y38.237 E47.62851
G1 X72.903 Y38.486 E47.65138
G1 X73.114 Y38.833 E47.67502
G1 X73.234 Y39.328 E47.70467
G1 X73.28 Y40.055 E47.74707
G1 X73.286 Y40.23 E47.75726
G1 X73.286 Y44.763 E48.0211
G1 X74.76 Y44.763 E48.1069
G1 X74.76 Y40.176 E48.37389
G1 X74.748 Y39.69 E48.40218
G1 X74.644 Y38.824 E48.45295
G1 X74.496 Y38.287 E48.48537
G1 X74.18 Y37.706 E48.52387
G1 X73.86 Y37.344 E48.55199
G1 X73.294 Y36.98 E48.59116
G1 X72.72 Y36.767 E48.62679
G1 X72.163 Y36.673 E48.65967
G1 X71.609 Y36.646 E48.69196
G1 X70.923 Y36.693 E48.73198
G1 X70.385 Y36.813 E48.76406
G1 X69.973 Y36.978 E48.7899
G1 X69.413 Y37.369 E48.82965
G1 X69.11 Y37.679 E48.85488
G1 X68.818 Y38.178 E48.88853
G1 X68.638 Y38.721 E48.92183
G1 X68.519 Y39.536 E48.96977
G1 X68.499 Y40.176 E49.00704
G1 X68.499 Y44.763 E49.27403
G0 F1800 X68.699 Y44.763
G0 X68.099 Y45.163
;TYPE:WALL-INNER
G1 F600 X70.373 Y45.163 E49.40638
G1 X70.373 Y40.244 E49.6927
G1 X70.433 Y39.447 E49.73922
G1 X70.509 Y39.057 E49.76234
G1 X70.623 Y38.788 E49.77935
G1 X70.728 Y38.668 E49.78863
G1 X70.936 Y38.545 E49.8027
G1 X71.31 Y38.455 E49.82509
G1 X71.779 Y38.43 E49.85242
G1 X72.217 Y38.507 E49.87831
G1 X72.39 Y38.582 E49.88928
G1 X72.595 Y38.75 E49.90471
G1 X72.74 Y38.988 E49.92093
G1 X72.837 Y39.391 E49.94506
G1 X72.88 Y40.069 E49.9846
G1 X72.886 Y40.23 E49.99398
G1 X72.886 Y45.163 E50.2811
G1 X77.03 Y45.163 E50.52231
G1 X78.727 Y42.485 E50.70684
G1 X78.895 Y42.22 E50.7251
G1 X79.063 Y42.485 E50.73564
G1 X80.763 Y45.163 E50.92026
G1 X82.725 Y45.163 E51.03446
G1 X83.03 Y44.593 E51.07209
G1 X83.064 Y44.529 E51.07582
G1 X82.999 Y44.431 E51.08118
G1 X82.7 Y43.983 E51.10074
G1 X82.339 Y43.442 E51.12982
G1 X82.295 Y43.375 E51.13427
G1 X80.034 Y39.99 E51.37121
G1 X80.034 Y36.343 E51.58348
G1 X77.759 Y36.343 E51.7159
G1 X77.759 Y39.99 E51.92817
G1 X75.525 Y43.338 E52.16244
G1 X75.16 Y43.885 E52.20072
G1 X75.16 Y43.228 E52.22065
G1 X75.16 Y43.227 E52.22071
G1 X75.16 Y40.171 E52.39859
G1 X75.147 Y39.661 E52.42828
G1 X75.038 Y38.747 E52.48186
G1 X74.869 Y38.136 E52.51876
G1 X74.51 Y37.475 E52.56254
G1 X74.123 Y37.038 E52.59651
G1 X73.474 Y36.62 E52.64145
G1 X72.824 Y36.379 E52.6818
G1 X72.206 Y36.275 E52.71827
G1 X71.605 Y36.245 E52.7533
G1 X70.865 Y36.296 E52.79647
G1 X70.266 Y36.43 E52.8322
G1 X69.782 Y36.624 E52.86255
G1 X69.153 Y37.063 E52.9072
G1 X68.79 Y37.435 E52.93745
G1 X68.452 Y38.012 E52.97637
G1 X68.247 Y38.628 E53.01416
G1 X68.12 Y39.501 E53.06551
G1 X68.099 Y40.17 E53.10446
G1 X68.099 Y45.163 E53.39508
G0 F1800 X60.693 Y49.901
G0 X60.395 Y49.867
;TYPE:WALL-OUTER
G1 F600 X59.959 Y48.603 E53.47291
G1 X60.813 Y48.026 E53.5329
G1 X61.198 Y47.661 E53.56378
G1 X61.455 Y47.178 E53.59562
G1 X61.541 Y46.658 E53.6263
G1 X61.548 Y44.573 E53.74766
G1 X61.52 Y44.199 E53.76949
G1 X61.432 Y43.826 E53.79179
G1 X61.285 Y43.472 E53.81411
G1 X61.085 Y43.145 E53.83642
G1 X60.836 Y42.854 E53.85871
G1 X60.545 Y42.606 E53.88096
G1 X60.218 Y42.405 E53.9033
G1 X59.864 Y42.259 E53.92559
G1 X59.491 Y42.171 E53.9479
G1 X59.124 Y42.141 E53.96933
G1 X36.103 Y42.143 E55.30927
G1 X20.385 Y46.566 E56.25968
G1 X20.039 Y46.774 E56.28317
G1 X19.744 Y47.024 E56.30568
G1 X19.494 Y47.317 E56.3281
G1 X19.291 Y47.646 E56.3506
G1 X19.144 Y48.003 E56.37307
G1 X19.052 Y48.383 E56.39583
G1 X19.084 Y49.191 E56.4429
G1 X19.184 Y49.588 E56.46673
G1 X19.344 Y49.954 E56.48998
G1 X19.562 Y50.289 E56.51324
G1 X19.83 Y50.583 E56.53639
G1 X20.059 Y50.763 E56.55335
G1 X20.145 Y50.83 E56.55912
G1 X20.495 Y51.021 E56.57332
G1 X20.533 Y51.034
G1 X20.871 Y51.153 E56.57932
G1 X21.03 Y51.181 E56.58182
G1 X21.248 Y51.22 E56.58764
G1 X21.518 Y51.245 E56.59628
G1 X21.696 Y51.261 E56.60544
G1 X39.855 Y52.979 E57.66711
G1 X40.744 Y55.266 E57.80993
G1 X41.001 Y55.602 E57.83455
G1 X41.297 Y55.878 E57.85811
G1 X41.631 Y56.104 E57.88158
G1 X41.932 Y56.242 E57.90085
G1 X41.998 Y56.272 E57.90507
G1 X42.387 Y56.38 E57.92036
G1 X42.627 Y56.407 E57.92534
G1 X42.788 Y56.425 E57.92764
G1 X43.109 Y56.409 E57.93295
G1 X43.191 Y56.404 E57.93338
G1 X43.522 Y56.332 E57.94528
G1 X43.587 Y56.318 E57.94846
G1 X43.631 Y56.301 E57.9512
G1 X43.962 Y56.17 E57.97192
G1 X44.309 Y55.964 E57.99541
G1 X44.62 Y55.704 E58.01901
G1 X44.886 Y55.395 E58.04274
G1 X45.831 Y53.417 E58.17033
G1 X55.23 Y51.721 E58.72624
G1 X56.13 Y52.051 E58.78203
G1 X56.494 Y52.266 E58.80664
G1 X56.916 Y52.426 E58.83291
G1 X57.358 Y52.515 E58.85915
G1 X57.809 Y52.53 E58.88542
G1 X58.256 Y52.47 E58.91167
G1 X58.614 Y52.36 E58.93347
G1 X58.687 Y52.338 E58.93704
G1 X59.009 Y52.175 E58.95129
G1 X59.09 Y52.134 E58.95333
G1 X59.346 Y51.948 E58.96178
G1 X59.454 Y51.869 E58.96605
G1 X59.629 Y51.69 E58.97448
G1 X59.769 Y51.547 E58.98508
G1 X59.797 Y51.506 E58.98785
G1 X60.026 Y51.176 E59.01123
G1 X60.219 Y50.768 E59.0375
G1 X60.342 Y50.335 E59.0637
G1 X60.395 Y49.867 E59.09112
G0 F1800 X60.33 Y49.678
G0 X60.745 Y49.536
G0 X60.267 Y51.55
G0 X58.371 Y52.866
G0 X58.004 Y53.852
G0 X58.125 Y54.665
G0 X58.391 Y55.824
G0 X59.504 Y59.897
;TYPE:WALL-INNER
G1 F600 X62.827 Y60.617 E59.28902
G1 X111.634 Y55.544 E62.14515
G1 X111.834 Y55.524 E62.15685
G1 X111.851 Y55.724 E62.16435
G1 X111.852 Y55.725 E62.16443
G1 X112.593 Y63.841 E62.63879
G1 X59.063 Y68.705 E65.76736
G1 X6.821 Y83.677 E68.93052
G1 X4.586 Y75.885 E69.40235
G1 X4.532 Y75.694 E69.4139
G1 X4.723 Y75.64 E69.42137
G1 X45.13 Y64.059 E71.86796
G1 X45.55 Y63.897 E71.89416
G1 X45.958 Y63.656 E71.92174
G1 X46.323 Y63.349 E71.9495
G1 X46.63 Y62.985 E71.97722
G1 X46.87 Y62.575 E72.00487
G1 X47.04 Y62.133 E72.03243
G1 X47.133 Y61.666 E72.06015
G1 X47.147 Y61.191 E72.08781
G1 X47.082 Y60.721 E72.11543
G1 X46.938 Y60.261 E72.14348
G1 X45.193 Y57.218 E72.34766
G1 X44.716 Y56.812 E72.38412
G1 X44.385 Y56.607 E72.40678
G1 X44.357 Y56.59 E72.40868
G1 X44.242 Y56.518 E72.41658
G1 X44.194 Y56.497 E72.41963
G1 X44.22 Y56.482
G1 X44.541 Y56.292 E72.43466
G1 X44.566 Y56.271 E72.43647
G1 X44.902 Y55.99 E72.46196
G1 X45.224 Y55.616 E72.49069
G1 X46.103 Y53.775 E72.60943
G1 X55.194 Y52.134 E73.14713
G1 X55.963 Y52.416 E73.1948
G1 X56.32 Y52.628 E73.21897
G1 X56.805 Y52.812 E73.24916
G1 X57.312 Y52.914 E73.27926
G1 X57.824 Y52.931 E73.30908
G1 X57.829 Y52.931 E73.30937
G1 X57.935 Y52.917 E73.31559
G1 X58.172 Y52.885 E73.32951
G1 X58.095 Y53.053 E73.33224
G1 X57.986 Y53.29 E73.34361
G1 X57.985 Y53.294 E73.34385
G1 X57.839 Y53.843 E73.37692
G1 X57.967 Y54.692 E73.42689
G1 X58.442 Y56.752 E73.54994
G1 X59.504 Y59.897 E73.74315
G0 F1800 X58.597 Y56.71
G0 X58.125 Y54.665
G0 X58.004 Y53.852
G0 X58.371 Y52.866
G0 X60.173 Y51.564
G0 X61.171 Y51.522
G0 X63.535 Y52.263
G1 F600 X61.692 Y51.478 E73.85975
G1 X61.199 Y51.363 E73.88922
G1 X60.789 Y51.337 E73.91313
G1 X60.694 Y51.332 E73.91867
G1 X60.379 Y51.367 E73.93711
G1 X60.449 Y51.217 E73.9385
G1 X60.489 Y51.131 E73.94327
G1 X60.595 Y50.909 E73.95759
G1 X60.736 Y50.413 E73.98761
G1 X60.803 Y49.822 E74.02223
G1 X60.437 Y48.762 E74.0875
G1 X61.064 Y48.339 E74.13152
G1 X61.521 Y47.906 E74.16817
G1 X61.839 Y47.308 E74.20759
G1 X61.941 Y46.692 E74.24393
G1 X61.948 Y44.559 E74.36808
G1 X61.917 Y44.138 E74.39265
G1 X61.814 Y43.703 E74.41867
