;FLAVOR:Marlin
;TIME:4982
;Filament used: 2.0134m
;Layer height: 0.2
;MINX:22.613
;MINY:29.536
;MINZ:0.35
;MAXX:105.624
;MAXY:88.862
;MAXZ:10.15
;Generated with Cura_SteamEngine 4.8.0
M104 S210
M105
M109 S210
M82 ;absolute extrusion mode

G92 E0
G92 E0
G1 F1800 E-4.5
;LAYER_COUNT:50
;LAYER:0
M106 S204
G0 X24.874 Y34.887 Z0.35
;TYPE:SKIRT
G1 F1800 E0
G1 F600 X25.315 Y34.578 E0.03134
G1 X25.422 Y34.506 E0.03885
G1 X26.219 Y33.989 E0.09414
G1 X26.329 Y33.92 E0.1017
G1 X27.119 Y33.447 E0.1553
G1 X27.226 Y33.385 E0.16249
G1 X28.031 Y32.94 E0.21603
G1 X28.494 Y32.699 E0.24641
G1 X28.594 Y32.649 E0.25292
G1 X29.484 Y32.222 E0.31038
G1 X29.591 Y32.173 E0.31723
G1 X30.44 Y31.801 E0.37118
G1 X30.989 Y31.579 E0.40565
G1 X31.892 Y31.244 E0.46171
G1 X32.015 Y31.201 E0.46929
G1 X33.041 Y30.862 E0.53218
G1 X33.171 Y30.821 E0.54012
G1 X34.054 Y30.566 E0.59361
G1 X34.19 Y30.53 E0.6018
G1 X35.365 Y30.24 E0.67225
G1 X35.886 Y30.126 E0.70329
G1 X36 Y30.103 E0.71006
G1 X36.906 Y29.938 E0.76366
G1 X37.587 Y29.832 E0.80377
G1 X37.695 Y29.817 E0.81012
G1 X38.661 Y29.699 E0.86676
G1 X39.216 Y29.646 E0.89922
G1 X40.296 Y29.574 E0.96222
G1 X41.175 Y29.54 E1.01342
G1 X41.573 Y29.536 E1.03658
G1 X42.353 Y29.546 E1.08199
G1 X43.433 Y29.589 E1.1449
G1 X44.02 Y29.629 E1.17914
G1 X45.097 Y29.735 E1.24213
G1 X45.206 Y29.747 E1.24852
G1 X45.812 Y29.827 E1.2841
G1 X46.818 Y29.986 E1.34338
G1 X47.474 Y30.11 E1.38224
G1 X48.036 Y30.229 E1.41567
G1 X49.765 Y30.651 E1.51926
G1 X50.74 Y30.911 E1.578
G1 X53.364 Y31.532 E1.73495
G1 X56.066 Y32.092 E1.89556
G1 X58.742 Y32.566 E2.05374
G1 X61.441 Y32.966 E2.21255
G1 X64.131 Y33.289 E2.37025
G1 X66.849 Y33.537 E2.52911
G1 X69.572 Y33.708 E2.68791
G1 X72.303 Y33.801 E2.84696
G1 X74.282 Y33.821 E2.96216
G1 X96.253 Y33.821 E4.24099
G1 X96.831 Y33.829 E4.27463
G1 X97.497 Y33.858 E4.31343
G1 X98.009 Y33.91 E4.34339
G1 X98.724 Y34.03 E4.38559
G1 X99.215 Y34.142 E4.4149
G1 X100.003 Y34.401 E4.46318
G1 X100.466 Y34.592 E4.49233
G1 X101.06 Y34.886 E4.53091
G1 X101.618 Y35.218 E4.5687
G1 X102.253 Y35.662 E4.6138
G1 X102.876 Y36.196 E4.66156
G1 X103.263 Y36.584 E4.69346
G1 X103.645 Y37.02 E4.7272
G1 X104.048 Y37.553 E4.76609
G1 X104.413 Y38.129 E4.80578
G1 X104.704 Y38.664 E4.84123
G1 X104.957 Y39.205 E4.87599
G1 X105.187 Y39.836 E4.91508
G1 X105.275 Y40.134 E4.93317
G1 X105.453 Y40.853 E4.97628
G1 X105.565 Y41.534 E5.01645
G1 X105.616 Y42.161 E5.05307
G1 X105.624 Y42.674 E5.08293
G1 X105.593 Y43.309 E5.11993
G1 X105.509 Y43.969 E5.15866
G1 X105.35 Y44.733 E5.20408
G1 X105.113 Y45.504 E5.25103
G1 X104.909 Y46.015 E5.28305
G1 X104.661 Y46.538 E5.31674
G1 X104.359 Y47.061 E5.3519
G1 X104.108 Y47.444 E5.37855
G1 X103.157 Y48.854 E5.47754
G1 X102.754 Y49.434 E5.51865
G1 X102.4 Y49.896 E5.55253
G1 X101.11 Y51.495 E5.67211
G1 X99.594 Y53.485 E5.81772
G1 X99.248 Y53.949 E5.85141
G1 X98.894 Y54.403 E5.88492
G1 X98.565 Y54.781 E5.91408
G1 X98.157 Y55.197 E5.948
G1 X97.604 Y55.676 E5.99058
G1 X97.377 Y55.858 E6.00752
G1 X95.231 Y57.607 E6.16866
G1 X93.153 Y59.401 E6.32845
G1 X91.139 Y61.241 E6.48723
G1 X89.196 Y63.121 E6.64459
G1 X88.023 Y64.334 E6.74281
G1 X87.949 Y64.4 E6.74858
G1 X87 Y65.368 E6.82748
G1 X86.429 Y65.92 E6.87371
G1 X81.866 Y70.194 E7.23761
G1 X81.319 Y70.691 E7.28063
G1 X80.896 Y71.022 E7.31189
G1 X80.398 Y71.302 E7.34514
G1 X79.869 Y71.545 E7.37903
G1 X78.432 Y72.183 E7.47054
G1 X75.97 Y73.318 E7.62834
G1 X73.504 Y74.541 E7.78855
G1 X71.101 Y75.818 E7.94694
G1 X68.731 Y77.164 E8.10559
G1 X66.42 Y78.567 E8.26295
G1 X64.095 Y80.067 E8.42399
G1 X61.891 Y81.581 E8.57963
G1 X60.974 Y82.248 E8.64563
G1 X60.896 Y82.296 E8.65096
G1 X59.127 Y83.574 E8.77798
G1 X59.016 Y83.651 E8.78585
G1 X58.122 Y84.247 E8.84839
G1 X58.003 Y84.323 E8.8566
G1 X57.21 Y84.808 E8.91071
G1 X57.092 Y84.877 E8.91867
G1 X56.05 Y85.461 E8.98819
G1 X55.571 Y85.712 E9.01967
G1 X55.476 Y85.76 E9.02586
G1 X54.836 Y86.069 E9.06723
G1 X54.722 Y86.122 E9.07455
G1 X53.566 Y86.631 E9.14807
G1 X53.459 Y86.676 E9.15482
G1 X52.676 Y86.991 E9.20395
G1 X52.511 Y87.052 E9.21419
G1 X51.419 Y87.43 E9.28145
G1 X50.818 Y87.619 E9.31812
G1 X50.33 Y87.761 E9.3477
G1 X49.344 Y88.02 E9.40704
G1 X49.241 Y88.046 E9.41322
G1 X48.691 Y88.173 E9.44607
G1 X47.672 Y88.379 E9.50658
G1 X47.01 Y88.494 E9.54569
G1 X46.912 Y88.51 E9.55147
G1 X46.143 Y88.62 E9.59669
G1 X45.086 Y88.738 E9.65859
G1 X44.488 Y88.786 E9.69351
G1 X43.302 Y88.846 E9.76263
G1 X43.167 Y88.851 E9.7705
G1 X42.325 Y88.862 E9.81951
G1 X42.194 Y88.861 E9.82713
G1 X41.128 Y88.836 E9.8892
G1 X40.987 Y88.83 E9.89741
G1 X40.045 Y88.771 E9.95235
G1 X39.914 Y88.76 E9.96
G1 X39.039 Y88.673 E10.01118
G1 X38.905 Y88.657 E10.01904
G1 X37.901 Y88.519 E10.07802
G1 X37.772 Y88.499 E10.08562
G1 X36.873 Y88.342 E10.13874
G1 X36.749 Y88.318 E10.14609
G1 X35.877 Y88.134 E10.19796
G1 X35.749 Y88.105 E10.2056
G1 X34.71 Y87.846 E10.26793
G1 X34.062 Y87.655 E10.30725
G1 X33.458 Y87.409 E10.34521
G1 X32.821 Y87.051 E10.38774
G1 X32.506 Y86.829 E10.41017
G1 X32.074 Y86.471 E10.44283
G1 X31.594 Y85.971 E10.48317
G1 X31.412 Y85.748 E10.49992
G1 X31.029 Y85.175 E10.54004
G1 X30.75 Y84.612 E10.57661
G1 X30.509 Y83.919 E10.61932
G1 X30.4 Y83.461 E10.64672
G1 X30.315 Y82.932 E10.67791
G1 X30.301 Y82.355 E10.7115
G1 X30.302 Y82.251 E10.71756
G1 X30.338 Y80.829 E10.80035
G1 X30.369 Y78.078 E10.96048
G1 X30.322 Y75.382 E11.11743
G1 X30.198 Y72.655 E11.27632
G1 X29.997 Y69.93 E11.43536
G1 X29.723 Y67.247 E11.59233
G1 X29.365 Y64.512 E11.75288
G1 X28.931 Y61.8 E11.91274
G1 X28.433 Y59.166 E12.06877
G1 X27.851 Y56.503 E12.22743
G1 X27.187 Y53.829 E12.3878
G1 X26.46 Y51.212 E12.54589
G1 X25.658 Y48.622 E12.7037
G1 X24.77 Y46.015 E12.86401
G1 X23.814 Y43.448 E13.02345
G1 X23.216 Y41.972 E13.11614
G1 X22.999 Y41.414 E13.15099
G1 X22.783 Y40.72 E13.19329
G1 X22.738 Y40.554 E13.2033
G1 X22.626 Y39.832 E13.24583
G1 X22.613 Y39.129 E13.28676
G1 X22.632 Y38.828 E13.30431
G1 X22.713 Y38.264 E13.33747
G1 X22.788 Y37.931 E13.35734
G1 X23.02 Y37.238 E13.39988
G1 X23.273 Y36.71 E13.43396
G1 X23.67 Y36.084 E13.4771
G1 X24.043 Y35.631 E13.51126
G1 X24.51 Y35.172 E13.54937
G1 X24.874 Y34.887 E13.57628
G0 F1800 X25.104 Y35.214
G1 F600 X25.545 Y34.905 E13.60762
G1 X25.64 Y34.841 E13.61429
G1 X26.437 Y34.324 E13.66958
G1 X26.534 Y34.263 E13.67625
G1 X27.324 Y33.79 E13.72985
G1 X27.42 Y33.735 E13.73629
G1 X28.3 Y33.25 E13.79477
G1 X28.767 Y33.01 E13.82533
G1 X29.752 Y32.539 E13.88888
G1 X30.591 Y32.171 E13.94221
G1 X31.128 Y31.954 E13.97592
G1 X32.031 Y31.619 E14.03198
G1 X32.14 Y31.581 E14.0387
G1 X33.166 Y31.242 E14.10159
G1 X33.282 Y31.206 E14.10866
G1 X34.165 Y30.951 E14.16216
G1 X34.286 Y30.918 E14.16946
G1 X35.461 Y30.628 E14.2399
G1 X35.97 Y30.517 E14.27022
G1 X36.978 Y30.332 E14.32987
G1 X37.064 Y30.317 E14.33496
G1 X37.743 Y30.214 E14.37493
G1 X38.699 Y30.097 E14.43099
G1 X39.254 Y30.044 E14.46344
G1 X40.322 Y29.973 E14.52574
G1 X40.412 Y29.968 E14.53099
G1 X41.18 Y29.94 E14.57572
G1 X41.568 Y29.936 E14.5983
G1 X42.348 Y29.946 E14.64371
G1 X43.417 Y29.989 E14.70598
G1 X43.992 Y30.028 E14.73952
G1 X45.057 Y30.133 E14.80181
G1 X45.155 Y30.144 E14.80755
G1 X45.75 Y30.222 E14.84248
G1 X46.651 Y30.363 E14.89556
G1 X47.391 Y30.501 E14.93938
G1 X47.953 Y30.62 E14.97281
G1 X49.324 Y30.955 E15.05496
G1 X49.734 Y31.056 E15.07954
G1 X50.651 Y31.301 E15.13478
G1 X53.297 Y31.927 E15.29305
G1 X55.987 Y32.484 E15.45294
G1 X58.685 Y32.962 E15.61242
G1 X61.371 Y33.36 E15.77047
G1 X64.08 Y33.686 E15.92928
G1 X66.824 Y33.936 E16.08966
G1 X69.568 Y34.108 E16.24969
G1 X72.287 Y34.201 E16.40804
G1 X74.278 Y34.221 E16.52394
G1 X96.247 Y34.221 E17.80265
G1 X96.926 Y34.232 E17.84217
G1 X97.576 Y34.263 E17.88005
G1 X97.943 Y34.304 E17.90154
G1 X98.658 Y34.424 E17.94374
G1 X99.294 Y34.583 E17.9819
G1 X99.873 Y34.779 E18.01748
G1 X100.453 Y35.028 E18.05422
G1 X101.115 Y35.374 E18.0977
G1 X101.791 Y35.818 E18.14477
G1 X102.29 Y36.21 E18.1817
G1 X102.808 Y36.686 E18.22265
G1 X103.343 Y37.282 E18.26927
G1 X103.715 Y37.774 E18.30517
G1 X104.062 Y38.32 E18.34282
G1 X104.353 Y38.855 E18.37827
G1 X104.591 Y39.367 E18.41114
G1 X104.809 Y39.966 E18.44824
G1 X104.886 Y40.23 E18.46424
G1 X105.064 Y40.949 E18.50736
G1 X105.168 Y41.582 E18.5447
G1 X105.217 Y42.191 E18.58026
G1 X105.219 Y42.815 E18.61658
G1 X105.168 Y43.546 E18.65923
G1 X105.025 Y44.37 E18.70791
G1 X104.867 Y44.966 E18.7438
G1 X104.627 Y45.657 E18.78637
G1 X104.3 Y46.365 E18.83176
G1 X104.021 Y46.848 E18.86423
G1 X103.777 Y47.22 E18.89013
G1 X102.829 Y48.626 E18.98883
G1 X102.426 Y49.206 E19.02993
G1 X102.085 Y49.649 E19.06247
G1 X100.797 Y51.247 E19.18194
G1 X99.273 Y53.247 E19.32829
G1 X98.933 Y53.703 E19.3614
G1 X98.579 Y54.157 E19.39491
G1 X98.011 Y54.78 E19.44398
G1 X97.347 Y55.37 E19.49568
G1 X97.124 Y55.548 E19.51229
G1 X94.979 Y57.295 E19.67331
G1 X92.888 Y59.102 E19.83416
G1 X90.874 Y60.941 E19.99291
G1 X88.913 Y62.838 E20.15171
G1 X87.736 Y64.056 E20.2503
G1 X87.659 Y64.124 E20.25628
G1 X86.65 Y65.152 E20.34012
G1 X86.119 Y65.663 E20.38301
G1 X81.597 Y69.898 E20.74362
G1 X81.05 Y70.395 E20.78664
G1 X80.65 Y70.705 E20.8161
G1 X80.134 Y70.984 E20.85024
G1 X79.707 Y71.18 E20.87758
G1 X78.27 Y71.818 E20.9691
G1 X75.803 Y72.955 E21.12721
G1 X73.317 Y74.187 E21.2887
G1 X70.91 Y75.466 E21.44735
G1 X68.542 Y76.811 E21.60586
G1 X66.19 Y78.239 E21.76602
G1 X63.898 Y79.719 E21.92482
G1 X61.613 Y81.288 E22.08615
G1 X60.739 Y81.924 E22.14907
G1 X60.67 Y81.966 E22.15377
G1 X58.893 Y83.25 E22.28138
G1 X58.794 Y83.319 E22.2884
G1 X57.9 Y83.915 E22.35094
G1 X57.795 Y83.982 E22.35819
G1 X57.002 Y84.467 E22.41229
G1 X56.897 Y84.528 E22.41936
G1 X55.855 Y85.112 E22.48889
G1 X55.387 Y85.357 E22.51963
G1 X55.302 Y85.4 E22.52518
G1 X54.561 Y85.756 E22.57303
G1 X53.405 Y86.265 E22.64655
G1 X52.526 Y86.62 E22.70172
G1 X52.38 Y86.674 E22.71079
G1 X51.298 Y87.048 E22.77742
G1 X50.706 Y87.235 E22.81356
G1 X50.218 Y87.377 E22.84314
G1 X49.151 Y87.656 E22.90733
G1 X48.513 Y87.802 E22.94543
G1 X47.503 Y88.004 E23.00538
G1 X46.855 Y88.114 E23.04363
G1 X45.984 Y88.237 E23.09483
G1 X44.948 Y88.35 E23.15549
G1 X44.468 Y88.387 E23.18351
G1 X43.282 Y88.447 E23.25263
G1 X43.162 Y88.451 E23.25962
G1 X42.32 Y88.462 E23.30863
G1 X42.203 Y88.461 E23.31544
G1 X41.137 Y88.436 E23.37751
G1 X41.012 Y88.431 E23.38479
G1 X40.07 Y88.372 E23.43973
G1 X39.953 Y88.362 E23.44656
G1 X39.078 Y88.275 E23.49774
G1 X38.959 Y88.261 E23.50472
G1 X37.955 Y88.123 E23.5637
G1 X37.84 Y88.105 E23.57048
G1 X36.941 Y87.948 E23.6236
G1 X36.831 Y87.927 E23.63012
G1 X35.959 Y87.743 E23.68199
G1 X35.846 Y87.717 E23.68874
G1 X34.807 Y87.458 E23.75106
G1 X34.197 Y87.278 E23.78808
G1 X33.617 Y87.042 E23.82453
G1 X33.052 Y86.724 E23.86227
G1 X32.353 Y86.183 E23.91371
G1 X31.904 Y85.718 E23.95134
G1 X31.722 Y85.495 E23.96809
G1 X31.381 Y84.985 E24.0038
G1 X31.113 Y84.442 E24.03904
G1 X30.898 Y83.827 E24.07697
G1 X30.789 Y83.369 E24.10437
G1 X30.702 Y82.639 E24.14716
G1 X30.702 Y82.261 E24.16916
G1 X30.738 Y80.839 E24.25195
G1 X30.768 Y78.111 E24.41075
G1 X30.721 Y75.357 E24.57107
G1 X30.596 Y72.605 E24.73141
G1 X30.396 Y69.898 E24.88941
G1 X30.119 Y67.187 E25.04802
G1 X29.763 Y64.469 E25.20757
G1 X29.325 Y61.735 E25.36874
G1 X28.821 Y59.065 E25.52689
G1 X28.244 Y56.427 E25.68406
G1 X27.575 Y53.731 E25.84574
G1 X26.841 Y51.092 E26.00518
G1 X26.033 Y48.481 E26.16426
G1 X25.154 Y45.9 E26.32296
G1 X24.195 Y43.326 E26.48285
G1 X23.589 Y41.827 E26.57695
G1 X23.372 Y41.269 E26.6118
G1 X23.167 Y40.609 E26.65203
G1 X23.125 Y40.453 E26.66143
G1 X23.025 Y39.811 E26.69925
G1 X23.012 Y39.154 E26.7375
G1 X23.031 Y38.853 E26.75505
G1 X23.103 Y38.352 E26.78451
G1 X23.178 Y38.019 E26.80438
G1 X23.385 Y37.403 E26.84221
G1 X23.632 Y36.888 E26.87545
G1 X23.984 Y36.331 E26.9138
G1 X24.349 Y35.89 E26.94712
G1 X24.764 Y35.481 E26.98104
G1 X25.104 Y35.214 E27.0062
G1 F1800 E22.5062
;MESH:compliant_pliers.stl
G0 X25.548 Y39.74
G0 X25.991 Y40.838
G0 X26.935 Y41.655
G0 X27.83 Y41.903
G0 X35.566 Y41.968
G0 X35.581 Y38.685
G0 X36.738 Y38.654
G0 X37.208 Y38.184
;TYPE:WALL-OUTER
G1 F1800 E27.0062
G1 F600 X37.208 Y39.228 E27.06697
G1 X37.208 Y39.428 E27.07861
G1 X37.008 Y39.428 E27.08614
G1 X35.865 Y39.427 E27.15267
G1 X35.485 Y39.37 E27.17504
G1 X35.275 Y39.242 E27.18935
G1 X35.152 Y39.045 E27.20287
G1 X35.114 Y38.825 E27.21587
G1 X35.174 Y38.541 E27.23276
G1 X35.281 Y38.377 E27.24416
G1 X35.502 Y38.246 E27.25911
G1 X36.044 Y38.184 E27.29087
G1 X37.208 Y38.184 E27.35862
G0 F1800 X37.208 Y38.384
G0 X36.768 Y38.624
G0 X36.808 Y38.584
;TYPE:WALL-INNER
G1 F600 X36.808 Y38.829 E27.37288
G1 X36.808 Y39.028 E27.38446
G1 X36.609 Y39.028 E27.39195
G1 X35.897 Y39.027 E27.4334
G1 X35.776 Y38.998 E27.44064
G1 X35.563 Y38.949 E27.45336
G1 X35.521 Y38.832 E27.4606
G1 X35.566 Y38.673 E27.47021
G1 X35.633 Y38.633 E27.47476
G1 X35.85 Y38.609 E27.48627
G1 X36.063 Y38.584 E27.49875
G1 X36.808 Y38.584 E27.54211
G0 F1800 X36.526 Y38.628
G1 F1800 E23.04211
G0 X36.526 Y38.684
G0 X36.781 Y41.974
G0 X51.526 Y73.62
G0 X52.574 Y76.347
G0 X53.69 Y76.915
;TYPE:WALL-OUTER
G1 F1800 E27.54211
G1 F600 X52.888 Y77.222 E27.5921
G1 X52.366 Y77.356 E27.62347
G1 X52.109 Y77.345 E27.63844
G1 X51.898 Y77.232 E27.65237
G1 X51.752 Y77.062 E27.66541
G1 X51.661 Y76.81 E27.68101
G1 X51.655 Y76.616 E27.69231
G1 X51.739 Y76.382 E27.70678
G1 X51.897 Y76.216 E27.72012
G1 X52.397 Y75.966 E27.75265
G1 X53.393 Y75.584 E27.81474
G1 X53.805 Y76.658 E27.8817
G1 X53.876 Y76.844 E27.89329
G1 X53.69 Y76.915 E27.90078
G0 F1800 X53.504 Y76.986
G0 X53.308 Y76.589
G0 X53.36 Y76.613
;TYPE:WALL-INNER
G1 F600 X53.175 Y76.683 E27.9123
G1 X53.174 Y76.684 E27.91238
G1 X52.759 Y76.843 E27.93825
G1 X52.367 Y76.944 E27.96181
G1 X52.327 Y76.954 E27.96421
G1 X52.248 Y76.936 E27.96892
G1 X52.152 Y76.914 E27.97466
G1 X52.059 Y76.735 E27.9864
G1 X52.067 Y76.694 E27.98883
G1 X52.086 Y76.598 E27.99452
G1 X52.172 Y76.55 E28.00026
G1 X52.566 Y76.329 E28.02655
G1 X53.163 Y76.1 E28.06377
G1 X53.289 Y76.428 E28.08422
G1 X53.36 Y76.613 E28.09168
G0 F1800 X53.042 Y76.575
G1 F1800 E23.59168
G0 X53.943 Y78.319
G0 X54.457 Y78.912
;TYPE:WALL-OUTER
G1 F1800 E28.09168
G1 F600 X53.883 Y79.132 E28.12746
G1 X53.364 Y79.295 E28.15912
G1 X53.095 Y79.321 E28.17485
G1 X52.917 Y79.249 E28.18603
G1 X52.751 Y79.067 E28.20036
G1 X52.663 Y78.823 E28.21546
G1 X52.679 Y78.607 E28.22807
G1 X52.794 Y78.427 E28.2405
G1 X53.117 Y78.217 E28.26292
G1 X53.395 Y78.101 E28.28046
G1 X54.235 Y77.779 E28.33282
G1 X54.572 Y78.655 E28.38745
G1 X54.643 Y78.841 E28.39904
G1 X54.457 Y78.912 E28.40654
G0 F1800 X54.271 Y78.983
G0 X54.075 Y78.586
G0 X54.126 Y78.61
;TYPE:WALL-INNER
G1 F600 X54.115 Y78.613 E28.4072
G1 X53.654 Y78.772 E28.43558
G1 X53.281 Y78.901 E28.45856
G1 X53.152 Y78.913 E28.4661
G1 X53.068 Y78.768 E28.47585
G1 X53.084 Y78.715 E28.47907
G1 X53.161 Y78.675 E28.48152
G1 X53.549 Y78.47 E28.50026
G1 X54.005 Y78.295 E28.5236
G1 X54.126 Y78.61 E28.53754
G1 F1800 E24.03754
G0 X54.036 Y78.568
G0 X55.573 Y77.708
G0 X71.184 Y67.235
G0 X75.411 Y65.63
G0 X82.487 Y61.204
G0 X85.003 Y57.183
G0 X85.701 Y55.486
G0 X86.19 Y54.847
G0 X86.24 Y54.933
;TYPE:WALL-OUTER
G1 F1800 E28.53754
G1 F600 X85.82 Y55.438 E28.57577
G1 X85.529 Y55.987 E28.61193
G1 X85.517 Y56.054 E28.6159
G1 X85.461 Y56.666 E28.65167
G1 X85.031 Y61.308 E28.92301
G1 X84.872 Y61.886 E28.9579
G1 X84.572 Y62.406 E28.99285
G1 X84.298 Y62.709 E29.01662
G1 X78.796 Y67.864 E29.45547
G1 X62.598 Y75.054 E30.48699
G1 X62.008 Y75.798 E30.54225
G1 X61.418 Y76.489 E30.59514
G1 X60.802 Y77.162 E30.64824
G1 X60.15 Y77.823 E30.70229
G1 X59.464 Y78.469 E30.75713
G1 X58.76 Y79.086 E30.81162
