;FLAVOR:Marlin
;TIME:8681
;Filament used: 3.1013m
;Layer height: 0.2
;MINX:22.167
;MINY:47.51
;MINZ:0.35
;MAXX:114.131
;MAXY:64.102
;MAXZ:87.35
;Generated with Cura_SteamEngine 4.8.0
M104 S210
M105
M109 S210
M82 ;absolute extrusion mode

G92 E0
G92 E0
G1 F1800 E-4.5
;LAYER_COUNT:436
;LAYER:0
M106 S204
G0 X24.007 Y50.781 Z0.35
;TYPE:SKIRT
G1 F1800 E0
G1 F600 X24.492 Y50.553 E0.03119
G1 X25.006 Y50.399 E0.06242
G1 X25.684 Y50.317 E0.10218
G1 X26.169 Y50.306 E0.13041
G1 X63.8 Y50.306 E2.32073
G1 X64.809 Y50.32 E2.37947
G1 X67.097 Y50.386 E2.5127
G1 X69.82 Y50.388 E2.67119
G1 X71.347 Y50.354 E2.76009
G1 X73.02 Y50.306 E2.85751
G1 X107.293 Y50.306 E4.85238
G1 X107.991 Y50.316 E4.89301
G1 X108.525 Y50.364 E4.92422
G1 X109.046 Y50.49 E4.95541
G1 X109.543 Y50.693 E4.98666
G1 X110.004 Y50.967 E5.01788
G1 X110.419 Y51.306 E5.04907
G1 X110.779 Y51.704 E5.0803
G1 X111.076 Y52.15 E5.11149
G1 X111.304 Y52.636 E5.14274
G1 X111.456 Y53.15 E5.17394
G1 X111.538 Y53.814 E5.21288
G1 X111.548 Y54.232 E5.23721
G1 X111.548 Y59.811 E5.56194
G1 X111.539 Y60.538 E5.60426
G1 X111.492 Y61.072 E5.63546
G1 X111.367 Y61.593 E5.66665
G1 X111.165 Y62.09 E5.69787
G1 X110.892 Y62.552 E5.72911
G1 X110.554 Y62.968 E5.76031
G1 X110.157 Y63.329 E5.79154
G1 X109.711 Y63.627 E5.82276
G1 X109.226 Y63.855 E5.85395
G1 X108.712 Y64.009 E5.88518
G1 X108.04 Y64.092 E5.9246
G1 X107.618 Y64.102 E5.94917
G1 X73.361 Y64.102 E7.9431
G1 X72.353 Y64.088 E8.00178
G1 X70.064 Y64.022 E8.13507
G1 X67.341 Y64.02 E8.29356
G1 X65.814 Y64.054 E8.38246
G1 X64.141 Y64.102 E8.47988
G1 X26.423 Y64.102 E10.67526
G1 X25.725 Y64.092 E10.71589
G1 X25.191 Y64.044 E10.7471
G1 X24.67 Y63.918 E10.7783
G1 X24.173 Y63.715 E10.80955
G1 X23.712 Y63.441 E10.84076
G1 X23.297 Y63.102 E10.87195
G1 X22.937 Y62.704 E10.90319
G1 X22.64 Y62.258 E10.93438
G1 X22.412 Y61.772 E10.96562
G1 X22.26 Y61.258 E10.99682
G1 X22.178 Y60.583 E11.0364
G1 X22.168 Y60.137 E11.06237
G1 X22.167 Y54.549 E11.38762
G1 X22.176 Y53.868 E11.42726
G1 X22.223 Y53.334 E11.45846
G1 X22.349 Y52.813 E11.48966
G1 X22.551 Y52.316 E11.52088
G1 X22.825 Y51.855 E11.5521
G1 X23.163 Y51.439 E11.5833
G1 X23.56 Y51.079 E11.61449
G1 X24.007 Y50.781 E11.64576
G0 F1800 X24.383 Y51.035
G1 F600 X24.854 Y50.852 E11.67517
G1 X25.348 Y50.745 E11.70459
G1 X26.088 Y50.707 E11.74772
G1 X63.795 Y50.706 E13.94246
G1 X64.797 Y50.72 E14.00079
G1 X67.085 Y50.786 E14.13402
G1 X69.829 Y50.788 E14.29374
G1 X71.333 Y50.754 E14.3813
G1 X72.926 Y50.707 E14.47406
G1 X107.287 Y50.706 E16.47405
G1 X107.985 Y50.716 E16.51468
G1 X108.488 Y50.763 E16.54409
G1 X108.978 Y50.889 E16.57353
G1 X109.442 Y51.091 E16.60299
G1 X109.868 Y51.363 E16.63241
G1 X110.246 Y51.698 E16.66181
G1 X110.566 Y52.089 E16.69122
G1 X110.821 Y52.526 E16.72067
G1 X111.004 Y52.997 E16.75008
G1 X111.111 Y53.491 E16.7795
G1 X111.147 Y54.141 E16.81739
G1 X111.148 Y59.806 E17.14712
G1 X111.139 Y60.533 E17.18944
G1 X111.093 Y61.036 E17.21884
G1 X110.968 Y61.526 E17.24827
G1 X110.767 Y61.99 E17.2777
G1 X110.496 Y62.417 E17.30714
G1 X110.161 Y62.796 E17.33658
G1 X109.771 Y63.117 E17.36598
G1 X109.335 Y63.373 E17.39541
G1 X108.864 Y63.556 E17.42482
G1 X108.37 Y63.664 E17.45426
G1 X107.708 Y63.701 E17.49285
G1 X73.366 Y63.702 E19.49173
G1 X72.365 Y63.688 E19.55
G1 X70.076 Y63.622 E19.68329
G1 X67.332 Y63.62 E19.843
G1 X65.828 Y63.654 E19.93057
G1 X64.235 Y63.701 E20.02333
G1 X26.429 Y63.702 E22.22384
G1 X25.731 Y63.692 E22.26447
G1 X25.228 Y63.645 E22.29387
G1 X24.738 Y63.519 E22.32332
G1 X24.274 Y63.317 E22.35278
G1 X23.848 Y63.045 E22.38219
G1 X23.47 Y62.71 E22.41159
G1 X23.15 Y62.319 E22.441
G1 X22.895 Y61.882 E22.47045
G1 X22.712 Y61.411 E22.49986
G1 X22.605 Y60.917 E22.52928
G1 X22.569 Y60.217 E22.57008
G1 X22.567 Y54.555 E22.89964
G1 X22.576 Y53.874 E22.93928
G1 X22.623 Y53.37 E22.96874
G1 X22.748 Y52.88 E22.99818
G1 X22.949 Y52.417 E23.02755
G1 X23.22 Y51.99 E23.05699
G1 X23.556 Y51.612 E23.08643
G1 X23.946 Y51.291 E23.11583
G1 X24.383 Y51.035 E23.14531
G1 F1800 E18.64531
;MESH:cross_axis.stl
G0 X26.381 Y53.241
G0 X26.381 Y54.52
G0 X63.788 Y59.832
G0 X64.258 Y60.302
;TYPE:WALL-OUTER
G1 F1800 E23.14531
G1 F600 X25.968 Y60.302 E25.37399
G1 X25.967 Y54.306 E25.72298
G1 X25.967 Y54.106 E25.73463
G1 X26.167 Y54.106 E25.74216
G1 X64.258 Y54.106 E27.95926
G1 X64.258 Y60.302 E28.3199
G0 F1800 X64.058 Y60.302
G0 X63.818 Y59.862
G0 X63.858 Y59.902
;TYPE:WALL-INNER
G1 F600 X26.368 Y59.902 E30.50201
G1 X26.367 Y54.705 E30.80451
G1 X26.367 Y54.506 E30.81609
G1 X26.566 Y54.506 E30.82358
G1 X63.858 Y54.506 E32.99417
G1 X63.858 Y59.902 E33.30825
G0 F1800 X63.468 Y59.512
;TYPE:SKIN
G1 F600 X26.758 Y59.512 E35.44496
G1 X26.757 Y54.896 E35.71364
G1 X63.468 Y54.896 E37.85041
G1 X63.468 Y59.512 E38.11908
G0 F1800 X63.287 Y55.367
G1 F600 X62.995 Y55.075 E38.14312
G0 F1800 X62.429 Y55.075
G1 F600 X63.287 Y55.933 E38.21375
G0 F1800 X63.287 Y56.499
G1 F600 X61.864 Y55.075 E38.33092
G0 F1800 X61.298 Y55.075
G1 F600 X63.287 Y57.064 E38.49465
G0 F1800 X63.287 Y57.63
G1 F600 X60.732 Y55.075 E38.70496
G0 F1800 X60.167 Y55.075
G1 F600 X63.287 Y58.196 E38.96182
G0 F1800 X63.287 Y58.761
G1 F600 X59.601 Y55.075 E39.26523
G0 F1800 X59.035 Y55.075
G1 F600 X63.287 Y59.327 E39.61524
G0 F1800 X62.726 Y59.331
G1 F600 X58.469 Y55.075 E39.96561
G0 F1800 X57.904 Y55.075
G1 F600 X62.16 Y59.331 E40.31594
G0 F1800 X61.594 Y59.331
G1 F600 X57.338 Y55.075 E40.66627
G0 F1800 X56.772 Y55.075
G1 F600 X61.028 Y59.331 E41.0166
G0 F1800 X60.463 Y59.331
G1 F600 X56.207 Y55.075 E41.36693
G0 F1800 X55.641 Y55.075
G1 F600 X59.897 Y59.331 E41.71726
G0 F1800 X59.331 Y59.331
G1 F600 X55.075 Y55.075 E42.06759
G0 F1800 X54.51 Y55.075
G1 F600 X58.766 Y59.331 E42.41793
G0 F1800 X58.2 Y59.331
G1 F600 X53.944 Y55.075 E42.76826
G0 F1800 X53.378 Y55.075
G1 F600 X57.634 Y59.331 E43.11859
G0 F1800 X57.069 Y59.331
G1 F600 X52.813 Y55.075 E43.46892
G0 F1800 X52.247 Y55.075
G1 F600 X56.503 Y59.331 E43.81925
G0 F1800 X55.937 Y59.331
G1 F600 X51.681 Y55.075 E44.16958
G0 F1800 X51.116 Y55.075
G1 F600 X55.372 Y59.331 E44.51991
G0 F1800 X54.806 Y59.331
G1 F600 X50.55 Y55.075 E44.87024
G0 F1800 X49.984 Y55.075
G1 F600 X54.24 Y59.331 E45.22057
G0 F1800 X53.675 Y59.331
G1 F600 X49.418 Y55.075 E45.57095
G0 F1800 X48.853 Y55.075
G1 F600 X53.109 Y59.331 E45.92128
G0 F1800 X52.543 Y59.331
G1 F600 X48.287 Y55.075 E46.27161
G0 F1800 X47.721 Y55.075
G1 F600 X51.978 Y59.331 E46.62198
G0 F1800 X51.412 Y59.331
G1 F600 X47.156 Y55.075 E46.97231
G0 F1800 X46.59 Y55.075
G1 F600 X50.846 Y59.331 E47.32264
G0 F1800 X50.28 Y59.331
G1 F600 X46.024 Y55.075 E47.67297
G0 F1800 X45.459 Y55.075
G1 F600 X49.715 Y59.331 E48.0233
G0 F1800 X49.149 Y59.331
G1 F600 X44.893 Y55.075 E48.37364
G0 F1800 X44.327 Y55.075
G1 F600 X48.583 Y59.331 E48.72397
G0 F1800 X48.018 Y59.331
G1 F600 X43.762 Y55.075 E49.0743
G0 F1800 X43.196 Y55.075
G1 F600 X47.452 Y59.331 E49.42463
G0 F1800 X46.886 Y59.331
G1 F600 X42.63 Y55.075 E49.77496
G0 F1800 X42.065 Y55.075
G1 F600 X46.321 Y59.331 E50.12529
G0 F1800 X45.755 Y59.331
G1 F600 X41.499 Y55.075 E50.47562
G0 F1800 X40.933 Y55.075
G1 F600 X45.189 Y59.331 E50.82595
G0 F1800 X44.624 Y59.331
G1 F600 X40.368 Y55.075 E51.17628
G0 F1800 X39.802 Y55.075
G1 F600 X44.058 Y59.331 E51.52662
G0 F1800 X43.492 Y59.331
G1 F600 X39.236 Y55.075 E51.87695
G0 F1800 X38.67 Y55.075
G1 F600 X42.927 Y59.331 E52.22732
G0 F1800 X42.361 Y59.331
G1 F600 X38.105 Y55.075 E52.57765
G0 F1800 X37.539 Y55.075
G1 F600 X41.795 Y59.331 E52.92798
G0 F1800 X41.229 Y59.331
G1 F600 X36.973 Y55.075 E53.27831
G0 F1800 X36.408 Y55.075
G1 F600 X40.664 Y59.331 E53.62864
G0 F1800 X40.098 Y59.331
G1 F600 X35.842 Y55.075 E53.97897
G0 F1800 X35.276 Y55.075
G1 F600 X39.532 Y59.331 E54.32931
G0 F1800 X38.967 Y59.331
G1 F600 X34.711 Y55.075 E54.67964
G0 F1800 X34.145 Y55.075
G1 F600 X38.401 Y59.331 E55.02997
G0 F1800 X37.835 Y59.331
G1 F600 X33.579 Y55.075 E55.3803
G0 F1800 X33.014 Y55.075
G1 F600 X37.27 Y59.331 E55.73063
G0 F1800 X36.704 Y59.331
G1 F600 X32.448 Y55.075 E56.08096
G0 F1800 X31.882 Y55.075
G1 F600 X36.138 Y59.331 E56.43129
G0 F1800 X35.573 Y59.331
G1 F600 X31.317 Y55.075 E56.78162
G0 F1800 X30.751 Y55.075
G1 F600 X35.007 Y59.331 E57.13195
G0 F1800 X34.441 Y59.331
G1 F600 X30.185 Y55.075 E57.48229
G0 F1800 X29.619 Y55.075
G1 F600 X33.876 Y59.331 E57.83266
G0 F1800 X33.31 Y59.331
G1 F600 X29.054 Y55.075 E58.18299
G0 F1800 X28.488 Y55.075
G1 F600 X32.744 Y59.331 E58.53332
G0 F1800 X32.179 Y59.331
G1 F600 X27.922 Y55.075 E58.88369
G0 F1800 X27.357 Y55.075
G1 F600 X31.613 Y59.331 E59.23402
G0 F1800 X31.047 Y59.331
G1 F600 X26.936 Y55.22 E59.57242
G0 F1800 X26.936 Y55.786
G1 F600 X30.481 Y59.331 E59.86422
G0 F1800 X29.916 Y59.331
G1 F600 X26.936 Y56.352 E60.10948
G0 F1800 X26.936 Y56.917
G1 F600 X29.35 Y59.331 E60.30819
G0 F1800 X28.784 Y59.331
G1 F600 X26.937 Y57.484 E60.46022
G0 F1800 X26.937 Y58.049
G1 F600 X28.219 Y59.331 E60.56575
G0 F1800 X27.653 Y59.331
G1 F600 X26.937 Y58.615 E60.62469
G0 F1800 X26.937 Y59.181
G1 F600 X27.087 Y59.331 E60.63703
G1 F1800 E56.13703
G0 X63.838 Y59.832
G0 X65.123 Y59.832
G0 X72.038 Y59.832
G0 X73.323 Y59.832
G0 X107.278 Y59.832
G0 X107.748 Y60.302
;TYPE:WALL-OUTER
G1 F1800 E60.63703
G1 F600 X72.903 Y60.302 E62.6652
G1 X72.903 Y54.106 E63.02584
G1 X107.748 Y54.106 E65.054
G1 X107.748 Y60.302 E65.41464
G0 F1800 X107.548 Y60.302
G0 X107.308 Y59.862
G0 X107.348 Y59.902
;TYPE:WALL-INNER
G1 F600 X73.303 Y59.902 E67.39623
G1 X73.303 Y54.506 E67.71031
G1 X107.348 Y54.506 E69.69191
G1 X107.348 Y59.902 E70.00598
G0 F1800 X106.958 Y59.512
;TYPE:SKIN
G1 F600 X73.693 Y59.512 E71.94218
G1 X73.693 Y54.896 E72.21086
G1 X106.958 Y54.896 E74.14705
G1 X106.958 Y59.512 E74.41573
G0 F1800 X106.777 Y55.299
G1 F600 X106.553 Y55.076 E74.43413
G0 F1800 X105.988 Y55.076
G1 F600 X106.777 Y55.865 E74.49907
G0 F1800 X106.777 Y56.431
G1 F600 X105.422 Y55.076 E74.61061
G0 F1800 X104.856 Y55.076
G1 F600 X106.777 Y56.997 E74.76873
G0 F1800 X106.777 Y57.562
G1 F600 X104.291 Y55.076 E74.97337
G0 F1800 X103.725 Y55.076
G1 F600 X106.777 Y58.128 E75.22459
G0 F1800 X106.777 Y58.694
G1 F600 X103.159 Y55.076 E75.52241
G0 F1800 X102.594 Y55.076
G1 F600 X106.777 Y59.259 E75.86673
G0 F1800 X106.283 Y59.331
G1 F600 X102.028 Y55.076 E76.21698
G0 F1800 X101.462 Y55.076
G1 F600 X105.718 Y59.331 E76.56727
G0 F1800 X105.152 Y59.331
G1 F600 X100.897 Y55.076 E76.91752
G0 F1800 X100.331 Y55.076
G1 F600 X104.586 Y59.331 E77.26777
G0 F1800 X104.021 Y59.331
G1 F600 X99.765 Y55.076 E77.61806
G0 F1800 X99.2 Y55.076
G1 F600 X103.455 Y59.331 E77.9683
G0 F1800 X102.889 Y59.331
G1 F600 X98.634 Y55.076 E78.31855
G0 F1800 X98.068 Y55.076
G1 F600 X102.324 Y59.331 E78.66884
G0 F1800 X101.758 Y59.331
G1 F600 X97.502 Y55.076 E79.01913
G0 F1800 X96.937 Y55.076
G1 F600 X101.192 Y59.331 E79.36938
G0 F1800 X100.626 Y59.331
G1 F600 X96.371 Y55.076 E79.71963
G0 F1800 X95.805 Y55.076
G1 F600 X100.061 Y59.331 E80.06992
G0 F1800 X99.495 Y59.331
G1 F600 X95.24 Y55.076 E80.42017
G0 F1800 X94.674 Y55.076
G1 F600 X98.929 Y59.331 E80.77042
G0 F1800 X98.364 Y59.331
G1 F600 X94.108 Y55.076 E81.12071
G0 F1800 X93.543 Y55.076
G1 F600 X97.798 Y59.331 E81.47096
G0 F1800 X97.232 Y59.331
G1 F600 X92.977 Y55.076 E81.8212
G0 F1800 X92.411 Y55.076
G1 F600 X96.667 Y59.331 E82.17149
G0 F1800 X96.101 Y59.331
G1 F600 X91.846 Y55.076 E82.52174
G0 F1800 X91.28 Y55.076
G1 F600 X95.535 Y59.331 E82.87199
G0 F1800 X94.97 Y59.331
G1 F600 X90.714 Y55.076 E83.22228
G0 F1800 X90.149 Y55.076
G1 F600 X94.404 Y59.331 E83.57253
G0 F1800 X93.838 Y59.331
G1 F600 X89.583 Y55.076 E83.92278
G0 F1800 X89.017 Y55.076
G1 F600 X93.273 Y59.331 E84.27307
G0 F1800 X92.707 Y59.331
G1 F600 X88.451 Y55.076 E84.62336
G0 F1800 X87.886 Y55.076
G1 F600 X92.141 Y59.331 E84.97361
G0 F1800 X91.575 Y59.331
G1 F600 X87.32 Y55.076 E85.32386
G0 F1800 X86.754 Y55.076
G1 F600 X91.01 Y59.331 E85.67415
G0 F1800 X90.444 Y59.331
G1 F600 X86.189 Y55.076 E86.0244
G0 F1800 X85.623 Y55.076
G1 F600 X89.878 Y59.331 E86.37464
G0 F1800 X89.313 Y59.331
G1 F600 X85.057 Y55.076 E86.72493
G0 F1800 X84.492 Y55.076
G1 F600 X88.747 Y59.331 E87.07518
G0 F1800 X88.181 Y59.331
G1 F600 X83.926 Y55.076 E87.42543
G0 F1800 X83.36 Y55.076
G1 F600 X87.616 Y59.331 E87.77572
G0 F1800 X87.05 Y59.331
G1 F600 X82.795 Y55.076 E88.12597
G0 F1800 X82.229 Y55.076
G1 F600 X86.484 Y59.331 E88.47622
G0 F1800 X85.919 Y59.331
G1 F600 X81.663 Y55.076 E88.82651
G0 F1800 X81.098 Y55.076
G1 F600 X85.353 Y59.331 E89.17676
G0 F1800 X84.787 Y59.331
G1 F600 X80.532 Y55.076 E89.52701
G0 F1800 X79.966 Y55.076
G1 F600 X84.222 Y59.331 E89.8773
G0 F1800 X83.656 Y59.331
G1 F600 X79.401 Y55.076 E90.22755
G0 F1800 X78.835 Y55.076
G1 F600 X83.09 Y59.331 E90.57779
G0 F1800 X82.525 Y59.331
G1 F600 X78.269 Y55.076 E90.92808
G0 F1800 X77.703 Y55.076
G1 F600 X81.959 Y59.331 E91.27837
G0 F1800 X81.393 Y59.331
G1 F600 X77.138 Y55.076 E91.62862
G0 F1800 X76.572 Y55.076
G1 F600 X80.827 Y59.331 E91.97887
G0 F1800 X80.262 Y59.331
G1 F600 X76.006 Y55.076 E92.32916
G0 F1800 X75.441 Y55.076
G1 F600 X79.696 Y59.331 E92.67941
G0 F1800 X79.13 Y59.331
G1 F600 X74.875 Y55.076 E93.02966
G0 F1800 X74.309 Y55.076
G1 F600 X78.565 Y59.331 E93.37995
G0 F1800 X77.999 Y59.331
G1 F600 X73.872 Y55.204 E93.71966
G0 F1800 X73.872 Y55.77
G1 F600 X77.433 Y59.331 E94.01278
G0 F1800 X76.868 Y59.331
G1 F600 X73.872 Y56.335 E94.2594
G0 F1800 X73.872 Y56.901
G1 F600 X76.302 Y59.331 E94.45942
G0 F1800 X75.736 Y59.331
G1 F600 X73.872 Y57.467 E94.61286
G0 F1800 X73.872 Y58.032
G1 F600 X75.171 Y59.331 E94.71978
G0 F1800 X74.605 Y59.331
G1 F600 X73.872 Y58.598 E94.78012
G0 F1800 X73.872 Y59.164
G1 F600 X74.039 Y59.331 E94.79387
G1 F1800 E90.29387
;MESH:NONMESH
G0 F600 X74.039 Y59.331 Z0.55
G0 F1800 X73.323 Y59.832
G0 X72.038 Y59.832
G0 X65.123 Y59.832
G0 X63.838 Y59.832
G0 X64.258 Y60.302
;TIME_ELAPSED:175.156962
;LAYER:1
M106 S255
;TYPE:WALL-OUTER
;MESH:cross_axis.stl
G1 F1800 E94.79387
G1 F750 X25.968 Y60.302 E96.0674
G1 X25.281 Y60.302 E96.09025
;TYPE:WALL-OUTER
;BRIDGE
G1 F600 X25.28 Y54.306 E96.26973
;TYPE:WALL-OUTER
G1 F750 X25.28 Y54.106 E96.27639
G1 X25.48 Y54.106 E96.28069
G1 X25.967 Y54.106 E96.29689
G1 X64.258 Y54.106 E97.57045
G1 X64.258 Y60.302 E97.77653
G0 F2700 X64.058 Y60.302
G0 X63.818 Y59.862
G0 X63.858 Y59.902
;TYPE:WALL-INNER
G1 F750 X25.968 Y59.902 E99.03676
G1 X25.681 Y59.902 E99.04631
;TYPE:WALL-INNER
;BRIDGE
G1 F600 X25.68 Y54.705 E99.20187
;TYPE:WALL-INNER
G1 F750 X25.68 Y54.506 E99.20849
G1 X25.879 Y54.506 E99.21277
G1 X25.967 Y54.506 E99.2157
G1 X63.858 Y54.506 E100.47596
G1 X63.858 Y59.902 E100.65543
G0 F2700 X63.468 Y59.512
;TYPE:SKIN
G1 F600 X26.071 Y59.512 E101.89926
G1 X26.07 Y54.896 E102.05279
G1 X63.468 Y54.896 E103.29665
G1 X63.468 Y59.512 E103.45018
G0 F2700 X31.717 Y58.792
;TYPE:SKIN
G1 F900 X31.973 Y58.536 E103.46222
G0 F2700 X31.973 Y57.97
G1 F900 X31.151 Y58.792 E103.50089
G0 F2700 X30.585 Y58.792
G1 F900 X31.973 Y57.405 E103.56615
G0 F2700 X31.973 Y56.839
G1 F900 X30.177 Y58.635 E103.65063
G0 F2700 X30.177 Y58.069
G1 F900 X31.973 Y56.273 E103.73511
G0 F2700 X31.973 Y55.707
G1 F900 X30.177 Y57.504 E103.81961
G0 F2700 X30.176 Y56.939
G1 F900 X31.973 Y55.142 E103.90414
G0 F2700 X31.454 Y55.095
G1 F900 X30.176 Y56.373 E103.96425
G0 F2700 X30.176 Y55.807
G1 F900 X30.888 Y55.095 E103.99774
G0 F2700 X30.322 Y55.095
G1 F900 X30.176 Y55.242 E104.00463
G0 F2700 X26.25 Y55.208
;TYPE:SKIN
G1 F600 X26.383 Y55.075 E104.01089
G0 F2700 X26.949 Y55.075
G1 F600 X26.25 Y55.773 E104.04374
G0 F2700 X26.25 Y56.339
G1 F600 X27.514 Y55.075 E104.1032
G0 F2700 X28.08 Y55.075
G1 F600 X26.25 Y56.905 E104.18927
