;FLAVOR:Marlin
;TIME:4092
;Filament used: 1.37497m
;Layer height: 0.2
;MINX:28.388
;MINY:23.486
;MINZ:0.35
;MAXX:91.612
;MAXY:89.511
;MAXZ:6.95
;Generated with Cura_SteamEngine 4.8.0
M104 S210
M105
M109 S210
M82 ;absolute extrusion mode

G92 E0
G92 E0
G1 F1800 E-4.5
;LAYER_COUNT:34
;LAYER:0
M106 S204
G0 X29.385 Y24.617 Z0.35
;TYPE:SKIRT
G1 F1800 E0
G1 F600 X29.782 Y24.257 E0.03119
G1 X30.229 Y23.959 E0.06246
G1 X30.714 Y23.731 E0.09366
G1 X31.228 Y23.578 E0.12487
G1 X31.896 Y23.496 E0.16404
G1 X32.318 Y23.486 E0.18861
G1 X87.357 Y23.486 E3.39217
G1 X88.055 Y23.496 E3.4328
G1 X88.589 Y23.544 E3.46401
G1 X89.11 Y23.67 E3.49521
G1 X89.607 Y23.873 E3.52646
G1 X90.068 Y24.147 E3.55767
G1 X90.483 Y24.486 E3.58886
G1 X90.843 Y24.884 E3.6201
G1 X91.14 Y25.33 E3.65129
G1 X91.368 Y25.816 E3.68253
G1 X91.52 Y26.33 E3.71373
G1 X91.602 Y26.995 E3.75273
G1 X91.612 Y27.416 E3.77724
G1 X91.612 Y28.651 E3.84912
G1 X91.602 Y29.367 E3.8908
G1 X91.548 Y30.058 E3.93115
G1 X91.316 Y32.095 E4.05048
G1 X91.083 Y34.82 E4.20966
G1 X90.931 Y37.506 E4.36625
G1 X90.852 Y40.271 E4.52726
G1 X90.852 Y42.968 E4.68424
G1 X90.929 Y45.723 E4.84465
G1 X91.081 Y48.421 E5.00194
G1 X91.313 Y51.146 E5.16112
G1 X91.473 Y52.653 E5.24933
G1 X91.579 Y53.578 E5.30353
G1 X91.611 Y54.205 E5.34007
G1 X91.612 Y58.344 E5.58098
G1 X91.602 Y59.06 E5.62266
G1 X91.548 Y59.751 E5.663
G1 X91.316 Y61.788 E5.78233
G1 X91.083 Y64.513 E5.94152
G1 X90.931 Y67.199 E6.09811
G1 X90.852 Y69.964 E6.25911
G1 X90.852 Y72.661 E6.41609
G1 X90.929 Y75.416 E6.57651
G1 X91.081 Y78.114 E6.7338
G1 X91.313 Y80.839 E6.89298
G1 X91.473 Y82.346 E6.98119
G1 X91.579 Y83.271 E7.03538
G1 X91.611 Y83.898 E7.07192
G1 X91.612 Y85.22 E7.14887
G1 X91.603 Y85.947 E7.19119
G1 X91.556 Y86.481 E7.22239
G1 X91.431 Y87.002 E7.25357
G1 X91.229 Y87.499 E7.2848
G1 X90.956 Y87.961 E7.31604
G1 X90.618 Y88.377 E7.34723
G1 X90.221 Y88.738 E7.37847
G1 X89.775 Y89.036 E7.40969
G1 X89.29 Y89.264 E7.44088
G1 X88.776 Y89.418 E7.47211
G1 X88.104 Y89.501 E7.51152
G1 X87.682 Y89.511 E7.53609
G1 X32.649 Y89.511 E10.7393
G1 X31.951 Y89.502 E10.77993
G1 X31.416 Y89.455 E10.81119
G1 X30.895 Y89.329 E10.84239
G1 X30.398 Y89.127 E10.87362
G1 X29.937 Y88.854 E10.9048
G1 X29.521 Y88.515 E10.93604
G1 X29.16 Y88.119 E10.96723
G1 X28.862 Y87.673 E10.99845
G1 X28.634 Y87.187 E11.02969
G1 X28.481 Y86.673 E11.06091
G1 X28.398 Y85.999 E11.10043
G1 X28.388 Y85.569 E11.12547
G1 X28.388 Y84.325 E11.19788
G1 X28.398 Y83.628 E11.23845
G1 X28.452 Y82.939 E11.27868
G1 X28.685 Y80.89 E11.39871
G1 X28.917 Y78.175 E11.55731
G1 X29.069 Y75.491 E11.71378
G1 X29.148 Y72.725 E11.87484
G1 X29.148 Y70.029 E12.03177
G1 X29.071 Y67.261 E12.19294
G1 X28.919 Y64.576 E12.34947
G1 X28.686 Y61.836 E12.50953
G1 X28.527 Y60.343 E12.59692
G1 X28.421 Y59.418 E12.65111
G1 X28.389 Y58.792 E12.6876
G1 X28.388 Y54.632 E12.92973
G1 X28.398 Y53.935 E12.9703
G1 X28.452 Y53.246 E13.01053
G1 X28.685 Y51.197 E13.13056
G1 X28.917 Y48.482 E13.28917
G1 X29.069 Y45.798 E13.44564
G1 X29.148 Y43.032 E13.6067
G1 X29.148 Y40.336 E13.76362
G1 X29.071 Y37.568 E13.9248
G1 X28.919 Y34.883 E14.08133
G1 X28.686 Y32.143 E14.24138
G1 X28.527 Y30.65 E14.32878
G1 X28.421 Y29.725 E14.38297
G1 X28.389 Y29.099 E14.41945
G1 X28.388 Y27.711 E14.50024
G1 X28.397 Y27.046 E14.53895
G1 X28.445 Y26.512 E14.57016
G1 X28.571 Y25.991 E14.60136
G1 X28.773 Y25.494 E14.63258
G1 X29.046 Y25.033 E14.66377
G1 X29.385 Y24.617 E14.695
G0 F1800 X29.777 Y24.79
G1 F600 X30.168 Y24.469 E14.72445
G1 X30.605 Y24.214 E14.7539
G1 X31.076 Y24.03 E14.78333
G1 X31.57 Y23.924 E14.81274
G1 X32.228 Y23.887 E14.8511
G1 X87.351 Y23.886 E18.05955
G1 X88.049 Y23.896 E18.10018
G1 X88.552 Y23.943 E18.12958
G1 X89.042 Y24.069 E18.15903
G1 X89.506 Y24.271 E18.18849
G1 X89.932 Y24.543 E18.2179
G1 X90.31 Y24.878 E18.2473
G1 X90.63 Y25.269 E18.27671
G1 X90.885 Y25.706 E18.30616
G1 X91.068 Y26.177 E18.33557
G1 X91.175 Y26.671 E18.36499
G1 X91.211 Y27.326 E18.40317
G1 X91.212 Y28.646 E18.48
G1 X91.202 Y29.362 E18.52168
G1 X91.15 Y30.02 E18.5601
G1 X90.918 Y32.052 E18.67914
G1 X90.686 Y34.764 E18.83757
G1 X90.531 Y37.506 E18.99743
G1 X90.452 Y40.261 E19.15785
G1 X90.452 Y42.98 E19.31611
G1 X90.529 Y45.732 E19.47635
G1 X90.683 Y48.475 E19.63626
G1 X90.912 Y51.163 E19.79328
G1 X91.072 Y52.668 E19.88137
G1 X91.182 Y53.624 E19.93739
G1 X91.211 Y54.216 E19.97188
G1 X91.212 Y58.339 E20.21186
G1 X91.202 Y59.055 E20.25354
G1 X91.15 Y59.713 E20.29196
G1 X90.918 Y61.745 E20.411
G1 X90.686 Y64.457 E20.56943
G1 X90.531 Y67.199 E20.72929
G1 X90.452 Y69.954 E20.88971
G1 X90.452 Y72.673 E21.04797
G1 X90.529 Y75.425 E21.20821
G1 X90.683 Y78.168 E21.36812
G1 X90.912 Y80.856 E21.52514
G1 X91.072 Y82.361 E21.61323
G1 X91.182 Y83.317 E21.66925
G1 X91.211 Y83.909 E21.70374
G1 X91.212 Y85.215 E21.77976
G1 X91.203 Y85.942 E21.82208
G1 X91.157 Y86.445 E21.85148
G1 X91.032 Y86.935 E21.88091
G1 X90.831 Y87.399 E21.91035
G1 X90.56 Y87.826 E21.93978
G1 X90.225 Y88.205 E21.96922
G1 X89.835 Y88.526 E21.99862
G1 X89.399 Y88.782 E22.02805
G1 X88.928 Y88.965 E22.05746
G1 X88.434 Y89.073 E22.0869
G1 X87.772 Y89.11 E22.12549
G1 X32.654 Y89.111 E25.33364
G1 X31.956 Y89.102 E25.37428
G1 X31.452 Y89.055 E25.40374
G1 X30.962 Y88.93 E25.43317
G1 X30.498 Y88.729 E25.4626
G1 X30.072 Y88.458 E25.49199
G1 X29.693 Y88.123 E25.52143
G1 X29.372 Y87.732 E25.55088
G1 X29.117 Y87.296 E25.58028
G1 X28.933 Y86.825 E25.60971
G1 X28.826 Y86.331 E25.63913
G1 X28.789 Y85.655 E25.67854
G1 X28.788 Y84.331 E25.7556
G1 X28.798 Y83.634 E25.79617
G1 X28.85 Y82.977 E25.83453
G1 X29.084 Y80.923 E25.95486
G1 X29.314 Y78.233 E26.112
G1 X29.469 Y75.491 E26.27186
G1 X29.548 Y72.726 E26.43286
G1 X29.548 Y70.017 E26.59054
G1 X29.471 Y67.265 E26.75078
G1 X29.316 Y64.519 E26.91087
G1 X29.088 Y61.833 E27.06777
G1 X28.925 Y60.3 E27.1575
G1 X28.818 Y59.372 E27.21187
G1 X28.789 Y58.781 E27.24631
G1 X28.788 Y54.638 E27.48746
G1 X28.798 Y53.941 E27.52803
G1 X28.85 Y53.284 E27.56639
G1 X29.084 Y51.23 E27.68672
G1 X29.314 Y48.54 E27.84386
G1 X29.469 Y45.798 E28.00372
G1 X29.548 Y43.033 E28.16472
G1 X29.548 Y40.324 E28.3224
G1 X29.471 Y37.572 E28.48264
G1 X29.316 Y34.826 E28.64273
G1 X29.088 Y32.14 E28.79963
G1 X28.925 Y30.607 E28.88936
G1 X28.818 Y29.679 E28.94373
G1 X28.789 Y29.088 E28.97817
G1 X28.788 Y27.717 E29.05797
G1 X28.797 Y27.052 E29.09668
G1 X28.844 Y26.548 E29.12614
G1 X28.97 Y26.059 E29.15554
G1 X29.171 Y25.595 E29.18497
G1 X29.442 Y25.168 E29.21441
G1 X29.777 Y24.79 E29.2438
G1 F1800 E24.7438
;MESH:flex.stl
G0 X31.323 Y28.913
G0 X32.402 Y28.913
G0 X56.809 Y28.897
G0 X59.366 Y48.335
G0 X57.035 Y48.873
G0 X46.997 Y34.068
G0 X37.51 Y39.706
G0 X56.568 Y53.89
G0 X57.383 Y54.14
G0 X58.046 Y53.566
G0 X58.828 Y53.176
G0 X59.945 Y52.945
G0 X59.945 Y60.052
G0 X58.828 Y59.821
G0 X56.48 Y58.843
G0 X37.51 Y73.291
G0 X46.965 Y78.792
G0 X57.014 Y63.983
G0 X58.242 Y64.375
G0 X60.586 Y64.626
G0 X60.665 Y64.686
;TYPE:WALL-OUTER
G1 F1800 E29.2438
G1 F600 X63.188 Y83.849 E30.36882
G1 X63.191 Y83.87 E30.37005
G1 X87.812 Y83.87 E31.80312
G1 X87.812 Y85.711 E31.91028
G1 X32.188 Y85.711 E35.14789
G1 X32.188 Y83.87 E35.25504
G1 X56.809 Y83.87 E36.68811
G1 X56.811 Y83.85 E36.68928
G1 X59.335 Y64.686 E37.81436
G1 X58.477 Y64.559 E37.86485
G1 X58.353 Y64.53 E37.87226
G1 X57.82 Y64.406 E37.90411
G1 X57.048 Y64.161 E37.95125
G1 X47.089 Y78.843 E38.98387
G1 X47.005 Y78.967 E38.99259
G1 X46.877 Y78.893 E39.00119
G1 X37.469 Y73.428 E39.63447
G1 X37.257 Y73.304 E39.64877
G1 X37.453 Y73.16 E39.65502
G1 X56.53 Y59.095 E41.03457
G1 X56.44 Y58.82 E41.05141
G1 X56.334 Y58.82 E41.05758
G1 X32.348 Y58.82 E42.45369
G1 X32.188 Y58.82 E42.463
G1 X32.188 Y58.66 E42.46991
G1 X32.188 Y54.337 E42.72153
G1 X32.188 Y54.177 E42.73084
G1 X32.348 Y54.177 E42.73774
G1 X56.334 Y54.177 E44.13385
G1 X56.44 Y54.177 E44.14002
G1 X56.53 Y53.902 E44.15687
G1 X37.454 Y39.838 E45.53633
G1 X37.257 Y39.693 E45.55057
G1 X37.468 Y39.57 E45.55688
G1 X46.876 Y34.105 E46.19016
G1 X47.005 Y34.03 E46.19884
G1 X47.088 Y34.153 E46.20748
G1 X57.048 Y48.836 E47.24018
G1 X57.848 Y48.583 E47.28902
G1 X58.352 Y48.467 E47.31912
G1 X58.476 Y48.438 E47.32653
G1 X59.335 Y48.311 E47.37707
G1 X56.812 Y29.148 E48.50209
G1 X56.809 Y29.127 E48.50332
G1 X32.188 Y29.127 E49.93639
G1 X32.188 Y27.286 E50.04355
G1 X87.812 Y27.286 E53.28116
G1 X87.812 Y29.127 E53.38831
G1 X63.191 Y29.127 E54.82138
G1 X63.189 Y29.147 E54.82255
G1 X60.665 Y48.311 E55.94763
G1 X61.523 Y48.438 E55.99811
G1 X61.647 Y48.467 E56.00553
G1 X62.18 Y48.591 E56.03738
G1 X62.952 Y48.836 E56.08452
G1 X72.911 Y34.154 E57.11714
G1 X72.995 Y34.03 E57.12586
G1 X73.123 Y34.104 E57.13446
G1 X82.531 Y39.569 E57.76774
G1 X82.743 Y39.693 E57.78204
G1 X82.547 Y39.837 E57.78829
G1 X63.47 Y53.902 E59.16784
G1 X63.56 Y54.177 E59.18468
G1 X63.666 Y54.177 E59.19085
G1 X87.652 Y54.177 E60.58696
G1 X87.812 Y54.177 E60.59627
G1 X87.812 Y54.337 E60.60318
G1 X87.812 Y58.66 E60.8548
G1 X87.812 Y58.82 E60.86411
G1 X87.652 Y58.82 E60.87101
G1 X63.666 Y58.82 E62.26712
G1 X63.56 Y58.82 E62.27329
G1 X63.47 Y59.095 E62.29013
G1 X82.546 Y73.159 E63.6696
G1 X82.743 Y73.304 E63.68384
G1 X82.532 Y73.427 E63.69015
G1 X73.124 Y78.892 E64.32343
G1 X72.995 Y78.967 E64.33211
G1 X72.912 Y78.844 E64.34075
G1 X62.952 Y64.161 E65.37345
G1 X62.152 Y64.414 E65.42229
G1 X61.648 Y64.53 E65.45239
G1 X61.524 Y64.559 E65.4598
G1 X60.665 Y64.686 E65.51034
G0 F1800 X60.691 Y64.884
G0 X60.592 Y64.896
G0 X61.621 Y64.419
G0 X62.986 Y63.983
G0 X73.035 Y78.792
G0 X82.49 Y73.291
G0 X63.184 Y59.046
G0 X60.948 Y59.869
G0 X60.055 Y60.052
G0 X60.055 Y52.945
G0 X62.297 Y53.177
G0 X63.184 Y53.951
G0 X82.49 Y39.706
G0 X73.035 Y34.205
G0 X62.986 Y49.014
G0 X61.515 Y48.477
G0 X60.634 Y48.335
G0 X63.128 Y29.139
G0 X63.029 Y29.127
G1 F600 X56.971 Y29.127 E65.86295
G1 X59.494 Y48.289 E66.31293
G1 X59.496 Y48.301 E66.31364
G1 X60 Y48.301 E66.34298
G1 X60.504 Y48.301 E66.37231
G1 X60.505 Y48.29 E66.37276
G1 X63.029 Y29.127 E66.82558
G0 F1800 X62.829 Y29.127
G0 X62.829 Y28.687
G0 X56.915 Y28.901
G0 X59.366 Y48.335
G0 X57.035 Y48.873
G0 X46.965 Y34.205
G0 X37.45 Y39.703
G0 X37.549 Y39.708
G1 F600 X56.625 Y53.772 E67.38078
G1 X56.651 Y53.791 E67.3821
G1 X57.562 Y52.98 E67.45309
G1 X58.479 Y52.497 E67.51342
G1 X59.482 Y52.249 E67.57356
G1 X60.518 Y52.249 E67.63386
G1 X61.521 Y52.497 E67.69399
G1 X62.438 Y52.98 E67.75432
G1 X63.349 Y53.791 E67.82531
G1 X63.374 Y53.773 E67.8271
G1 X82.451 Y39.708 E68.37892
G1 X73.043 Y34.243 E68.63227
G1 X63.085 Y48.925 E69.04401
G1 X62.999 Y49.051 E69.05056
G1 X62.895 Y49.019 E69.05536
G1 X62.122 Y48.777 E69.07803
G1 X61.613 Y48.617 E69.09127
G1 X61.507 Y48.607 E69.0934
G1 X60.644 Y48.52 E69.11748
G1 X60.484 Y48.504 E69.12684
G1 X60 Y48.454 E69.13917
G1 X59.516 Y48.502 E69.15142
G1 X59.356 Y48.518 E69.15881
G1 X58.494 Y48.606 E69.18249
G1 X58.387 Y48.617 E69.18466
G1 X57.906 Y48.767 E69.19711
G1 X57.106 Y49.018 E69.22046
G1 X57.001 Y49.051 E69.22531
G1 X56.916 Y48.926 E69.23411
G1 X46.957 Y34.243 E69.64328
G1 X37.549 Y39.708 E69.89663
G0 F1800 X37.709 Y39.826
G0 X37.65 Y39.905
G0 X56.568 Y53.89
G0 X57.383 Y54.14
G0 X58.046 Y53.566
G0 X58.828 Y53.176
G0 X59.945 Y52.945
G0 X60.02 Y59.815
G0 X59.92 Y59.815
G1 F600 X59.92 Y59.568 E69.91101
G1 X59.92 Y59.567 E69.91106
G1 X59.92 Y53.43 E70.26827
G1 X59.92 Y53.429 E70.26833
G1 X59.92 Y53.182 E70.2827
G1 X59.678 Y53.234 E70.29151
G1 X58.907 Y53.403 E70.33745
G1 X58.179 Y53.767 E70.38483
G1 X57.563 Y54.299 E70.4322
G1 X57.212 Y54.801 E70.46786
G1 X56.351 Y54.346 E70.52454
G1 X56.334 Y54.337
G1 X32.348 Y54.337 E71.08298
G1 X32.348 Y58.66 E71.18363
G1 X56.334 Y58.66 E71.74208
G1 X56.35 Y58.652
G1 X57.212 Y58.196 E71.79884
G1 X57.563 Y58.698 E71.83449
G1 X58.179 Y59.23 E71.88186
G1 X58.907 Y59.594 E71.92924
G1 X59.678 Y59.763 E71.97518
G1 X59.92 Y59.815 E71.98399
G0 F1800 X59.92 Y59.615
G0 X60.481 Y60.178
G0 X60.08 Y59.815
G1 F600 X60.322 Y59.763 E71.9984
G1 X61.093 Y59.594 E72.04434
G1 X61.821 Y59.23 E72.09171
G1 X62.437 Y58.698 E72.13909
G1 X62.788 Y58.196 E72.17474
G1 X63.649 Y58.651 E72.23142
G1 X63.666 Y58.66
G1 X87.652 Y58.66 E72.78987
G1 X87.652 Y54.337 E72.89051
G1 X63.666 Y54.337 E73.44896
G1 X63.65 Y54.345
G1 X62.788 Y54.801 E73.50572
G1 X62.437 Y54.299 E73.54137
G1 X61.821 Y53.767 E73.58875
G1 X61.093 Y53.403 E73.63612
G1 X60.322 Y53.234 E73.68206
G1 X60.08 Y53.182 E73.69647
G1 X60.08 Y53.429 E73.70526
G1 X60.08 Y53.43 E73.70532
G1 X60.08 Y59.567 E74.06252
G1 X60.08 Y59.568 E74.06258
G1 X60.08 Y59.815 E74.07137
G0 F1800 X60.275 Y59.773
G0 X60.367 Y60.203
G0 X63.184 Y59.046
G0 X82.55 Y73.294
G0 X82.451 Y73.289
G1 F600 X63.375 Y59.225 E74.62657
G1 X63.349 Y59.206 E74.62789
G1 X62.438 Y60.017 E74.69888
G1 X61.521 Y60.5 E74.75921
G1 X60.518 Y60.748 E74.81934
G1 X59.482 Y60.748 E74.87965
G1 X58.479 Y60.5 E74.93978
G1 X57.562 Y60.017 E75.00011
G1 X56.651 Y59.206 E75.0711
G1 X56.626 Y59.224 E75.07289
G1 X37.549 Y73.289 E75.62471
G1 X46.957 Y78.754 E75.87806
G1 X56.915 Y64.072 E76.2898
G1 X57.001 Y63.946 E76.29635
G1 X57.105 Y63.978 E76.30114
G1 X57.878 Y64.22 E76.32382
G1 X58.387 Y64.38 E76.33706
G1 X58.493 Y64.39 E76.33919
G1 X59.356 Y64.477 E76.36327
G1 X59.516 Y64.493 E76.37263
G1 X60 Y64.543 E76.40095
G1 X60.484 Y64.495 E76.42926
G1 X60.644 Y64.479 E76.43862
G1 X61.506 Y64.391 E76.46229
G1 X61.613 Y64.38 E76.46446
G1 X62.094 Y64.23 E76.47692
G1 X62.894 Y63.979 E76.50027
G1 X62.999 Y63.946 E76.50511
G1 X63.084 Y64.071 E76.51391
G1 X73.043 Y78.754 E76.92309
G1 X82.451 Y73.289 E77.17644
G0 F1800 X82.291 Y73.171
G0 X82.35 Y73.092
G0 X73.035 Y78.792
G0 X62.965 Y64.124
G0 X60.634 Y64.662
G0 X63.085 Y84.096
G0 X56.915 Y84.096
G0 X56.971 Y83.87
G1 F600 X63.029 Y83.87 E77.52904
G1 X60.506 Y64.708 E77.97903
G1 X60.504 Y64.696
G1 X60 Y64.696 E77.99231
G1 X59.496 Y64.696 E78.00568
G1 X59.495 Y64.707 E78.00613
G1 X56.971 Y83.87 E78.45895
G0 F1800 X57.171 Y83.87
G0 X57.171 Y84.31
G0 X87.412 Y84.27
;TYPE:WALL-INNER
G1 F600 X87.412 Y85.311 E78.51954
G1 X32.588 Y85.311 E81.71058
G1 X32.588 Y84.27 E81.77117
G1 X87.412 Y84.27 E84.96222
G0 F1800 X63.191 Y84.1
G0 X60.634 Y64.662
G0 X62.965 Y64.124
G0 X73.003 Y78.929
G0 X82.49 Y73.291
G0 X63.184 Y59.046
G0 X60.471 Y60.348
G1 F600 X60.32 Y60.348 E84.97101
G1 X60 Y60.348 E84.98963
G1 X59.68 Y60.348 E85.00826
G1 X59.529 Y60.348 E85.01705
G1 X58.73 Y60.151 E85.06495
G1 X58.623 Y60.124 E85.07137
G1 X57.87 Y59.727 E85.12092
G1 X57.793 Y59.686 E85.12599
G1 X57.141 Y59.107 E85.17675
G1 X56.917 Y58.908 E85.19419
G1 X56.878 Y58.873 E85.19724
G1 X56.865 Y58.832 E85.19974
G1 X57.087 Y58.715 E85.20919
G1 X57.264 Y58.968 E85.22004
G1 X57.922 Y59.536 E85.24422
G1 X57.955 Y59.565 E85.24474
G1 X58.713 Y59.944 E85.26836
G1 X58.773 Y59.974 E85.2696
G1 X59.572 Y60.148 E85.29253
G1 X59.68 Y60.172 E85.29498
G1 X59.68 Y60.242
G1 X59.68 Y60.312
G1 X59.709 Y60.306
G1 X60 Y60.242 E85.29792
G1 X60.29 Y60.305 E85.30085
G1 X60.32 Y60.312
G1 X60.32 Y60.242
G1 X60.32 Y60.172 E85.30153
G1 X60.427 Y60.149 E85.30392
G1 X61.227 Y59.974 E85.35159
G1 X61.287 Y59.944 E85.35549
G1 X62.045 Y59.565 E85.40482
G1 X62.077 Y59.537 E85.4073
G1 X62.736 Y58.968 E85.45797
G1 X62.913 Y58.715 E85.47595
G1 X63.135 Y58.832 E85.49055
G1 X63.122 Y58.873 E85.49113
G1 X63.084 Y58.907
G1 X62.86 Y59.106 E85.50071
G1 X62.207 Y59.686 E85.52507
G1 X62.131 Y59.726 E85.52811
G1 X61.377 Y60.124 E85.55201
G1 X61.271 Y60.15 E85.5557
G1 X60.471 Y60.348 E85.57887
G0 F1800 X60.055 Y52.945
G0 X61.172 Y53.176
G0 X62.913 Y54.282
G1 F600 X62.736 Y54.029 E85.59685
G1 X62.078 Y53.461 E85.64744
G1 X62.045 Y53.432 E85.65
G1 X61.287 Y53.053 E85.69932
