;FLAVOR:Marlin
;TIME:298
;Filament used: 0.135698m
;Layer height: 0.2
;MINX:35.862
;MINY:20.482
;MINZ:0.35
;MAXX:84.138
;MAXY:99.521
;MAXZ:0.35
;Generated with Cura_SteamEngine 4.8.0
M104 S210
M105
M109 S210
M82 ;absolute extrusion mode

G92 E0
G92 E0
G1 F1800 E-4.5
;LAYER_COUNT:1
;LAYER:0
M106 S204
G0 X55.214 Y23.15 Z0.35
;TYPE:SKIRT
G1 F1800 E0
G1 F600 X55.433 Y22.66 E0.03124
G1 X55.723 Y22.209 E0.06245
G1 X56.076 Y21.806 E0.09363
G1 X56.486 Y21.459 E0.1249
G1 X56.942 Y21.178 E0.15607
G1 X57.413 Y20.972 E0.18599
G1 X57.908 Y20.8 E0.2165
G1 X58.393 Y20.674 E0.24566
G1 X58.911 Y20.577 E0.27634
G1 X59.294 Y20.517 E0.2989
G1 X60.001 Y20.482 E0.3401
G1 X60.546 Y20.509 E0.37186
G1 X60.856 Y20.533 E0.38996
G1 X61.571 Y20.664 E0.43227
G1 X62.183 Y20.843 E0.46938
G1 X62.51 Y20.949 E0.48939
G1 X63.007 Y21.152 E0.52064
G1 X63.467 Y21.427 E0.55183
G1 X63.882 Y21.767 E0.58306
G1 X64.242 Y22.164 E0.61425
G1 X64.539 Y22.611 E0.64549
G1 X64.774 Y23.119 E0.67807
G1 X65.002 Y23.733 E0.71619
G1 X65.502 Y25.146 E0.80343
G1 X66.486 Y27.697 E0.96258
G1 X67.543 Y30.22 E1.1218
G1 X68.67 Y32.71 E1.28088
G1 X69.861 Y35.157 E1.43928
G1 X71.135 Y37.596 E1.59945
G1 X72.44 Y39.93 E1.75509
G1 X73.856 Y42.304 E1.91598
G1 X75.316 Y44.601 E2.0744
G1 X76.83 Y46.84 E2.23172
G1 X78.434 Y49.074 E2.3918
G1 X80.083 Y51.237 E2.55011
G1 X81.79 Y53.351 E2.70826
G1 X83.045 Y54.824 E2.8209
G1 X83.468 Y55.419 E2.86339
G1 X83.725 Y55.89 E2.89462
G1 X83.967 Y56.575 E2.9369
G1 X84.086 Y57.097 E2.96807
G1 X84.127 Y57.583 E2.99645
G1 X84.138 Y58.321 E3.03941
G1 X84.138 Y61.672 E3.23446
G1 X84.128 Y62.407 E3.27725
G1 X84.038 Y63.158 E3.32127
G1 X83.895 Y63.681 E3.35283
G1 X83.703 Y64.181 E3.384
G1 X83.438 Y64.648 E3.41526
G1 X83.072 Y65.121 E3.45007
G1 X81.384 Y67.122 E3.60244
G1 X79.675 Y69.268 E3.76212
G1 X78.043 Y71.441 E3.9203
G1 X76.475 Y73.657 E4.07831
G1 X74.948 Y75.948 E4.23856
G1 X73.515 Y78.238 E4.39579
G1 X72.129 Y80.597 E4.55505
G1 X70.81 Y82.995 E4.71434
G1 X69.575 Y85.4 E4.8717
G1 X68.402 Y87.85 E5.02981
G1 X67.284 Y90.371 E5.19033
G1 X66.253 Y92.879 E5.34816
G1 X65.284 Y95.445 E5.50781
G1 X64.795 Y96.827 E5.59313
G1 X64.579 Y97.318 E5.62436
G1 X64.292 Y97.771 E5.65557
G1 X63.942 Y98.177 E5.68677
G1 X63.534 Y98.526 E5.71802
G1 X63.08 Y98.81 E5.74919
G1 X62.539 Y99.041 E5.78343
G1 X62.118 Y99.179 E5.80922
G1 X61.595 Y99.331 E5.84092
G1 X60.896 Y99.461 E5.8823
G1 X60.335 Y99.507 E5.91506
G1 X60.072 Y99.521 E5.93039
G1 X59.346 Y99.486 E5.9727
G1 X58.692 Y99.386 E6.01121
G1 X58.475 Y99.347 E6.02404
G1 X57.957 Y99.214 E6.05517
G1 X57.369 Y99.01 E6.09139
G1 X56.88 Y98.79 E6.12261
G1 X56.429 Y98.499 E6.15385
G1 X56.026 Y98.145 E6.18507
G1 X55.681 Y97.735 E6.21626
G1 X55.4 Y97.278 E6.24748
G1 X55.203 Y96.822 E6.27639
G1 X54.989 Y96.214 E6.31391
G1 X54.042 Y93.644 E6.47333
G1 X53.03 Y91.122 E6.6315
G1 X51.952 Y88.638 E6.78911
G1 X50.792 Y86.163 E6.94821
G1 X49.57 Y83.733 E7.10652
G1 X48.264 Y81.312 E7.26663
G1 X46.905 Y78.955 E7.42499
G1 X45.479 Y76.634 E7.58355
G1 X43.989 Y74.355 E7.74203
G1 X42.444 Y72.135 E7.89946
G1 X40.804 Y69.913 E8.06021
G1 X39.14 Y67.786 E8.21739
G1 X37.087 Y65.338 E8.40335
G1 X36.802 Y64.991 E8.42949
G1 X36.493 Y64.552 E8.46074
G1 X36.207 Y63.952 E8.49942
G1 X36.031 Y63.416 E8.53226
G1 X35.913 Y62.893 E8.56347
G1 X35.873 Y62.414 E8.59145
G1 X35.862 Y61.663 E8.63516
G1 X35.862 Y58.288 E8.8316
G1 X35.873 Y57.581 E8.87276
G1 X35.964 Y56.831 E8.91673
G1 X36.105 Y56.319 E8.94765
G1 X36.297 Y55.819 E8.97882
G1 X36.562 Y55.352 E9.01007
G1 X36.931 Y54.875 E9.04517
G1 X38.627 Y52.863 E9.19834
G1 X40.31 Y50.749 E9.35562
G1 X41.955 Y48.56 E9.51499
G1 X43.512 Y46.358 E9.67197
G1 X45.039 Y44.066 E9.83227
G1 X46.486 Y41.752 E9.99112
G1 X47.86 Y39.41 E10.14917
G1 X49.175 Y37.021 E10.30789
G1 X50.422 Y34.59 E10.46692
G1 X51.595 Y32.138 E10.62513
G1 X52.707 Y29.632 E10.78471
G1 X53.742 Y27.114 E10.94316
G1 X54.702 Y24.57 E11.10143
G1 X55.214 Y23.15 E11.18929
G0 F1800 X55.59 Y23.286
G1 F600 X55.799 Y22.825 E11.21875
G1 X56.078 Y22.404 E11.24815
G1 X56.419 Y22.031 E11.27756
G1 X56.816 Y21.717 E11.30703
G1 X57.422 Y21.398 E11.34689
G1 X58.035 Y21.179 E11.38478
G1 X58.467 Y21.067 E11.41075
G1 X58.985 Y20.97 E11.44143
G1 X59.353 Y20.913 E11.4631
G1 X59.981 Y20.882 E11.4997
G1 X60.624 Y20.915 E11.53717
G1 X60.823 Y20.931 E11.54879
G1 X61.46 Y21.048 E11.58649
G1 X62.06 Y21.224 E11.62288
G1 X62.387 Y21.33 E11.64289
G1 X62.854 Y21.523 E11.6723
G1 X63.285 Y21.788 E11.70175
G1 X63.668 Y22.117 E11.73114
G1 X63.996 Y22.502 E11.76058
G1 X64.258 Y22.935 E11.79004
G1 X64.399 Y23.258 E11.81055
G1 X64.625 Y23.866 E11.84831
G1 X65.138 Y25.317 E11.93788
G1 X66.107 Y27.829 E12.0946
G1 X67.18 Y30.391 E12.25627
G1 X68.303 Y32.871 E12.41473
G1 X69.504 Y35.338 E12.57443
G1 X70.774 Y37.769 E12.73407
G1 X72.105 Y40.15 E12.89284
G1 X73.502 Y42.492 E13.05157
G1 X74.98 Y44.818 E13.21198
G1 X76.506 Y47.075 E13.37055
G1 X78.107 Y49.304 E13.53029
G1 X79.769 Y51.485 E13.6899
G1 X81.491 Y53.617 E13.84941
G1 X82.741 Y55.084 E13.96159
G1 X83.132 Y55.637 E14.00101
G1 X83.373 Y56.082 E14.03047
G1 X83.584 Y56.693 E14.06809
G1 X83.695 Y57.186 E14.09751
G1 X83.727 Y57.589 E14.12104
G1 X83.738 Y58.327 E14.164
G1 X83.738 Y61.667 E14.3584
G1 X83.728 Y62.402 E14.40119
G1 X83.648 Y63.069 E14.44029
G1 X83.512 Y63.565 E14.47022
G1 X83.329 Y64.036 E14.49963
G1 X82.925 Y64.669 E14.54334
G1 X82.732 Y64.905 E14.56109
G1 X81.064 Y66.882 E14.71164
G1 X79.358 Y69.024 E14.87103
G1 X77.73 Y71.193 E15.02888
G1 X76.132 Y73.45 E15.18985
G1 X74.62 Y75.72 E15.3486
G1 X73.174 Y78.029 E15.50717
G1 X71.783 Y80.396 E15.66697
G1 X70.47 Y82.784 E15.82559
G1 X69.202 Y85.253 E15.98715
G1 X68.034 Y87.695 E16.1447
G1 X66.92 Y90.205 E16.30454
G1 X65.885 Y92.722 E16.46295
G1 X64.896 Y95.341 E16.62589
G1 X64.418 Y96.693 E16.70936
G1 X64.212 Y97.155 E16.7388
G1 X63.936 Y97.579 E16.76825
G1 X63.597 Y97.954 E16.79767
G1 X63.203 Y98.27 E16.82707
G1 X62.764 Y98.521 E16.85651
G1 X62.125 Y98.758 E16.89617
G1 X62.006 Y98.795 E16.90343
G1 X61.483 Y98.947 E16.93513
G1 X60.862 Y99.062 E16.97189
G1 X60.314 Y99.107 E17.00389
G1 X60.051 Y99.121 E17.01922
G1 X59.405 Y99.09 E17.05687
G1 X58.763 Y98.993 E17.09466
G1 X58.086 Y98.835 E17.13512
G1 X57.505 Y98.634 E17.17091
G1 X57.045 Y98.425 E17.20031
G1 X56.624 Y98.145 E17.22974
G1 X56.252 Y97.803 E17.25916
G1 X55.939 Y97.406 E17.28858
G1 X55.692 Y96.965 E17.318
G1 X55.581 Y96.689 E17.33532
G1 X55.382 Y96.125 E17.37013
G1 X54.416 Y93.505 E17.53266
G1 X53.397 Y90.962 E17.69212
G1 X52.323 Y88.488 E17.8491
G1 X51.147 Y85.979 E18.01038
G1 X49.908 Y83.515 E18.17091
G1 X48.641 Y81.166 E18.32626
G1 X47.243 Y78.741 E18.48918
G1 X45.811 Y76.411 E18.64836
G1 X44.335 Y74.153 E18.80538
G1 X42.749 Y71.874 E18.96699
G1 X41.125 Y69.674 E19.12615
G1 X39.449 Y67.533 E19.28441
G1 X37.396 Y65.084 E19.47041
G1 X37.111 Y64.737 E19.49655
G1 X36.822 Y64.322 E19.52599
G1 X36.582 Y63.814 E19.55869
G1 X36.413 Y63.299 E19.59024
G1 X36.304 Y62.805 E19.61968
G1 X36.273 Y62.408 E19.64286
G1 X36.262 Y61.657 E19.68658
G1 X36.262 Y58.294 E19.88232
G1 X36.273 Y57.587 E19.92348
G1 X36.354 Y56.921 E19.96253
G1 X36.488 Y56.435 E19.99187
G1 X36.671 Y55.964 E20.02128
G1 X37.075 Y55.331 E20.06499
G1 X37.272 Y55.091 E20.08306
G1 X38.913 Y53.146 E20.23118
G1 X40.626 Y50.993 E20.39132
G1 X42.272 Y48.802 E20.55083
G1 X43.867 Y46.547 E20.7116
G1 X45.368 Y44.294 E20.86917
G1 X46.818 Y41.976 E21.02831
G1 X48.206 Y39.611 E21.18792
G1 X49.537 Y37.191 E21.34868
G1 X50.775 Y34.781 E21.50638
G1 X51.964 Y32.294 E21.66683
G1 X53.071 Y29.798 E21.82576
G1 X54.11 Y27.27 E21.98484
G1 X55.094 Y24.663 E22.14703
G1 X55.152 Y24.497 E22.15727
G1 X55.59 Y23.286 E22.23222
G1 F1800 E17.73222
;MESH:oriceps.stl
G0 X56.14 Y35.661
G0 X56.987 Y35.851
G0 X56.853 Y36.883
G0 X56.756 Y36.86
;TYPE:WALL-OUTER
G1 F1800 E22.23222
G1 F600 X56.989 Y35.832 E22.29358
G1 X56.989 Y36.86 E22.31073
G1 X56.989 Y36.969 E22.31708
G1 X56.989 Y50.724 E23.11769
G1 X56.727 Y50.786 E23.13336
G1 X56.727 Y50.724
G1 X56.727 Y36.969 E23.65776
G1 X56.756 Y36.86 E23.66188
G0 F1800 X56.8 Y36.665
G1 F1800 E19.16188
G0 X56.889 Y36.688
G0 X55.983 Y36.355
G0 X57.98 Y23.885
G0 X58.917 Y23.546
G0 X59.817 Y23.395
G0 X60.704 Y23.455
G0 X62.024 Y23.866
G0 X64.006 Y36.347
G0 X63.01 Y36.579
G0 X63.167 Y36.555
G1 F1800 E23.66188
G1 F600 X63.252 Y36.89 E23.682
G1 X63.252 Y50.721 E24.48704
G1 X63.252 Y50.782 E24.49059
G1 X62.99 Y50.721 E24.50059
G1 X62.99 Y36.89 E25.02789
G1 X62.99 Y36.555 E25.03852
G1 X62.991 Y35.726 E25.08677
G1 X63.167 Y36.555 E25.0983
G0 F1800 X63.216 Y36.749
G1 F1800 E20.5983
G0 X63.118 Y36.771
G0 X63.232 Y40.126
G0 X64.263 Y40.126
G0 X64.272 Y39.939
G1 F1800 E25.0983
G1 F600 X64.504 Y40.451 E25.13102
G1 X64.504 Y51.055 E25.74822
G1 X64.504 Y51.14 E25.75317
G1 X64.243 Y51.055 E25.76304
G1 X64.243 Y40.451 E26.16577
G1 X64.243 Y39.939 E26.17611
G1 X64.243 Y39.865 E26.18041
G1 X64.272 Y39.939 E26.18081
G0 F1800 X64.354 Y40.121
G1 F1800 E21.68081
G0 X64.343 Y40.161
G0 X64.484 Y42.603
G0 X65.515 Y42.603
G0 X65.757 Y42.575
G1 F1800 E26.18081
G1 F600 X65.757 Y51.498 E26.70017
G1 X65.757 Y51.605 E26.7064
G1 X65.495 Y51.498 E26.71626
G1 X65.495 Y42.575 E27.05644
G1 X65.495 Y42.177 E27.07961
G1 X65.757 Y42.575 E27.09093
G0 F1800 X65.757 Y42.775
G1 F1800 E22.59093
G0 X65.657 Y42.775
G0 X65.737 Y44.138
G0 X66.768 Y44.138
G0 X67.01 Y44.099
G1 F1800 E27.09093
G1 F600 X67.01 Y52.043 E27.55331
G1 X67.01 Y52.169 E27.56064
G1 X66.748 Y52.043 E27.57044
G1 X66.748 Y44.099 E27.8733
G1 X66.748 Y43.804 E27.89047
G1 X67.01 Y44.099 E27.9008
G0 F1800 X67.01 Y44.299
G1 F1800 E23.4008
G0 X66.91 Y44.299
G0 X66.99 Y45.345
G0 X68.02 Y45.345
G0 X68.262 Y45.299
G1 F1800 E27.9008
G1 F600 X68.262 Y52.677 E28.33023
G1 X68.262 Y52.821 E28.33862
G1 X68 Y52.677 E28.34838
G1 X68 Y45.299 E28.62966
G1 X68 Y45.063 E28.6434
G1 X68.262 Y45.299 E28.65335
G0 F1800 X68.262 Y45.499
G1 F1800 E24.15335
G0 X68.162 Y45.499
G0 X68.242 Y46.344
G0 X69.273 Y46.344
G0 X69.515 Y46.291
G1 F1800 E28.65335
G1 F600 X69.515 Y53.389 E29.0665
G1 X69.515 Y53.547 E29.07569
G1 X69.253 Y53.389 E29.08545
G1 X69.253 Y46.291 E29.35606
G1 X69.253 Y46.094 E29.36752
G1 X69.515 Y46.291 E29.37732
G0 F1800 X69.515 Y46.491
G1 F1800 E24.87732
G0 X69.415 Y46.491
G0 X70.526 Y47.194
G0 X70.767 Y47.136
G1 F1800 E29.37732
G1 F600 X70.767 Y54.163 E29.78633
G1 X70.767 Y54.332 E29.79617
G1 X70.506 Y54.163 E29.80587
G1 X70.506 Y47.136 E30.07275
G1 X70.506 Y46.967 E30.08258
G1 X70.767 Y47.136 E30.09228
G0 F1800 X70.767 Y47.336
G1 F1800 E25.59228
G0 X70.667 Y47.336
G0 X71.778 Y47.94
G0 X72.02 Y47.891
G1 F1800 E30.09228
G1 F600 X72.02 Y54.987 E30.50531
G1 X72.02 Y55.164 E30.51561
G1 X71.758 Y54.987 E30.5254
G1 X71.758 Y47.891 E30.79593
G1 X71.758 Y47.734 E30.80507
G1 X72.02 Y47.891 E30.81485
G0 F1800 X72.02 Y48.091
G1 F1800 E26.31485
G0 X71.92 Y48.091
G0 X68.242 Y53.943
G0 X68.262 Y53.881
G1 F1800 E30.81485
G1 F600 X68.262 Y66.119 E31.52716
G1 X68 Y66.266 E31.54465
G1 X68 Y66.119 E31.54551
G1 X68.008 Y53.881 E32.00496
G1 X68.009 Y53.738 E32.01328
G1 X68.262 Y53.881 E32.02261
G0 F1800 X68.262 Y54.081
G1 F1800 E27.52261
G0 X68.162 Y54.081
G0 X66.99 Y53.755
G0 X67.01 Y53.201
G1 F1800 E32.02261
G1 F600 X67.01 Y66.798 E32.81403
G1 X66.748 Y66.928 E32.83105
G1 X66.748 Y66.798 E32.8314
G1 X66.748 Y53.201 E33.34978
G1 X66.748 Y53.071 E33.35734
G1 X67.01 Y53.201 E33.36713
G0 F1800 X67.01 Y53.401
G1 F1800 E28.86713
G0 X66.91 Y53.401
G0 X65.737 Y53.088
G0 X65.757 Y52.609
G1 F1800 E33.36713
G1 F600 X65.757 Y67.391 E34.22752
G1 X65.495 Y67.502 E34.24409
G1 X65.495 Y67.391
G1 X65.495 Y52.609 E34.80764
G1 X65.495 Y52.498 E34.8141
G1 X65.757 Y52.609 E34.82394
G0 F1800 X65.757 Y52.809
G1 F1800 E30.32394
G0 X65.657 Y52.809
G0 X65.506 Y67.486
G0 X64.484 Y67.486
G0 X64.25 Y67.887
G1 F1800 E34.82394
G1 F600 X64.243 Y67.139 E34.86748
G1 X64.243 Y52.116 E35.74189
G1 X64.243 Y52.028 E35.74702
G1 X64.504 Y52.116 E35.75688
G1 X64.504 Y67.139 E36.32744
G1 X64.504 Y67.884 E36.35532
G1 X64.25 Y67.969 E36.37091
G1 X64.25 Y67.887
G0 F1800 X64.249 Y67.687
G1 F1800 E31.87091
G0 X64.348 Y67.688
G0 X64.254 Y52.044
G0 X63.232 Y52.044
G0 X63.252 Y51.733
G1 F1800 E36.37091
G1 F600 X63.252 Y68.266 E37.33322
G1 X62.99 Y68.33 E37.34892
G1 X62.99 Y68.266
G1 X62.99 Y51.733 E37.97923
G1 X62.991 Y51.669 E37.98295
G1 X63.252 Y51.733 E37.99292
G0 F1800 X63.252 Y51.933
G1 F1800 E33.49292
G0 X63.152 Y51.933
G0 X61.579 Y51.902
G0 X61.999 Y51.478
G1 F1800 E37.99292
G1 F600 X61.999 Y68.522 E38.98497
G1 X60.609 Y68.681 E39.06641
G1 X59.109 Y68.663 E39.15372
G1 X57.98 Y68.522 E39.21995
G1 X57.98 Y51.478 E40.212
G1 X59.109 Y51.337 E40.27822
G1 X60.609 Y51.319 E40.36553
G1 X61.999 Y51.478 E40.44697
G0 F1800 X61.999 Y51.678
G0 X61.537 Y51.867
G0 X61.599 Y51.834
;TYPE:WALL-INNER
G1 F600 X61.599 Y68.166 E41.39758
G1 X60.592 Y68.281 E41.45657
G1 X59.137 Y68.263 E41.54126
G1 X58.38 Y68.169 E41.58566
G1 X58.38 Y51.831 E42.53662
G1 X59.137 Y51.737 E42.58102
G1 X60.592 Y51.719 E42.66572
G1 X61.599 Y51.834 E42.72471
G0 F1800 X61.209 Y52.183
;TYPE:SKIN
G1 F600 X61.209 Y67.817 E43.63469
G1 X60.567 Y67.891 E43.67231
G1 X59.163 Y67.873 E43.75403
G1 X58.77 Y67.825 E43.77708
G1 X58.77 Y52.175 E44.68799
G1 X59.163 Y52.127 E44.71103
G1 X60.567 Y52.109 E44.79276
G1 X61.209 Y52.183 E44.83038
G0 F1800 X61.009 Y52.523
;TYPE:SKIN
G1 F600 X60.826 Y52.34 E44.84544
G0 F1800 X60.233 Y52.313
G1 F600 X61.009 Y53.089 E44.90931
G0 F1800 X61.009 Y53.655
G1 F600 X59.674 Y52.32 E45.0192
G0 F1800 X59.122 Y52.334
G1 F600 X61.009 Y54.22 E45.17449
G0 F1800 X61.009 Y54.786
G1 F600 X58.969 Y52.746 E45.34241
G0 F1800 X58.969 Y53.312
G1 F600 X61.009 Y55.352 E45.51034
G0 F1800 X61.009 Y55.918
G1 F600 X58.969 Y53.878 E45.67826
G0 F1800 X58.969 Y54.443
G1 F600 X61.009 Y56.483 E45.84618
G0 F1800 X61.009 Y57.049
G1 F600 X58.969 Y55.009 E46.0141
G0 F1800 X58.969 Y55.575
G1 F600 X61.009 Y57.615 E46.18202
G0 F1800 X61.009 Y58.18
G1 F600 X58.969 Y56.14 E46.34994
G0 F1800 X58.969 Y56.706
G1 F600 X61.009 Y58.746 E46.51787
G0 F1800 X61.009 Y59.312
G1 F600 X58.969 Y57.272 E46.68579
G0 F1800 X58.969 Y57.837
G1 F600 X61.009 Y59.877 E46.85371
G0 F1800 X61.009 Y60.443
G1 F600 X58.969 Y58.403 E47.02163
G0 F1800 X58.969 Y58.969
G1 F600 X61.009 Y61.009 E47.18955
G0 F1800 X61.009 Y61.574
G1 F600 X58.969 Y59.534 E47.35748
G0 F1800 X58.969 Y60.1
G1 F600 X61.009 Y62.14 E47.5254
G0 F1800 X61.009 Y62.706
G1 F600 X58.969 Y60.666 E47.69332
G0 F1800 X58.969 Y61.231
G1 F600 X61.009 Y63.271 E47.86124
G0 F1800 X61.009 Y63.837
G1 F600 X58.969 Y61.797 E48.02916
G0 F1800 X58.969 Y62.363
G1 F600 X61.009 Y64.403 E48.19708
G0 F1800 X61.009 Y64.968
G1 F600 X58.969 Y62.928 E48.36501
G0 F1800 X58.969 Y63.494
G1 F600 X61.009 Y65.534 E48.53293
G0 F1800 X61.009 Y66.1
G1 F600 X58.969 Y64.06 E48.70085
G0 F1800 X58.969 Y64.626
G1 F600 X61.009 Y66.666 E48.86877
G0 F1800 X61.009 Y67.231
G1 F600 X58.969 Y65.191 E49.03669
G0 F1800 X58.969 Y65.757
G1 F600 X60.865 Y67.653 E49.19276
G0 F1800 X60.332 Y67.686
G1 F600 X58.969 Y66.323 E49.30496
G0 F1800 X58.969 Y66.888
G1 F600 X59.759 Y67.679 E49.37003
G0 F1800 X59.186 Y67.672
G1 F600 X58.969 Y67.454 E49.38793
G1 F1800 E44.88793
G0 X59.407 Y51.734
G0 X59.219 Y50.008
G0 X59.379 Y50.393
;TYPE:WALL-OUTER
G1 F1800 E49.38793
G1 F600 X58.201 Y50.523 E49.45691
G1 X57.98 Y50.547 E49.46985
G1 X57.98 Y50.325 E49.47797
G1 X57.98 Y50.324 E49.47803
G1 X57.98 Y30.576 E50.62747
G1 X58.468 Y27.389 E50.81513
G1 X58.777 Y24.512 E50.98355
G1 X59.133 Y24.385 E51.00555
G1 X59.856 Y24.264 E51.04822
G1 X60.549 Y24.312 E51.08865
G1 X61.222 Y24.518 E51.12962
G1 X61.333 Y25.74 E51.20103
