;FLAVOR:Marlin
;TIME:2702
;Filament used: 1.04942m
;Layer height: 0.2
;MINX:32.767
;MINY:27.228
;MINZ:0.35
;MAXX:98.326
;MAXY:92.772
;MAXZ:1.35
;Generated with Cura_SteamEngine 4.8.0
M104 S210
M105
M109 S210
M82 ;absolute extrusion mode

G92 E0
G92 E0
G1 F1800 E-4.5
;LAYER_COUNT:6
;LAYER:0
M106 S204
G0 X41.559 Y37.639 Z0.35
;TYPE:SKIRT
G1 F1800 E0
G1 F600 X41.817 Y37.367 E0.02182
G1 X42.536 Y36.637 E0.08146
G1 X42.668 Y36.509 E0.09216
G1 X44.048 Y35.244 E0.20113
G1 X44.151 Y35.154 E0.20909
G1 X44.81 Y34.596 E0.25935
G1 X45.023 Y34.424 E0.27528
G1 X45.79 Y33.826 E0.33189
G1 X46.123 Y33.579 E0.35602
G1 X46.982 Y32.968 E0.41738
G1 X47.313 Y32.747 E0.44055
G1 X48.19 Y32.178 E0.50139
G1 X48.515 Y31.98 E0.52355
G1 X49.486 Y31.41 E0.58908
G1 X49.737 Y31.272 E0.60575
G1 X50.679 Y30.772 E0.66783
G1 X51.048 Y30.59 E0.69178
G1 X52.083 Y30.1 E0.75843
G1 X52.325 Y29.994 E0.77381
G1 X53.317 Y29.575 E0.83648
G1 X53.636 Y29.449 E0.85645
G1 X54.682 Y29.061 E0.92138
G1 X55.021 Y28.946 E0.94222
G1 X56.094 Y28.601 E1.00782
G1 X56.354 Y28.526 E1.02357
G1 X57.398 Y28.239 E1.08659
G1 X57.726 Y28.158 E1.10626
G1 X58.8 Y27.911 E1.1704
G1 X59.095 Y27.851 E1.18793
G1 X60.244 Y27.641 E1.25591
G1 X60.522 Y27.599 E1.27228
G1 X61.623 Y27.446 E1.33698
G1 X61.922 Y27.413 E1.35448
G1 X63.001 Y27.31 E1.41757
G1 X63.351 Y27.286 E1.43799
G1 X64.374 Y27.233 E1.49762
G1 X64.56 Y27.228 E1.50845
G1 X66.413 Y27.228 E1.6163
G1 X66.538 Y27.23 E1.62358
G1 X67.295 Y27.258 E1.66767
G1 X67.67 Y27.282 E1.68954
G1 X68.814 Y27.375 E1.75635
G1 X69.072 Y27.404 E1.77146
G1 X70.269 Y27.555 E1.84168
G1 X70.516 Y27.593 E1.85623
G1 X71.712 Y27.798 E1.92686
G1 X71.938 Y27.843 E1.94027
G1 X72.952 Y28.061 E2.00064
G1 X73.345 Y28.156 E2.02417
G1 X74.378 Y28.425 E2.0863
G1 X74.696 Y28.518 E2.10559
G1 X75.665 Y28.815 E2.16458
G1 X76.041 Y28.941 E2.18766
G1 X77.067 Y29.306 E2.25104
G1 X77.36 Y29.418 E2.2693
G1 X78.51 Y29.886 E2.34157
G1 X78.719 Y29.979 E2.35488
G1 X79.735 Y30.445 E2.41994
G1 X80.014 Y30.582 E2.43804
G1 X81.018 Y31.095 E2.50366
G1 X81.319 Y31.26 E2.52364
G1 X82.21 Y31.767 E2.58331
G1 X82.554 Y31.975 E2.60671
G1 X83.511 Y32.576 E2.67248
G1 X83.74 Y32.729 E2.68851
G1 X84.769 Y33.443 E2.76141
G1 X84.934 Y33.565 E2.77336
G1 X85.827 Y34.24 E2.83851
G1 X86.06 Y34.428 E2.85594
G1 X86.952 Y35.167 E2.92336
G1 X87.171 Y35.361 E2.94039
G1 X87.962 Y36.078 E3.00253
G1 X88.146 Y36.253 E3.01731
G1 X88.972 Y37.067 E3.08481
G1 X89.185 Y37.287 E3.10263
G1 X89.961 Y38.122 E3.16898
G1 X90.181 Y38.373 E3.18841
G1 X90.921 Y39.243 E3.25489
G1 X91.114 Y39.484 E3.27286
G1 X91.768 Y40.325 E3.33487
G1 X91.955 Y40.578 E3.35318
G1 X92.57 Y41.442 E3.41491
G1 X92.787 Y41.764 E3.43751
G1 X93.362 Y42.651 E3.49904
G1 X93.557 Y42.97 E3.5208
G1 X94.092 Y43.878 E3.58214
G1 X94.166 Y44.011 E3.591
G1 X94.777 Y45.159 E3.66669
G1 X94.935 Y45.479 E3.68746
G1 X95.388 Y46.432 E3.74888
G1 X95.545 Y46.787 E3.77148
G1 X95.96 Y47.77 E3.83358
G1 X96.092 Y48.102 E3.85438
G1 X96.506 Y49.223 E3.92393
G1 X96.593 Y49.482 E3.93983
G1 X96.937 Y50.551 E4.0052
G1 X97.013 Y50.812 E4.02102
G1 X97.285 Y51.795 E4.08039
G1 X97.378 Y52.168 E4.10276
G1 X97.629 Y53.268 E4.16843
G1 X97.698 Y53.611 E4.1888
G1 X97.905 Y54.751 E4.25624
G1 X97.944 Y55.001 E4.27096
G1 X98.094 Y56.089 E4.33489
G1 X98.123 Y56.357 E4.35058
G1 X98.239 Y57.604 E4.42348
G1 X98.253 Y57.809 E4.43544
G1 X98.309 Y58.879 E4.4978
G1 X98.319 Y59.275 E4.52086
G1 X98.326 Y60.329 E4.58221
G1 X98.319 Y60.71 E4.60439
G1 X98.28 Y61.759 E4.66549
G1 X98.257 Y62.131 E4.68718
G1 X98.165 Y63.258 E4.753
G1 X98.141 Y63.484 E4.76622
G1 X97.992 Y64.68 E4.83638
G1 X97.95 Y64.957 E4.85268
G1 X97.754 Y66.11 E4.92076
G1 X97.713 Y66.318 E4.9331
G1 X97.48 Y67.409 E4.99803
G1 X97.382 Y67.81 E5.02206
G1 X97.102 Y68.883 E5.0866
G1 X97.023 Y69.151 E5.10286
G1 X96.724 Y70.126 E5.16222
G1 X96.599 Y70.501 E5.18523
G1 X96.231 Y71.535 E5.24911
G1 X96.122 Y71.82 E5.26687
G1 X95.697 Y72.869 E5.33275
G1 X95.636 Y73.009 E5.34164
G1 X95.084 Y74.219 E5.41905
G1 X94.955 Y74.481 E5.43605
G1 X94.441 Y75.483 E5.5016
G1 X94.283 Y75.771 E5.52072
G1 X93.789 Y76.644 E5.5791
G1 X93.571 Y77.004 E5.6036
G1 X92.967 Y77.966 E5.66971
G1 X92.839 Y78.158 E5.68314
G1 X92.18 Y79.113 E5.75068
G1 X91.998 Y79.361 E5.76858
G1 X91.278 Y80.313 E5.83806
G1 X91.144 Y80.48 E5.85052
G1 X90.446 Y81.325 E5.91431
G1 X90.181 Y81.628 E5.93774
G1 X89.486 Y82.397 E5.99808
G1 X89.231 Y82.665 E6.01961
G1 X88.484 Y83.422 E6.08151
G1 X88.263 Y83.635 E6.09937
G1 X87.445 Y84.397 E6.16444
G1 X87.17 Y84.638 E6.18573
G1 X86.264 Y85.409 E6.25497
G1 X86.058 Y85.574 E6.27033
G1 X85.243 Y86.208 E6.33043
G1 X84.929 Y86.44 E6.35316
G1 X84.129 Y87.009 E6.4103
G1 X83.776 Y87.247 E6.43508
G1 X82.887 Y87.823 E6.49674
G1 X82.565 Y88.018 E6.51865
G1 X81.555 Y88.611 E6.58682
G1 X81.296 Y88.753 E6.60401
G1 X80.47 Y89.192 E6.65846
G1 X80.06 Y89.396 E6.68511
G1 X79.108 Y89.849 E6.74648
G1 X78.752 Y90.006 E6.76912
G1 X77.769 Y90.421 E6.83123
G1 X77.442 Y90.551 E6.85171
G1 X76.401 Y90.937 E6.91633
G1 X76.069 Y91.05 E6.93675
G1 X74.984 Y91.399 E7.00308
G1 X74.725 Y91.474 E7.01878
G1 X73.681 Y91.761 E7.0818
G1 X73.349 Y91.843 E7.1017
G1 X72.237 Y92.097 E7.1681
G1 X71.998 Y92.145 E7.18228
G1 X70.916 Y92.345 E7.24633
G1 X70.535 Y92.405 E7.26878
G1 X69.393 Y92.562 E7.33587
G1 X69.118 Y92.591 E7.35197
G1 X67.965 Y92.698 E7.41937
G1 X67.729 Y92.714 E7.43314
G1 X66.705 Y92.767 E7.49282
G1 X66.519 Y92.772 E7.50365
G1 X64.663 Y92.772 E7.61168
G1 X64.533 Y92.77 E7.61925
G1 X63.817 Y92.743 E7.66095
G1 X63.408 Y92.718 E7.6848
G1 X62.262 Y92.624 E7.75173
G1 X62.005 Y92.596 E7.76677
G1 X60.923 Y92.462 E7.83023
G1 X60.568 Y92.408 E7.85113
G1 X59.49 Y92.225 E7.91478
G1 X59.153 Y92.159 E7.93477
G1 X58.131 Y91.941 E7.99559
G1 X57.733 Y91.844 E8.01943
G1 X56.7 Y91.575 E8.08156
G1 X56.382 Y91.482 E8.10085
G1 X55.413 Y91.185 E8.15984
G1 X55.037 Y91.059 E8.18292
G1 X54.011 Y90.694 E8.24631
G1 X53.719 Y90.583 E8.26449
G1 X52.67 Y90.158 E8.33037
G1 X52.364 Y90.024 E8.34981
G1 X51.392 Y89.58 E8.41201
G1 X51.005 Y89.39 E8.4371
G1 X50.094 Y88.923 E8.49669
G1 X49.774 Y88.748 E8.51792
G1 X48.773 Y88.178 E8.58496
G1 X48.522 Y88.025 E8.60207
G1 X47.557 Y87.419 E8.6684
G1 X47.345 Y87.277 E8.68325
G1 X46.505 Y86.699 E8.7426
G1 X46.173 Y86.457 E8.76651
G1 X45.229 Y85.741 E8.83548
G1 X45.043 Y85.592 E8.84935
G1 X44.273 Y84.955 E8.90751
G1 X44.138 Y84.837 E8.91795
G1 X42.752 Y83.569 E9.02729
G1 X42.656 Y83.478 E9.03499
G1 X42.139 Y82.968 E9.07726
G1 X41.903 Y82.724 E9.09702
G1 X41.141 Y81.906 E9.16209
G1 X41.039 Y81.792 E9.17099
G1 X40.231 Y80.847 E9.24336
G1 X39.967 Y80.52 E9.26782
G1 X39.277 Y79.631 E9.33332
G1 X39.096 Y79.385 E9.3511
G1 X38.533 Y78.594 E9.40761
G1 X38.294 Y78.239 E9.43252
G1 X37.717 Y77.35 E9.49421
G1 X37.52 Y77.026 E9.51628
G1 X36.982 Y76.111 E9.57806
G1 X36.786 Y75.757 E9.60161
G1 X36.347 Y74.931 E9.65606
G1 X36.143 Y74.521 E9.68271
G1 X35.69 Y73.569 E9.74408
G1 X35.533 Y73.213 E9.76672
G1 X35.116 Y72.225 E9.82914
G1 X34.988 Y71.903 E9.84931
G1 X34.6 Y70.857 E9.91425
G1 X34.485 Y70.518 E9.93508
G1 X34.14 Y69.445 E10.00069
G1 X34.065 Y69.186 E10.01638
G1 X33.778 Y68.142 E10.0794
G1 X33.696 Y67.81 E10.09931
G1 X33.442 Y66.698 E10.1657
G1 X33.394 Y66.459 E10.17989
G1 X33.194 Y65.377 E10.24393
G1 X33.134 Y64.998 E10.26627
G1 X32.984 Y63.909 E10.33025
G1 X32.948 Y63.581 E10.34946
G1 X32.841 Y62.438 E10.41628
G1 X32.825 Y62.189 E10.4308
G1 X32.772 Y61.167 E10.49036
G1 X32.767 Y60.981 E10.50119
G1 X32.767 Y59.124 E10.60928
G1 X32.769 Y58.994 E10.61685
G1 X32.792 Y58.357 E10.65395
G1 X32.825 Y57.82 E10.68526
G1 X32.915 Y56.723 E10.74933
G1 X32.943 Y56.467 E10.76432
G1 X33.073 Y55.414 E10.82608
G1 X33.132 Y55.023 E10.84909
G1 X33.337 Y53.827 E10.91972
G1 X33.382 Y53.601 E10.93313
G1 X33.6 Y52.587 E10.9935
G1 X33.695 Y52.194 E11.01703
G1 X33.964 Y51.161 E11.07917
G1 X34.057 Y50.843 E11.09845
G1 X34.354 Y49.874 E11.15744
G1 X34.48 Y49.498 E11.18052
G1 X34.845 Y48.472 E11.24391
G1 X34.957 Y48.179 E11.26216
G1 X35.425 Y47.029 E11.33443
G1 X35.516 Y46.824 E11.34749
G1 X36 Y45.769 E11.41505
G1 X36.121 Y45.525 E11.4309
G1 X36.634 Y44.521 E11.49652
G1 X36.799 Y44.22 E11.5165
G1 X37.306 Y43.329 E11.57617
G1 X37.514 Y42.985 E11.59957
G1 X38.115 Y42.028 E11.66535
G1 X38.265 Y41.804 E11.68104
G1 X38.877 Y40.917 E11.74376
G1 X39.099 Y40.613 E11.76567
G1 X39.783 Y39.709 E11.83165
G1 X39.968 Y39.478 E11.84888
G1 X40.606 Y38.704 E11.90726
G1 X40.9 Y38.368 E11.93325
G1 X41.559 Y37.639 E11.99045
G0 F1800 X41.91 Y37.849
G1 F600 X42.102 Y37.648 E12.00663
G1 X42.821 Y36.918 E12.06627
G1 X42.939 Y36.804 E12.07582
G1 X44.319 Y35.539 E12.18478
G1 X44.41 Y35.459 E12.19183
G1 X45.061 Y34.907 E12.24151
G1 X45.269 Y34.739 E12.25707
G1 X46.036 Y34.141 E12.31368
G1 X46.355 Y33.905 E12.33678
G1 X47.214 Y33.294 E12.39814
G1 X47.53 Y33.083 E12.42025
G1 X48.496 Y32.458 E12.48722
G1 X48.718 Y32.325 E12.50228
G1 X49.68 Y31.76 E12.56722
G1 X49.925 Y31.625 E12.5835
G1 X50.867 Y31.125 E12.64558
G1 X51.219 Y30.951 E12.66843
G1 X52.244 Y30.466 E12.73443
G1 X52.481 Y30.362 E12.7495
G1 X53.397 Y29.974 E12.8074
G1 X53.776 Y29.824 E12.83112
G1 X54.811 Y29.44 E12.89538
G1 X55.144 Y29.327 E12.91585
G1 X56.206 Y28.985 E12.98079
G1 X56.46 Y28.911 E12.99619
G1 X57.416 Y28.647 E13.05391
G1 X57.815 Y28.548 E13.07784
G1 X58.881 Y28.303 E13.1415
G1 X59.167 Y28.245 E13.15849
G1 X60.305 Y28.037 E13.22583
G1 X60.577 Y27.995 E13.24184
G1 X61.577 Y27.855 E13.30062
G1 X61.96 Y27.811 E13.32306
G1 X63.039 Y27.708 E13.38615
G1 X63.371 Y27.685 E13.40552
G1 X64.394 Y27.632 E13.46514
G1 X64.56 Y27.628 E13.47481
G1 X66.413 Y27.628 E13.58266
G1 X66.524 Y27.63 E13.58912
G1 X67.271 Y27.657 E13.63263
G1 X67.638 Y27.68 E13.65403
G1 X68.771 Y27.773 E13.7202
G1 X69.023 Y27.801 E13.73496
G1 X70.208 Y27.95 E13.80447
G1 X70.449 Y27.987 E13.81867
G1 X71.634 Y28.19 E13.88864
G1 X71.854 Y28.234 E13.9017
G1 X72.868 Y28.452 E13.96207
G1 X73.245 Y28.543 E13.98465
G1 X74.172 Y28.783 E14.04038
G1 X74.579 Y28.9 E14.06503
G1 X75.548 Y29.197 E14.12402
G1 X75.907 Y29.318 E14.14607
G1 X76.926 Y29.68 E14.20901
G1 X77.21 Y29.789 E14.22672
G1 X78.348 Y30.252 E14.29823
G1 X78.552 Y30.342 E14.31121
G1 X79.568 Y30.808 E14.37627
G1 X79.832 Y30.938 E14.3934
G1 X80.827 Y31.446 E14.45842
G1 X81.122 Y31.608 E14.47801
G1 X82.013 Y32.115 E14.53768
G1 X82.342 Y32.314 E14.56006
G1 X83.217 Y32.862 E14.62015
G1 X83.512 Y33.058 E14.64077
G1 X84.531 Y33.765 E14.71296
G1 X84.693 Y33.884 E14.72466
G1 X85.577 Y34.552 E14.78915
G1 X85.806 Y34.736 E14.80625
G1 X86.607 Y35.398 E14.86673
G1 X86.903 Y35.658 E14.88966
G1 X87.687 Y36.368 E14.95123
G1 X87.865 Y36.538 E14.96555
G1 X88.686 Y37.346 E15.0326
G1 X88.892 Y37.56 E15.04989
G1 X89.736 Y38.47 E15.12213
G1 X89.877 Y38.632 E15.13463
G1 X90.609 Y39.494 E15.20045
G1 X90.798 Y39.73 E15.21805
G1 X91.446 Y40.563 E15.27948
G1 X91.629 Y40.81 E15.29737
G1 X92.293 Y41.745 E15.36412
G1 X92.451 Y41.981 E15.38065
G1 X93.026 Y42.868 E15.44218
G1 X93.212 Y43.174 E15.46302
G1 X93.747 Y44.082 E15.52436
G1 X93.813 Y44.199 E15.53218
G1 X94.375 Y45.252 E15.60166
G1 X94.574 Y45.651 E15.62761
G1 X95.07 Y46.698 E15.69504
G1 X95.177 Y46.943 E15.7106
G1 X95.589 Y47.919 E15.77227
G1 X95.717 Y48.241 E15.79243
G1 X96.127 Y49.351 E15.86131
G1 X96.213 Y49.605 E15.87692
G1 X96.553 Y50.663 E15.9416
G1 X96.627 Y50.919 E15.95711
G1 X96.921 Y51.986 E16.02153
G1 X96.988 Y52.258 E16.03784
G1 X97.237 Y53.348 E16.10291
G1 X97.305 Y53.683 E16.12281
G1 X97.51 Y54.812 E16.1896
G1 X97.548 Y55.057 E16.20403
G1 X97.696 Y56.133 E16.26725
G1 X97.725 Y56.395 E16.28259
G1 X97.834 Y57.552 E16.35023
G1 X97.854 Y57.83 E16.36645
G1 X97.91 Y58.9 E16.42882
G1 X97.919 Y59.278 E16.45083
G1 X97.926 Y60.332 E16.51218
G1 X97.919 Y60.696 E16.53337
G1 X97.881 Y61.736 E16.59394
G1 X97.859 Y62.099 E16.61511
G1 X97.767 Y63.217 E16.6804
G1 X97.744 Y63.435 E16.69316
G1 X97.608 Y64.537 E16.75779
G1 X97.555 Y64.891 E16.77862
G1 X97.361 Y66.033 E16.84605
G1 X97.321 Y66.234 E16.85798
G1 X97.066 Y67.421 E16.92864
G1 X96.995 Y67.709 E16.94591
G1 X96.718 Y68.77 E17.00973
G1 X96.64 Y69.034 E17.02575
G1 X96.315 Y70.091 E17.09012
G1 X96.222 Y70.367 E17.10707
G1 X95.857 Y71.392 E17.1704
G1 X95.751 Y71.67 E17.18772
G1 X95.326 Y72.719 E17.2536
G1 X95.272 Y72.844 E17.26152
G1 X94.76 Y73.968 E17.33341
G1 X94.599 Y74.299 E17.35484
G1 X94.09 Y75.291 E17.41973
G1 X93.935 Y75.574 E17.43852
G1 X93.441 Y76.447 E17.4969
G1 X93.232 Y76.792 E17.52038
G1 X92.634 Y77.745 E17.58586
G1 X92.51 Y77.931 E17.59888
G1 X91.905 Y78.809 E17.66094
G1 X91.679 Y79.12 E17.68331
G1 X90.966 Y80.062 E17.75208
G1 X90.835 Y80.225 E17.76425
G1 X90.077 Y81.141 E17.83345
G1 X89.884 Y81.361 E17.85049
G1 X89.196 Y82.122 E17.9102
G1 X88.946 Y82.384 E17.93128
G1 X88.205 Y83.135 E17.99269
G1 X87.99 Y83.342 E18.01006
G1 X87.092 Y84.177 E18.08143
G1 X86.911 Y84.334 E18.09538
G1 X86.013 Y85.097 E18.16397
G1 X85.812 Y85.258 E18.17895
G1 X85.006 Y85.886 E18.23843
G1 X84.697 Y86.114 E18.26078
G1 X83.897 Y86.683 E18.31792
G1 X83.558 Y86.912 E18.34173
G1 X82.669 Y87.488 E18.40339
G1 X82.362 Y87.674 E18.42428
G1 X81.448 Y88.212 E18.48601
G1 X81.108 Y88.4 E18.50863
G1 X80.198 Y88.882 E18.56856
G1 X79.888 Y89.035 E18.58869
G1 X78.936 Y89.488 E18.65005
G1 X78.596 Y89.638 E18.67168
G1 X77.62 Y90.05 E18.73334
G1 X77.302 Y90.176 E18.75325
G1 X76.271 Y90.559 E18.81727
G1 X75.946 Y90.669 E18.83724
G1 X74.872 Y91.015 E18.90292
G1 X74.619 Y91.088 E18.91824
G1 X73.584 Y91.373 E18.98073
G1 X73.26 Y91.453 E19.00015
G1 X72.157 Y91.705 E19.06601
G1 X71.926 Y91.752 E19.07973
G1 X70.749 Y91.968 E19.14938
G1 X70.48 Y92.009 E19.16522
G1 X69.35 Y92.164 E19.2316
G1 X69.081 Y92.193 E19.24735
G1 X67.937 Y92.299 E19.31422
G1 X67.708 Y92.315 E19.32759
G1 X66.684 Y92.368 E19.38727
G1 X66.519 Y92.372 E19.39687
G1 X64.663 Y92.372 E19.5049
G1 X64.548 Y92.37 E19.5116
G1 X63.84 Y92.344 E19.55284
G1 X63.441 Y92.32 E19.5761
G1 X62.392 Y92.235 E19.63736
G1 X62.054 Y92.199 E19.65714
G1 X60.972 Y92.065 E19.7206
G1 X60.635 Y92.014 E19.74044
G1 X59.557 Y91.831 E19.80408
G1 X59.236 Y91.768 E19.82312
G1 X58.214 Y91.55 E19.88395
G1 X57.833 Y91.457 E19.90678
G1 X56.906 Y91.217 E19.96251
G1 X56.499 Y91.1 E19.98716
G1 X55.53 Y90.803 E20.04615
G1 X55.171 Y90.682 E20.0682
G1 X54.152 Y90.32 E20.13114
G1 X53.869 Y90.212 E20.14877
G1 X52.82 Y89.787 E20.21465
G1 X52.53 Y89.66 E20.23308
G1 X51.558 Y89.216 E20.29528
G1 X51.187 Y89.034 E20.31933
G1 X50.285 Y88.572 E20.37832
G1 X49.971 Y88.4 E20.39916
G1 X48.98 Y87.836 E20.46553
G1 X48.734 Y87.686 E20.4823
G1 X47.859 Y87.138 E20.54239
G1 X47.572 Y86.947 E20.56245
G1 X46.657 Y86.316 E20.62715
G1 X46.414 Y86.138 E20.64468
G1 X45.479 Y85.429 E20.71298
G1 X45.298 Y85.284 E20.72648
G1 X44.528 Y84.647 E20.78465
G1 X44.408 Y84.542 E20.79393
G1 X43.022 Y83.274 E20.90327
G1 X42.937 Y83.193 E20.9101
G1 X42.426 Y82.689 E20.95188
G1 X42.196 Y82.451 E20.97114
G1 X41.434 Y81.633 E21.03621
G1 X41.343 Y81.532 E21.04412
G1 X40.535 Y80.587 E21.11649
G1 X40.283 Y80.274 E21.13988
G1 X39.599 Y79.393 E21.2048
G1 X39.422 Y79.153 E21.22216
G1 X38.859 Y78.362 E21.27867
G1 X38.63 Y78.021 E21.30258
G1 X37.997 Y77.043 E21.37038
G1 X37.865 Y76.823 E21.38532
G1 X37.279 Y75.824 E21.45273
G1 X37.139 Y75.569 E21.46966
G1 X36.657 Y74.659 E21.5296
G1 X36.504 Y74.349 E21.54972
G1 X36.051 Y73.397 E21.61109
G1 X35.901 Y73.057 E21.63272
G1 X35.487 Y72.077 E21.69464
G1 X35.363 Y71.763 E21.71429
G1 X34.979 Y70.728 E21.77854
G1 X34.866 Y70.395 E21.79901
G1 X34.524 Y69.333 E21.86395
G1 X34.451 Y69.08 E21.87928
G1 X34.166 Y68.045 E21.94176
G1 X34.086 Y67.721 E21.96119
G1 X33.834 Y66.618 E22.02704
G1 X33.787 Y66.387 E22.04076
